; LightBurn 1.0.06
; GRBL device profile, absolute coords
; Bounds: X45 Y58.84 to X175 Y161.16
G00 G17 G40 G21 G54
G90
M4
; Cut @ 350 mm/min, 100% power
M9
G0X73.803Y67.932
; Layer C27
G1X73.781Y67.943S1000F350
G1X73.741Y68.001
G1X73.649Y68.147
G1X73.583Y68.267
G1X73.525Y68.388
G1X73.473Y68.512
G1X73.428Y68.637
G1X73.39Y68.764
G1X73.357Y68.891
G1X73.33Y69.02
G1X73.309Y69.15
G1X73.294Y69.28
G1X73.283Y69.411
G1Y69.542
G1Y69.673
G1Y69.803
G1Y69.933
G1X73.3Y70.063
G1X73.334Y70.319
G1X73.381Y70.569
G1X73.438Y70.813
G1X73.505Y71.048
G1X73.578Y71.273
G1X73.656Y71.486
G1X73.697Y71.587
G1X73.753Y71.721
G1X73.878Y71.741
G1X73.983Y71.762
G1X74.09Y71.787
G1X74.199Y71.818
G1X74.309Y71.854
G1X74.421Y71.894
G1X74.533Y71.938
G1X74.648Y71.987
G1X74.763Y72.04
G1X74.88Y72.097
G1X74.997Y72.158
G1X75.236Y72.291
G1X75.478Y72.439
G1X75.723Y72.599
G1X75.97Y72.771
G1X76.22Y72.953
G1X76.471Y73.145
G1X76.724Y73.346
G1X76.976Y73.553
G1X77.229Y73.767
G1X77.481Y73.986
G1X77.732Y74.208
G1X77.982Y74.434
G1X78.473Y74.888
G1X78.952Y75.34
G1X79.854Y76.2
G1X80.269Y76.59
G1X80.466Y76.771
G1X80.746Y77.023
G1X80.939Y77.189
G1X80.972
G1X81.001Y77.209
G1X81.033Y77.227
G1X81.068Y77.251
G1X81.107Y77.28
G1X81.191Y77.351
G1X81.285Y77.437
G1X81.436Y77.589
G1X81.542Y77.699
G1X81.957Y78.147
G1X82.129Y78.33
G1X82.229Y78.427
G1X82.267Y78.459
G1X82.289
G1X82.328
G1X82.534Y78.477
G1X82.706Y78.494
G1X83.252Y78.559
G1X83.44Y78.578
G1X83.63Y78.592
G1X83.82
G1X84.009
G1X84.196
G1X84.381Y78.559
G1X84.472Y78.54
G1X84.561Y78.517
G1X84.65Y78.489
G1X84.737Y78.457
G1X84.822Y78.42
G1X84.906Y78.378
G1X84.988Y78.33
G1X85.068Y78.276
G1X85.243Y77.704
G1X85.417Y77.125
G1X85.587Y76.545
G1X85.754Y75.97
G1X86.072Y74.854
G1X86.616Y72.922
G1X86.826Y72.195
G1X86.911Y71.911
G1X86.981Y71.688
G1X87.037Y71.531
G1X87.058Y71.479
G1Y71.468
G1X87.322Y71.316
G1X87.567Y71.162
G1X87.532Y71.06
G1X87.498Y70.978
G1X87.46Y70.899
G1X87.419Y70.823
G1X87.374Y70.749
G1X87.326Y70.677
G1X87.275Y70.608
G1X87.163Y70.478
G1X87.04Y70.357
G1X86.906Y70.245
G1X86.762Y70.141
G1X86.608Y70.046
G1X86.446Y69.958
G1X86.277Y69.877
G1X86.1Y69.804
G1X85.918Y69.737
G1X85.73Y69.676
G1X85.538Y69.62
G1X85.343Y69.57
G1X85.144Y69.525
G1X84.944Y69.484
G1X84.541Y69.413
G1X84.14Y69.356
G1X82.683Y69.185
G1X82.532Y69.164
G1X82.435Y69.148
G1X82.298Y69.101
G1X82.181Y69.055
G1X82.07Y69.003
G1X81.965Y68.946
G1X81.865Y68.885
G1X81.77Y68.819
G1X81.68Y68.749
G1X81.596Y68.675
G1X81.516Y68.596
G1X81.44Y68.514
G1X81.369Y68.428
G1X81.303Y68.339
G1X81.241Y68.246
G1X81.183Y68.149
G1X81.129Y68.05
G1X81.079Y67.948
G1X81.032Y67.843
G1X80.989Y67.735
G1X80.95Y67.625
G1X80.881Y67.398
G1X80.824Y67.163
G1X80.779Y66.922
G1X80.743Y66.675
G1X80.717Y66.425
G1X80.698Y66.171
G1X80.214Y66.245
G1X79.743Y66.323
G1X79.282Y66.406
G1X78.831Y66.494
G1X78.387Y66.587
G1X77.95Y66.686
G1X77.517Y66.79
G1X77.088Y66.899
G1X76.661Y67.015
G1X76.234Y67.136
G1X75.807Y67.264
G1X75.377Y67.398
G1X74.943Y67.539
G1X74.503Y67.687
G1X74.281Y67.763
G1X73.803Y67.932
G1X73.781Y67.943
G1X73.741Y68.001
G1X73.649Y68.147
G1X73.738Y68.031
G0X69.795Y73.209
; Layer C27
G1X69.688Y73.176
G1X69.575Y73.144
G1X69.455Y73.114
G1X69.33Y73.084
G1X69.197Y73.054
G1X69.057Y73.026
G1X68.981
G1X68.902Y73.053
G1X68.74Y73.099
G1X68.576Y73.15
G1X68.408Y73.206
G1X68.238Y73.266
G1X68.065Y73.33
G1X67.532Y73.532
G1X67.169Y73.669
G1X66.802Y73.799
G1X66.433Y73.917
G1X66.248Y73.969
G1X66.063Y74.015
G1X65.879Y74.054
G1X65.696Y74.087
G1X65.514Y74.111
G1X65.333Y74.126
G1X65.153
G1X64.975
G1X64.8Y74.109
G1X64.626Y74.08
G1X64.456Y74.038
G1X64.288Y73.983
G1X64.205Y73.949
G1X64.123Y73.912
G1X64.042Y73.871
G1X63.961Y73.826
G1X63.882Y73.777
G1X63.803Y73.723
G1X63.726Y73.666
G1X63.649Y73.604
G1X63.611Y73.571
G1X63.508Y73.475
G1X63.016Y73.85
G1X62.581Y74.192
G1X62.152Y74.541
G1X61.727Y74.895
G1X61.307Y75.255
G1X60.893Y75.621
G1X60.483Y75.993
G1X60.079Y76.37
G1X59.681Y76.753
G1X59.287Y77.141
G1X58.9Y77.536
G1X58.517Y77.935
G1X58.14Y78.34
G1X57.769Y78.75
G1X57.404Y79.166
G1X57.044Y79.586
G1X56.691Y80.012
G1X56.343Y80.443
G1X56.001Y80.879
G1X55.665Y81.319
G1X55.335Y81.765
G1X55.012Y82.215
G1X54.695Y82.671
G1X54.384Y83.13
G1X54.079Y83.595
G1X53.781Y84.064
G1X53.489Y84.537
G1X53.204Y85.015
G1X52.925Y85.498
G1X52.653Y85.984
G1X52.388Y86.475
G1X52.13Y86.97
G1X51.879Y87.469
G1X51.634Y87.973
G1X51.397Y88.48
G1X51.166Y88.991
G1X50.943Y89.506
G1X50.727Y90.025
G1X50.518Y90.547
G1X50.317Y91.073
G1X50.123Y91.603
G1X49.936Y92.136
G1X49.757Y92.673
G1X49.586Y93.214
G1X49.422Y93.757
G1X49.266Y94.304
G1X49.117Y94.854
G1X48.977Y95.407
G1X48.844Y95.964
G1X48.72Y96.523
G1X48.603Y97.085
G1X48.495Y97.651
G1X48.394Y98.219
G1X48.302Y98.79
G1X48.218Y99.364
G1X48.143Y99.94
G1X48.076Y100.519
G1X48.018Y101.1
G1X47.968Y101.684
G1X47.926Y102.271
G1X47.894Y102.859
G1X47.87Y103.45
G1Y103.747
G1X47.855Y104.043
G1Y104.577
G1Y105.066
G1Y105.553
G1X47.87Y106.04
G1X47.888Y106.525
G1X47.913Y107.008
G1X47.944Y107.49
G1X47.98Y107.97
G1X48.022Y108.449
G1X48.07Y108.926
G1X48.124Y109.402
G1X48.184Y109.875
G1X48.249Y110.348
G1X48.32Y110.818
G1X48.396Y111.286
G1X48.478Y111.753
G1X48.566Y112.218
G1X48.659Y112.681
G1X48.757Y113.142
G1X48.861Y113.601
G1X48.97Y114.058
G1X49.085Y114.513
G1X49.205Y114.966
G1X49.33Y115.417
G1X49.461Y115.865
G1X49.596Y116.312
G1X49.737Y116.756
G1X49.883Y117.198
G1X50.034Y117.637
G1X50.191Y118.075
G1X50.352Y118.51
G1X50.518Y118.942
G1X50.689Y119.372
G1X50.866Y119.8
G1X51.047Y120.225
G1X51.233Y120.647
G1X51.423Y121.067
G1X51.619Y121.484
G1X51.819Y121.899
G1X52.024Y122.311
G1X52.234Y122.72
G1X52.448Y123.126
G1X52.667Y123.53
G1X52.891Y123.931
G1X53.119Y124.329
G1X53.351Y124.723
G1X53.588Y125.115
G1X53.83Y125.504
G1X54.076Y125.89
G1X54.326Y126.273
G1X54.581Y126.653
G1X54.839Y127.03
G1X55.103Y127.403
G1X55.37Y127.774
G1X55.642Y128.141
G1X55.917Y128.504
G1X56.197Y128.865
G1X56.481Y129.222
G1X56.769Y129.576
G1X57.061Y129.926
G1X57.357Y130.273
G1X57.657Y130.616
G1X57.961Y130.956
G1X58.25Y131.272
G1X58.334
G1X58.423Y131.261
G1X58.514Y131.245
G1X58.606Y131.223
G1X58.699Y131.195
G1X58.793Y131.16
G1X58.888Y131.12
G1X58.984Y131.074
G1X59.081Y131.023
G1X59.179Y130.966
G1X59.277Y130.904
G1X59.377Y130.838
G1X59.477Y130.766
G1X59.577Y130.69
G1X59.678Y130.609
G1X59.78Y130.524
G1X59.984Y130.342
G1X60.189Y130.145
G1X60.395Y129.934
G1X60.601Y129.711
G1X60.807Y129.477
G1X61.012Y129.234
G1X61.215Y128.983
G1X61.417Y128.725
G1X61.616Y128.463
G1X61.813Y128.196
G1X62.006Y127.927
G1X62.195Y127.657
G1X62.381Y127.387
G1X62.561Y127.119
G1X62.736Y126.854
G1X62.905Y126.594
G1X63.224Y126.094
G1X63.515Y125.629
G1X63.941Y124.933
G1X63.988Y124.842
G1X64.493Y123.649
G1X64.661Y123.262
G1X64.794Y122.971
G1X64.851Y122.851
G1X64.906Y122.742
G1X64.959Y122.641
G1X65.07Y122.445
G1X65.255Y122.136
G1X65.416
G1X65.751Y122.125
G1X66.08Y122.103
G1X66.405Y122.068
G1X66.724Y122.022
G1X67.039Y121.964
G1X67.349Y121.894
G1X67.655Y121.815
G1X67.958Y121.725
G1X68.257Y121.626
G1X68.553Y121.517
G1X68.846Y121.4
G1X69.136Y121.275
G1X69.424Y121.142
G1X69.711Y121.003
G1X69.995Y120.856
G1X70.279Y120.704
G1X70.561Y120.546
G1X70.842Y120.383
G1X71.123Y120.215
G1X71.404Y120.043
G1X71.966Y119.688
G1X72.531Y119.323
G1X73.68Y118.577
G1X73.973Y118.39
G1X74.269Y118.203
G1X74.643Y117.972
G1X74.668
G1X75.313Y117.865
G1X75.857Y117.789
G1X76.128Y117.756
G1X76.4Y117.725
G1X76.674Y117.698
G1X76.951Y117.674
G1X77.233Y117.654
G1X77.52Y117.638
G1X77.815Y117.627
G1X78.118
G1X78.43
G1X78.754
G1X78.92
G1X79.262Y117.64
G1Y117.607
G1Y117.568
G1X79.204Y117.415
G1X79.137Y117.262
G1X79.058Y117.11
G1X78.968Y116.956
G1X78.567Y116.318
G1X78.469Y116.148
G1X78.378Y115.973
G1X78.295Y115.791
G1X78.225Y115.602
G1X78.195Y115.504
G1X78.17Y115.404
G1X78.148Y115.302
G1X78.131Y115.198
G1X78.12Y115.091
G1Y114.981
G1Y114.888
G1X78.223Y114.784
G1X78.306Y114.718
G1X78.354Y114.686
G1X78.408Y114.653
G1X78.471Y114.619
G1X78.546Y114.583
G1X78.74Y114.496
G1X79.008Y114.384
G1X79.659Y114.12
G1Y113.933
G1X79.597
G1X79.309Y113.968
G1X79.128Y113.994
G1X78.955Y114.025
G1X78.789Y114.06
G1X78.63Y114.1
G1X78.477Y114.144
G1X78.33Y114.193
G1X78.187Y114.247
G1X78.049Y114.305
G1X77.914Y114.367
G1X77.783Y114.435
G1X77.653Y114.506
G1X77.526Y114.582
G1X77.4Y114.663
G1X77.274Y114.748
G1Y114.819
G1Y114.893
G1X77.289Y114.968
G1X77.306Y115.043
G1X77.329Y115.117
G1X77.356Y115.192
G1X77.422Y115.342
G1X77.502Y115.493
G1X77.593Y115.645
G1X77.691Y115.798
G1X78.005Y116.263
G1X78.106Y116.42
G1X78.201Y116.579
G1X78.288Y116.74
G1X78.362Y116.902
G1X78.422Y117.066
G1X78.445Y117.149
G1X78.462Y117.222
G1X77.666
G1X77.165
G1X76.677Y117.234
G1X76.2Y117.256
G1X75.732Y117.289
G1X75.272Y117.336
G1X75.044Y117.365
G1X74.817Y117.398
G1X74.648Y117.426
G1X74.616Y117.438
G1X74.431Y117.547
G1X73.999Y117.81
G1X73.718Y117.986
G1X73.443Y118.162
G1X73.17Y118.339
G1X72.631Y118.697
G1X71.266Y119.618
G1X70.689Y120
G1X70.178Y120.331
G1X69.648Y120.588
G1X69.333Y120.733
G1X69.028Y120.868
G1X68.733Y120.992
G1X68.447Y121.106
G1X68.169Y121.211
G1X67.899Y121.306
G1X67.635Y121.392
G1X67.376Y121.469
G1X67.123Y121.538
G1X66.873Y121.599
G1X66.627Y121.651
G1X66.383Y121.697
G1X66.141Y121.735
G1X65.9Y121.767
G1X65.659Y121.791
G1X65.417Y121.81
G1X65.173Y121.823
G1X64.927
G1X64.678
G1X64.425
G1X64.167
G1X63.903Y121.808
G1X63.633Y121.792
G1X63.356Y121.772
G1X63.071Y121.749
G1X62.473Y121.693
G1X61.452Y121.587
G1X61.403Y121.574
G1X60.673Y121.314
G1X60.254Y121.159
G1X59.837Y120.999
G1X59.422Y120.832
G1X59.011Y120.66
G1X58.604Y120.48
G1X58.202Y120.293
G1X57.808Y120.098
G1X57.421Y119.895
G1X57.043Y119.683
G1X56.676Y119.461
G1X56.319Y119.23
G1X56.146Y119.111
G1X55.976Y118.989
G1X55.809Y118.864
G1X55.646Y118.736
G1X55.486Y118.606
G1X55.33Y118.472
G1X55.179Y118.336
G1X55.031Y118.197
G1X54.888Y118.054
G1X54.749Y117.909
G1X54.614Y117.76
G1X54.485Y117.608
G1X54.36Y117.452
G1X54.24Y117.294
G1X54.125Y117.131
G1X54.016Y116.965
G1X53.912Y116.796
G1X53.814Y116.623
G1X53.721Y116.446
G1X53.634Y116.266
G1X53.553Y116.081
G1X53.478Y115.893
G1X53.41Y115.701
G1X53.348Y115.505
G1X53.292Y115.304
G1X53.243Y115.1
G1X53.201Y114.891
G1X53.166Y114.678
G1X53.138Y114.461
G1X53.118Y114.239
G1X53.105Y114.013
G1Y113.782
G1Y113.547
G1Y113.307
G1X53.129Y113.063
G1X53.155Y112.813
G1X53.221Y112.323
G1X53.176Y112.256
G1X53.052Y112.068
G1X52.98Y111.951
G1X52.916Y111.839
G1X52.858Y111.733
G1X52.808Y111.631
G1X52.764Y111.534
G1X52.726Y111.44
G1X52.694Y111.349
G1X52.667Y111.26
G1X52.646Y111.173
G1X52.629Y111.088
G1X52.616Y111.003
G1Y110.918
G1X52.603Y110.833
G1Y110.658
G1X52.614Y110.474
G1X52.701Y109.559
G1X52.72Y109.261
G1Y109.099
G1X52.734Y108.815
G1Y108.791
G1X52.631Y108.642
G1X52.569Y108.541
G1X52.452Y108.338
G1X52.343Y108.132
G1X52.244Y107.923
G1X52.154Y107.711
G1X52.072Y107.497
G1X51.999Y107.281
G1X51.935Y107.062
G1X51.879Y106.842
G1X51.832Y106.619
G1X51.793Y106.395
G1X51.762Y106.17
G1X51.739Y105.943
G1X51.724Y105.715
G1Y105.485
G1Y105.255
G1Y105.024
G1X51.741Y104.792
G1X51.764Y104.56
G1X51.794Y104.328
G1X51.832Y104.095
G1X51.876Y103.862
G1X51.928Y103.63
G1X51.986Y103.398
G1X52.052Y103.166
G1X52.124Y102.934
G1X52.202Y102.704
G1X52.287Y102.474
G1X52.378Y102.246
G1X52.475Y102.018
G1X52.579Y101.792
G1X52.631Y101.685
G1X52.791Y101.511
G1X53.114Y101.169
G1X53.302Y100.979
G1X53.506Y100.783
G1X53.613Y100.684
G1X53.838Y100.488
G1X54.074Y100.297
G1X54.196Y100.205
G1X54.321Y100.117
G1X54.448Y100.032
G1X54.576Y99.952
G1X54.707Y99.876
G1X54.839Y99.807
G1X54.972Y99.743
G1X55.107Y99.687
G1X55.242Y99.637
G1X55.378Y99.596
G1X55.515Y99.564
G1X55.652Y99.54
G1X55.789Y99.527
G1X55.926
G1X56.063
G1X56.217Y99.554
G1X56.231
G1X56.172Y99.693
G1X56.066Y99.947
G1X55.992Y100.139
G1X55.926Y100.321
G1X55.868Y100.496
G1X55.816Y100.664
G1X55.771Y100.828
G1X55.731Y100.99
G1X55.695Y101.149
G1X55.663Y101.309
G1X55.635Y101.47
G1X55.608Y101.634
G1X55.583Y101.802
G1X55.509Y102.35
G1X55.788Y102.636
G1X56.009Y102.702
G1X56.191Y102.766
G1X56.374Y102.839
G1X56.56Y102.921
G1X56.747Y103.012
G1X56.935Y103.111
G1X57.124Y103.217
G1X57.313Y103.331
G1X57.502Y103.451
G1X57.691Y103.578
G1X57.88Y103.711
G1X58.067Y103.849
G1X58.253Y103.993
G1X58.437Y104.141
G1X58.62Y104.293
G1X58.8Y104.449
G1X58.977Y104.609
G1X59.152Y104.771
G1X59.323Y104.936
G1X59.49Y105.103
G1X59.653Y105.272
G1X59.812Y105.442
G1X59.966Y105.613
G1X60.115Y105.784
G1X60.259Y105.955
G1X60.397Y106.126
G1X60.528Y106.295
G1X60.654Y106.464
G1X60.772Y106.63
G1X60.884Y106.795
G1X61.042Y107.043
G1X61.137Y107.087
G1X61.184Y107.101
G1X61.225
G1X61.277Y107.065
G1X61.418Y106.945
G1X61.836Y106.577
G1X62.125Y106.331
G1X62.276Y106.21
G1X62.434Y106.092
G1X62.6Y105.976
G1X62.775Y105.864
G1X62.961Y105.756
G1X63.159Y105.654
G1X63.264Y105.605
G1X63.371Y105.558
G1X63.483Y105.512
G1X63.598Y105.468
G1X63.718Y105.425
G1X63.842Y105.385
G1X63.97Y105.347
G1X64.008Y105.312
G1X64.041Y105.271
G1X64.072Y105.225
G1X64.1Y105.175
G1X64.126Y105.122
G1X64.151Y105.064
G1X64.173Y105.003
G1X64.193Y104.938
G1X64.211Y104.87
G1X64.227Y104.798
G1X64.254Y104.645
G1X64.273Y104.48
G1X64.286Y104.304
G1Y104.118
G1Y103.923
G1Y103.72
G1Y103.51
G1X64.261Y103.294
G1X64.241Y103.073
G1X64.216Y102.848
G1X64.188Y102.619
G1X64.156Y102.389
G1X64.084Y101.927
G1X64.001Y101.468
G1X63.957Y101.242
G1X63.912Y101.021
G1X63.82Y100.593
G1X63.726Y100.194
G1X63.634Y99.829
G1X63.514Y99.381
G1Y99.302
G1X63.539Y99.216
G1X63.58Y99.047
G1X63.593
G1X63.689
G1X63.84Y99.061
G1X63.99Y99.08
G1X64.138Y99.106
G1X64.284Y99.136
G1X64.429Y99.171
G1X64.574Y99.21
G1X65.146Y99.377
G1X65.434Y99.454
G1X65.724Y99.518
G1X65.797Y99.53
G1X65.894Y99.545
G1Y99.534
G1X66.069Y98.714
G1X66.179Y98.21
G1X66.295Y97.706
G1X66.416Y97.202
G1X66.543Y96.699
G1X66.676Y96.197
G1X66.815Y95.696
G1X66.962Y95.197
G1X67.116Y94.7
G1X67.278Y94.206
G1X67.447Y93.713
G1X67.625Y93.224
G1X67.812Y92.737
G1X68.009Y92.254
G1X68.214Y91.774
G1X68.43Y91.299
G1X68.656Y90.827
G1X68.893Y90.36
G1X69.141Y89.898
G1X69.4Y89.44
G1X69.671Y88.988
G1X69.954Y88.542
G1X70.25Y88.101
G1X70.559Y87.667
G1X70.881Y87.239
G1X71.047Y87.027
G1X71.216Y86.817
G1X71.389Y86.609
G1X71.566Y86.403
G1X71.746Y86.199
G1X71.93Y85.996
G1X72.118Y85.795
G1X72.309Y85.596
G1X72.504Y85.4
G1X72.703Y85.205
G1X72.906Y85.012
G1X73.162Y84.776
G1X73.468Y84.331
G1X74.154Y83.351
G1X74.183Y83.295
G1Y83.176
G1Y83.057
G1X74.161Y82.937
G1X74.144Y82.816
G1X74.122Y82.695
G1X74.096Y82.574
G1X74.032Y82.33
G1X73.956Y82.085
G1X73.87Y81.838
G1X73.776Y81.589
G1X73.372Y80.579
G1X73.277Y80.323
G1X73.19Y80.065
G1X73.113Y79.806
G1X73.048Y79.546
G1X73.009Y79.349
G1X72.997Y79.316
G1X72.895Y79.15
G1X72.818Y79.019
G1X72.674Y78.762
G1X72.544Y78.511
G1X72.427Y78.263
G1X72.322Y78.018
G1X72.228Y77.772
G1X72.145Y77.524
G1X72.071Y77.273
G1X72.007Y77.017
G1X71.95Y76.754
G1X71.9Y76.483
G1X71.857Y76.201
G1X71.819Y75.906
G1X71.802Y75.754
G1X71.771Y75.438
G1X71.74Y75.063
G1Y75.024
G1X71.604Y74.838
G1X71.374Y74.505
G1X71.232Y74.309
G1X71.097Y74.132
G1X71.032Y74.051
G1X70.966Y73.974
G1X70.835Y73.831
G1X70.702Y73.704
G1X70.563Y73.591
G1X70.417Y73.489
G1X70.339Y73.443
G1X70.259Y73.399
G1X70.174Y73.357
G1X70.086Y73.317
G1X69.994Y73.279
G1X69.897Y73.243
G1X69.795Y73.209
G1X69.688Y73.176
G1X69.575Y73.144
G1X69.643Y73.166
G0X80.597Y84.927
; Layer C27
G1X79.926Y85.229
G1X79.563Y85.395
G1X79.188Y85.57
G1X78.805Y85.754
G1X78.421Y85.946
G1X78.04Y86.146
G1X77.666Y86.354
G1X77.484Y86.46
G1X77.305Y86.567
G1X77.131Y86.676
G1X76.961Y86.787
G1X76.798Y86.899
G1X76.64Y87.012
G1X76.489Y87.126
G1X76.346Y87.242
G1X76.211Y87.358
G1X76.085Y87.476
G1X75.968Y87.595
G1X75.86Y87.714
G1X75.764Y87.834
G1X75.678Y87.955
G1X75.64Y88.015
G1X75.604Y88.076
G1X75.572Y88.137
G1X75.617
G1X75.66
G1X75.707Y88.119
G1X75.872Y88.072
G1X76.004Y88.037
G1X76.076Y88.021
G1X76.154Y88.007
G1X76.236Y87.995
G1X76.323
G1X76.415Y87.983
G1X76.512
G1X76.562
G1X76.667Y87.996
G1Y88.026
G1Y88.05
G1X76.691Y88.098
G1X76.73Y88.185
G1X76.655Y88.305
G1X76.578Y88.42
G1X76.539Y88.472
G1X76.499Y88.522
G1X76.455Y88.572
G1X76.405Y88.625
G1X76.348Y88.681
G1X76.205Y88.812
G1X76.012Y88.979
G1X75.597Y89.329
G1X75.519Y89.47
G1X75.44Y89.619
G1X75.276Y89.912
G1X75.106Y90.198
G1X74.933Y90.478
G1X74.757Y90.751
G1X74.067Y91.792
G1X73.906Y92.041
G1X73.753Y92.286
G1X73.61Y92.529
G1X73.479Y92.768
G1X73.361Y93.005
G1X73.258Y93.239
G1X73.235Y93.298
G1X73.187Y93.429
G1X73.237Y93.418
G1X73.272Y93.405
G1X73.337Y93.375
G1X73.398Y93.338
G1X73.456Y93.296
G1X73.631Y93.153
G1X73.696Y93.104
G1X73.768Y93.057
G1X73.848Y93.013
G1X73.938Y92.973
G1X73.988Y92.955
G1X74.041Y92.938
G1X74.098Y92.924
G1X74.159Y92.911
G1X74.223Y92.9
G1X74.292
G1X74.365Y92.885
G1X74.444
G1X74.527
G1X74.542
G1Y92.938
G1Y92.968
G1X74.558Y92.997
G1Y93.023
G1X74.601Y93.1
G1X74.364Y93.564
G1X74.042Y94.198
G1X73.825Y94.637
G1X73.61Y95.086
G1X73.402Y95.542
G1X73.205Y96.005
G1X73.021Y96.47
G1X72.936Y96.703
G1X72.855Y96.937
G1X72.78Y97.17
G1X72.711Y97.402
G1X72.648Y97.634
G1X72.591Y97.864
G1X72.542Y98.094
G1X72.501Y98.321
G1X72.467Y98.547
G1X72.443Y98.77
G1X72.427Y98.991
G1Y99.209
G1Y99.424
G1X72.439Y99.636
G1X72.465Y99.844
G1X72.501Y100.048
G1X72.512Y100.095
G1X72.7
G1X73.226Y99.207
G1X73.664Y98.478
G1X74.071Y97.808
G1X74.447Y97.197
G1X75.103Y96.14
G1X75.631Y95.285
G1X75.846Y94.927
G1X76.027Y94.613
G1X76.106Y94.471
G1X76.176Y94.339
G1X76.237Y94.217
G1X76.29Y94.104
G1X76.335Y94
G1X76.371Y93.905
G1X76.398Y93.818
G1X76.417Y93.739
G1Y93.668
G1X76.428Y93.604
G1Y93.575
G1X76.418Y93.535
G1X76.368Y93.555
G1X76.19Y93.63
G1X75.893Y93.741
G1X75.879
G1X75.8Y93.683
G1X75.729Y93.619
G1X75.602Y93.492
G1X75.615Y93.469
G1X75.862Y93.071
G1X76.2Y92.538
G1X76.448Y92.157
G1X76.713Y91.762
G1X76.992Y91.357
G1X77.284Y90.947
G1X77.587Y90.537
G1X77.901Y90.132
G1X78.061Y89.933
G1X78.222Y89.737
G1X78.386Y89.544
G1X78.551Y89.355
G1X78.717Y89.172
G1X78.884Y88.994
G1X79.053Y88.821
G1X79.221Y88.656
G1X79.391Y88.498
G1X79.56Y88.347
G1X79.73Y88.205
G1X79.9Y88.073
G1X80.209Y87.849
G1X80.133
G1X80.06
G1X79.923Y87.863
G1X79.797Y87.881
G1X79.679Y87.905
G1X79.569Y87.933
G1X79.466Y87.965
G1X79.368Y87.999
G1X79.182Y88.068
G1X79.003Y88.132
G1X78.913Y88.159
G1X78.821Y88.181
G1X78.725Y88.197
G1X78.625
G1X78.559Y88.207
G1X78.547Y88.173
G1Y88.109
G1X78.565Y88.04
G1X78.59Y87.966
G1X78.623Y87.886
G1X78.665Y87.802
G1X78.715Y87.713
G1X78.773Y87.62
G1X78.837Y87.523
G1X78.908Y87.423
G1X78.984Y87.319
G1X79.151Y87.104
G1X79.334Y86.879
G1X79.725Y86.41
G1X80.12Y85.932
G1X80.306Y85.695
G1X80.479Y85.464
G1X80.559Y85.351
G1X80.633Y85.24
G1X80.702Y85.132
G1X80.764Y85.026
G1X80.816Y84.93
G1X80.597
G1X80.141Y85.132
G0X96.41Y80.392
; Layer C27
G1X96.463Y80.468
G1X96.517Y80.537
G1X96.572Y80.6
G1X96.629Y80.656
G1X96.687Y80.705
G1X96.747Y80.747
G1X96.808Y80.781
G1X96.87Y80.808
G1X96.933Y80.825
G1X96.998
G1X97.063
G1X97.129
G1X97.197Y80.806
G1X97.265Y80.777
G1X97.334Y80.738
G1X97.404Y80.688
G1X97.475Y80.628
G1X97.546Y80.555
G1X97.591Y80.505
G1X97.48Y79.854
G1X97.419Y79.538
G1X97.349Y79.194
G1X97.271Y78.831
G1X97.183Y78.459
G1X97.086Y78.086
G1X96.98Y77.72
G1X96.924Y77.543
G1X96.866Y77.371
G1X96.806Y77.205
G1X96.743Y77.047
G1X96.679Y76.896
G1X96.612Y76.756
G1X96.543Y76.626
G1X96.473Y76.508
G1X96.4Y76.402
G1X96.325Y76.31
G1X96.287Y76.27
G1X96.249Y76.233
G1X96.21Y76.201
G1X96.17Y76.173
G1X96.118Y76.222
G1X96.07Y76.278
G1X96.025Y76.34
G1X95.984Y76.409
G1X95.947Y76.484
G1X95.912Y76.565
G1X95.882Y76.652
G1X95.854Y76.743
G1X95.83Y76.839
G1X95.809Y76.94
G1X95.791Y77.045
G1X95.776Y77.153
G1X95.764Y77.265
G1Y77.38
G1X95.75Y77.498
G1Y77.618
G1Y77.865
G1X95.763Y78.117
G1X95.788Y78.373
G1X95.822Y78.63
G1X95.866Y78.884
G1X95.919Y79.134
G1X95.981Y79.377
G1X96.052Y79.61
G1X96.09Y79.722
G1X96.131Y79.831
G1X96.173Y79.936
G1X96.217Y80.037
G1X96.263Y80.133
G1X96.31Y80.225
G1X96.359Y80.311
G1X96.41Y80.392
G1X96.463Y80.468
G1X96.517Y80.537
G1X96.551Y80.572
G0X100.998Y80.525
; Layer C27
G1Y80.806
G1X100.979Y81.331
G1X100.962Y81.795
G1X100.933Y82.471
G1Y82.649
G1X101.115
G1X101.268Y81.837
G1X101.369Y81.291
G1X101.564Y80.19
G1X101.751Y79.076
G1X101.841Y78.513
G1X101.929Y77.947
G1X102.015Y77.376
G1X102.098Y76.801
G1X102.179Y76.222
G1X102.256Y75.638
G1X102.332Y75.049
G1X102.404Y74.455
G1X102.473Y73.855
G1X101.953Y73.764
G1X101.722Y73.728
G1X101.499Y73.701
G1X101.256Y73.678
G1X100.961Y73.657
G1X100.091Y73.607
G1X99.749Y73.664
G1X99.417Y73.724
G1X99.093Y73.786
G1X98.776Y73.851
G1X98.467Y73.919
G1X98.164Y73.991
G1X97.866Y74.066
G1X97.572Y74.145
G1X97.283Y74.229
G1X96.996Y74.317
G1X96.711Y74.411
G1X96.427Y74.51
G1X96.144Y74.615
G1X95.86Y74.726
G1X95.718Y74.784
G1X95.432Y74.905
G1Y75.132
G1Y75.26
G1Y75.311
G1X95.443Y75.355
G1Y75.395
G1X95.462Y75.433
G1X95.476Y75.471
G1X95.514Y75.551
G1X95.641Y75.789
G1X97.349
G1X98.138Y75.778
G1X98.715
G1X99.139Y75.79
G1X99.391Y75.801
G1X99.614Y75.817
G1X99.758Y75.83
G1X100.159Y75.873
G1X100.215Y75.897
G1X100.269Y75.928
G1X100.32Y75.967
G1X100.369Y76.014
G1X100.416Y76.068
G1X100.461Y76.129
G1X100.503Y76.197
G1X100.543Y76.272
G1X100.581Y76.353
G1X100.617Y76.439
G1X100.651Y76.532
G1X100.683Y76.63
G1X100.713Y76.734
G1X100.742Y76.842
G1X100.768Y76.955
G1X100.793Y77.072
G1X100.816Y77.194
G1X100.838Y77.32
G1X100.876Y77.581
G1X100.908Y77.855
G1X100.935Y78.139
G1X100.957Y78.432
G1X100.974Y78.73
G1X100.986Y79.032
G1Y79.336
G1X101Y79.639
G1Y79.94
G1Y80.236
G1Y80.525
G1Y80.806
G1Y80.745
G0X104.186Y80.544
; Layer C27
G1X104.147Y80.955
G1X105.53Y79.794
G1X106.041Y79.37
G1X106.555Y78.95
G1X107.075Y78.536
G1X107.603Y78.129
G1X108.139Y77.73
G1X108.411Y77.534
G1X108.686Y77.34
G1X108.965Y77.15
G1X109.246Y76.962
G1X109.532Y76.777
G1X109.821Y76.596
G1X110.115Y76.418
G1X110.412Y76.244
G1X110.715Y76.073
G1X111.022Y75.906
G1X111.334Y75.744
G1X111.651Y75.586
G1X111.974Y75.432
G1X112.303Y75.283
G1X112.47Y75.21
G1X112.722Y75.103
G1X112.794Y75.07
G1X112.832Y75.042
G1X113.029Y74.908
G1X113.195Y74.806
G1X113.368Y74.708
G1X113.548Y74.614
G1X113.734Y74.523
G1X113.925Y74.436
G1X114.122Y74.352
G1X114.323Y74.272
G1X114.529Y74.194
G1X114.739Y74.119
G1X114.953Y74.046
G1X115.171Y73.975
G1X115.614Y73.84
G1X116.066Y73.711
G1X116.523Y73.587
G1X117.899Y73.225
G1X118.348Y73.103
G1X118.788Y72.976
G1X119.003Y72.911
G1X119.266Y72.828
G1X119.279
G1X119.366Y72.731
G1X119.459Y72.623
G1X119.537Y72.519
G1X119.6Y72.417
G1X119.65Y72.319
G1X119.687Y72.224
G1X119.71Y72.132
G1X119.722Y72.043
G1Y71.957
G1Y71.873
G1X119.692Y71.793
G1X119.661Y71.716
G1X119.621Y71.641
G1X119.573Y71.57
G1X119.517Y71.501
G1X119.454Y71.435
G1X119.383Y71.372
G1X119.307Y71.311
G1X119.224Y71.254
G1X119.137Y71.199
G1X119.046Y71.146
G1X118.95Y71.097
G1X118.851Y71.05
G1X118.646Y70.963
G1X118.434Y70.887
G1X118.221Y70.821
G1X118.011Y70.765
G1X117.706Y70.844
G1X117.405Y70.93
G1X117.106Y71.021
G1X116.81Y71.118
G1X116.516Y71.221
G1X116.225Y71.329
G1X115.937Y71.442
G1X115.652Y71.559
G1X115.368Y71.681
G1X115.088Y71.807
G1X114.809Y71.937
G1X114.534Y72.07
G1X113.989Y72.346
G1X113.452Y72.633
G1X112.925Y72.929
G1X112.405Y73.23
G1X111.894Y73.536
G1X111.389Y73.844
G1X109.796Y74.832
G1X109.686Y74.908
G1X109.515Y75.073
G1X109.172Y75.394
G1X108.826Y75.705
G1X108.478Y76.008
G1X108.129Y76.304
G1X107.779Y76.593
G1X107.43Y76.876
G1X107.081Y77.154
G1X106.046Y77.971
G1X105.374Y78.51
G1X105.045Y78.781
G1X104.721Y79.055
G1X104.483Y79.262
G1X104.448Y79.294
G1X104.335Y79.733
G1X104.285Y79.939
G1X104.248Y80.112
G1X104.22Y80.274
G1X104.208Y80.358
G1X104.186Y80.544
G1X104.147Y80.955
G1X104.263Y80.502
G0X106.355Y81.66
; Layer C27
G1X105.982Y81.971
G1X105.62Y82.286
G1X105.269Y82.604
G1X104.932Y82.925
G1X104.769Y83.086
G1X104.609Y83.248
G1X104.453Y83.41
G1X104.301Y83.573
G1X104.154Y83.737
G1X104.01Y83.901
G1X103.871Y84.065
G1X103.737Y84.23
G1X103.607Y84.395
G1X103.482Y84.56
G1X103.363Y84.726
G1X103.248Y84.892
G1X103.139Y85.058
G1X103.035Y85.225
G1X102.936Y85.391
G1X102.844Y85.558
G1X102.778Y85.683
G1X103.811Y85.666
G1X104.16
G1X104.499
G1X104.664Y85.678
G1X104.827Y85.69
G1X104.987Y85.707
G1X105.145Y85.728
G1X105.299Y85.754
G1X105.452Y85.786
G1X105.602Y85.824
G1X105.749Y85.869
G1X105.894Y85.921
G1X106.037Y85.981
G1X106.177Y86.049
G1X106.315Y86.125
G1X106.451Y86.21
G1X106.584Y86.305
G1X106.715Y86.409
G1X106.844Y86.524
G1X106.97Y86.651
G1X107.094Y86.788
G1X107.216Y86.937
G1X107.336Y87.099
G1X107.396Y87.184
G1X107.454Y87.273
G1X107.52Y87.377
G1X108.522Y87.171
G1X108.725Y87.123
G1X108.855Y87.087
G1X108.899Y87.072
G1X108.931Y87.058
G1X108.955Y87.044
G1X108.973Y87.03
G1X108.987Y87.016
G1X109.003Y86.993
G1X109.254Y87.017
G1X109.453Y87.042
G1X109.644Y87.072
G1X109.827Y87.107
G1X110.003Y87.147
G1X110.171Y87.192
G1X110.333Y87.241
G1X110.488Y87.296
G1X110.637Y87.355
G1X110.78Y87.42
G1X110.917Y87.489
G1X111.049Y87.564
G1X111.177Y87.645
G1X111.299Y87.73
G1X111.418Y87.821
G1X111.533Y87.918
G1X111.644Y88.02
G1X111.752Y88.127
G1X111.857Y88.241
G1X111.959Y88.359
G1X112.06Y88.484
G1X112.158Y88.615
G1X112.255Y88.751
G1X112.351Y88.893
G1X112.446Y89.042
G1X112.54Y89.196
G1X112.634Y89.356
G1X112.728Y89.523
G1X112.823Y89.696
G1X113.015Y90.061
G1X113.227
G1X113.433Y90.071
G1X113.635Y90.081
G1X113.832Y90.094
G1X114.025Y90.111
G1X114.213Y90.131
G1X114.397Y90.156
G1X114.577Y90.184
G1X114.753Y90.217
G1X114.926Y90.254
G1X115.096Y90.296
G1X115.262Y90.344
G1X115.425Y90.396
G1X115.586Y90.454
G1X115.744Y90.517
G1X115.9Y90.587
G1X116.053Y90.662
G1X116.204Y90.744
G1X116.354Y90.832
G1X116.502Y90.927
G1X116.648Y91.029
G1X116.793Y91.138
G1X116.937Y91.254
G1X117.08Y91.378
G1X117.223Y91.509
G1X117.365Y91.649
G1X117.506Y91.797
G1X117.648Y91.953
G1X117.789Y92.118
G1X117.931Y92.292
G1X118.002Y92.382
G1X118.103Y92.515
G1X118.156Y92.683
G1X118.191Y92.804
G1X118.255Y93.042
G1X118.384Y93.564
G1X118.429Y93.726
G1X118.451Y93.793
G1X118.474Y93.849
G1X118.496Y93.895
G1X118.508Y93.913
G1X118.524Y93.933
G1X118.97Y94.001
G1X119.232Y94.046
G1X119.481Y94.096
G1X119.718Y94.149
G1X119.943Y94.206
G1X120.158Y94.267
G1X120.361Y94.333
G1X120.554Y94.404
G1X120.737Y94.48
G1X120.91Y94.562
G1X121.075Y94.65
G1X121.23Y94.744
G1X121.378Y94.845
G1X121.517Y94.953
G1X121.649Y95.068
G1X121.774Y95.191
G1X121.892Y95.321
G1X122.004Y95.46
G1X122.11Y95.607
G1X122.211Y95.763
G1X122.307Y95.929
G1X122.399Y96.103
G1X122.486Y96.288
G1X122.569Y96.483
G1X122.65Y96.688
G1X122.727Y96.904
G1X122.802Y97.132
G1X122.875Y97.37
G1X122.946Y97.621
G1X123.058Y98.047
G1X123.231Y98.077
G1X123.438Y98.121
G1X123.677Y98.18
G1X123.847Y98.228
G1X124.024Y98.282
G1X124.203Y98.343
G1X124.381Y98.411
G1X124.555Y98.485
G1X124.721Y98.566
G1X124.877Y98.653
G1X124.949Y98.699
G1X125.018Y98.746
G1X125.082Y98.795
G1X125.141Y98.846
G1X125.196Y98.898
G1X125.244Y98.952
G1X125.287Y99.007
G1X125.323Y99.064
G1X125.259Y98.647
G1X125.191Y98.232
G1X125.119Y97.818
G1X125.043Y97.405
G1X124.962Y96.994
G1X124.877Y96.585
G1X124.788Y96.177
G1X124.694Y95.771
G1X124.596Y95.366
G1X124.494Y94.963
G1X124.388Y94.562
G1X124.277Y94.162
G1X124.163Y93.764
G1X124.044Y93.368
G1X123.921Y92.973
G1X123.795Y92.58
G1X123.664Y92.189
G1X123.529Y91.8
G1X123.39Y91.412
G1X123.248Y91.027
G1X123.101Y90.643
G1X122.95Y90.261
G1X122.796Y89.881
G1X122.638Y89.504
G1X122.475Y89.128
G1X122.309Y88.754
G1X122.14Y88.382
G1X121.966Y88.012
G1X121.789Y87.645
G1X121.608Y87.279
G1X121.423Y86.916
G1X121.235Y86.555
G1X121.043Y86.196
G1X120.847Y85.839
G1X120.648Y85.484
G1X120.446Y85.132
G1X120.239Y84.782
G1X120.03Y84.435
G1X119.816Y84.089
G1X119.6Y83.746
G1X119.379Y83.406
G1X119.156Y83.068
G1X118.929Y82.732
G1X118.699Y82.399
G1X118.465Y82.068
G1X118.228Y81.74
G1X117.988Y81.414
G1X117.744Y81.091
G1X117.497Y80.771
G1X117.247Y80.453
G1X116.994Y80.138
G1X116.738Y79.825
G1X116.478Y79.515
G1X116.215Y79.208
G1X115.95Y78.904
G1X115.681Y78.602
G1X115.409Y78.303
G1X115.134Y78.007
G1X114.856Y77.714
G1X114.575Y77.424
G1X114.291Y77.137
G1X113.896Y76.746
G1X113.882
G1X113.692Y76.85
G1X112.851Y77.327
G1X112.462Y77.552
G1X112.066Y77.784
G1X111.663Y78.023
G1X111.254Y78.269
G1X110.842Y78.521
G1X110.426Y78.78
G1X110.008Y79.045
G1X109.59Y79.315
G1X109.172Y79.592
G1X108.756Y79.873
G1X108.342Y80.16
G1X107.932Y80.451
G1X107.528Y80.747
G1X107.129Y81.048
G1X106.738Y81.352
G1X106.355Y81.66
G1X105.982Y81.971
G1X106.344Y81.669
G0X105.027Y76.491
; Layer C27
G1X105.089Y76.478
G1X105.155Y76.457
G1X105.224Y76.431
G1X105.296Y76.398
G1X105.372Y76.359
G1X105.45Y76.315
G1X105.531Y76.265
G1X105.614Y76.212
G1X105.699Y76.154
G1X105.875Y76.029
G1X106.056Y75.892
G1X106.24Y75.748
G1X106.796Y75.305
G1X106.976Y75.166
G1X107.149Y75.036
G1X107.315Y74.92
G1X107.395Y74.868
G1X107.509Y74.799
G1X107.758Y74.609
G1X108.158Y74.312
G1X108.427Y74.117
G1X108.972Y73.732
G1X109.525Y73.353
G1X110.086Y72.977
G1X110.653Y72.604
G1X112.38Y71.479
G1X112.962Y71.096
G1X113.544Y70.707
G1X114.127Y70.31
G1X114.71Y69.902
G1X115.29Y69.483
G1X115.579Y69.268
G1X115.867Y69.049
G1X116.155Y68.827
G1X116.278Y68.729
G1Y67.982
G1Y67.957
G1X116.144Y67.838
G1X116.05Y67.757
G1X115.958Y67.688
G1X115.869Y67.629
G1X115.783Y67.579
G1X115.698Y67.537
G1X115.614Y67.503
G1X115.53Y67.476
G1X115.447Y67.455
G1X115.362Y67.438
G1X115.277Y67.425
G1X115.19Y67.415
G1X114.912Y67.393
G1X114.554Y67.641
G1X114.198Y67.893
G1X113.845Y68.149
G1X113.495Y68.408
G1X112.802Y68.934
G1X112.119Y69.471
G1X111.447Y70.017
G1X110.786Y70.571
G1X110.134Y71.13
G1X109.492Y71.694
G1X108.86Y72.26
G1X108.238Y72.828
G1X107.625Y73.396
G1X107.022Y73.962
G1X106.428Y74.525
G1X105.267Y75.634
G1X105.022Y75.871
G1X105.006Y75.978
G1X104.972Y76.229
G1X104.957Y76.388
G1Y76.492
G1X105.027
G1X105.089Y76.478
G1X105.155Y76.457
G1X105.224Y76.431
G1X105.12Y76.459
G0X105.047Y73.822
; Layer C27
G1X105.329
G1X106.314Y72.855
G1X107.083Y72.089
G1X108.117Y71.047
G1X108.455Y70.708
G1X108.662Y70.508
G1X108.844Y70.34
G1X108.961Y70.239
G1X109.138Y70.094
G1X109.428Y69.765
G1X109.626Y69.534
G1X110.036Y69.049
G1X110.465Y68.545
G1X110.688Y68.289
G1X110.917Y68.033
G1X111.153Y67.778
G1X111.396Y67.526
G1X111.646Y67.278
G1X111.904Y67.036
G1X112.17Y66.801
G1X112.445Y66.575
G1X112.585Y66.466
G1X112.728Y66.36
G1X112.781Y66.064
G1X112.808Y65.881
G1X112.827Y65.71
G1Y65.629
G1Y65.55
G1Y65.474
G1Y65.401
G1Y65.33
G1Y65.262
G1X112.805Y65.196
G1X112.788Y65.132
G1X112.767Y65.071
G1X112.741Y65.012
G1X112.711Y64.956
G1X112.676Y64.901
G1X112.636Y64.849
G1X112.591Y64.799
G1X112.54Y64.75
G1X112.484Y64.704
G1X112.422Y64.66
G1X112.355Y64.617
G1X112.28Y64.576
G1X112.2Y64.537
G1X112.113Y64.5
G1X112.019Y64.464
G1X111.918Y64.43
G1X111.809Y64.398
G1X111.674Y64.453
G1X111.541Y64.512
G1X111.412Y64.575
G1X111.285Y64.641
G1X111.162Y64.71
G1X111.042Y64.782
G1X110.925Y64.858
G1X110.811Y64.936
G1X110.7Y65.017
G1X110.593Y65.1
G1X110.488Y65.185
G1X110.387Y65.273
G1X110.194Y65.453
G1X110.014Y65.64
G1X109.847Y65.832
G1X109.693Y66.027
G1X109.552Y66.225
G1X109.424Y66.423
G1X109.309Y66.621
G1X109.207Y66.817
G1X109.161Y66.913
G1X109.119Y67.009
G1X109.079Y67.104
G1X108.208Y68.333
G1X107.714Y69.035
G1X106.909Y70.188
G1X105.883Y71.676
G1X105.512Y72.209
G1X105.347Y72.435
G1X105.249Y72.561
G1X105.155Y72.675
G1X105.059Y72.784
G1X105.047Y73.822
G1X105.329
G1X105.22Y73.69
G0X103.512Y71.733
; Layer C27
G1X103.585Y71.708
G1X103.661Y71.676
G1X103.739Y71.635
G1X103.819Y71.586
G1X103.901Y71.53
G1X103.984Y71.467
G1X104.07Y71.396
G1X104.157Y71.319
G1X104.245Y71.236
G1X104.335Y71.146
G1X104.426Y71.05
G1X104.519Y70.948
G1X104.612Y70.841
G1X104.707Y70.729
G1X104.802Y70.612
G1X104.899Y70.49
G1X104.996Y70.363
G1X105.093Y70.233
G1X105.29Y69.96
G1X105.488Y69.672
G1X105.687Y69.374
G1X105.885Y69.065
G1X106.083Y68.748
G1X106.278Y68.426
G1X106.471Y68.099
G1X106.66Y67.771
G1X106.845Y67.443
G1X107.025Y67.118
G1X107.2Y66.796
G1X107.367Y66.481
G1X107.527Y66.174
G1X107.679Y65.877
G1X107.822Y65.593
G1X107.955Y65.322
G1X108.189Y64.833
G1X108.374Y64.425
G1X108.389Y64.386
G1Y63.969
G1Y63.76
G1Y63.577
G1X108.375Y63.494
G1Y63.417
G1X108.354Y63.346
G1X108.339Y63.279
G1X108.322Y63.217
G1X108.302Y63.159
G1X108.278Y63.106
G1X108.25Y63.056
G1X108.218Y63.01
G1X108.182Y62.967
G1X108.142Y62.928
G1X108.097Y62.891
G1X108.047Y62.856
G1X107.992Y62.824
G1X107.931Y62.793
G1X107.864Y62.764
G1X107.792Y62.736
G1X107.713Y62.71
G1X107.628Y62.684
G1X107.438Y62.633
G1X107.218Y62.581
G1X107.033Y62.739
G1X106.857Y62.906
G1X106.692Y63.081
G1X106.536Y63.264
G1X106.389Y63.454
G1X106.251Y63.652
G1X106.12Y63.855
G1X105.998Y64.064
G1X105.882Y64.279
G1X105.774Y64.498
G1X105.672Y64.721
G1X105.576Y64.947
G1X105.485Y65.177
G1X105.399Y65.409
G1X105.318Y65.643
G1X105.242Y65.879
G1X105.1Y66.352
G1X104.969Y66.823
G1X104.847Y67.29
G1X104.672Y67.97
G1X104.556Y68.405
G1X104.497Y68.614
G1X104.437Y68.818
G1X104.375Y69.016
G1X104.293Y69.224
G1X103.906Y70.127
G1X103.69Y70.639
G1X103.541Y71.004
G1X103.466Y71.204
G1X103.415Y71.357
G1X103.392Y71.44
G1X103.375Y71.514
G1X103.363Y71.583
G1Y71.652
G1X103.345Y71.755
G1X103.355
G1X103.372
G1X103.441
G1X103.512Y71.733
G1X103.585Y71.708
G1X103.661Y71.676
G1X103.739Y71.635
G1X103.525Y71.727
G0X101.532Y71.353
; Layer C27
G1X101.761Y70.839
G1X101.879Y70.567
G1X102.071Y70.106
G1X102.276Y69.59
G1X102.418Y69.221
G1X102.56Y68.833
G1X102.702Y68.431
G1X102.841Y68.018
G1X102.974Y67.595
G1X103.101Y67.166
G1X103.218Y66.733
G1X103.325Y66.3
G1X103.374Y66.084
G1X103.419Y65.869
G1X103.46Y65.655
G1X103.497Y65.443
G1X103.53Y65.233
G1X103.559Y65.025
G1X103.583Y64.82
G1X103.601Y64.617
G1X103.615Y64.419
G1Y64.223
G1X103.625Y64.032
G1Y63.845
G1X103.611Y63.663
G1X103.595Y63.486
G1X103.571Y63.315
G1X103.541Y63.149
G1X103.503Y62.99
G1X103.458Y62.837
G1X103.405Y62.691
G1X103.344Y62.552
G1X103.275Y62.42
G1X103.197Y62.297
G1X103.111Y62.182
G1X103.015Y62.075
G1X102.91Y61.978
G1X102.796Y61.889
G1X102.672Y61.811
G1X102.537Y61.742
G1X102.393Y61.684
G1X102.238Y61.636
G1X102.156Y61.617
G1X102.072Y61.6
G1X101.985Y61.586
G1X101.895Y61.575
G1X101.807Y61.648
G1X101.724Y61.721
G1X101.646Y61.793
G1X101.573Y61.865
G1X101.504Y61.936
G1X101.44Y62.007
G1X101.38Y62.078
G1X101.325Y62.149
G1X101.225Y62.289
G1X101.139Y62.43
G1X101.066Y62.57
G1X101.004Y62.71
G1X100.952Y62.852
G1X100.909Y62.994
G1X100.874Y63.138
G1X100.844Y63.283
G1X100.818Y63.431
G1X100.796Y63.581
G1X100.775Y63.733
G1Y63.79
G1X100.688Y65.189
G1X100.632Y66.206
G1X100.526Y68.237
G1X100.368Y71.457
G1Y71.47
G1X100.937Y71.426
G1X101.244Y71.394
G1X101.527Y71.358
G1X101.736Y70.897
G0X98.28Y70.976
; Layer C27
G1X98.409Y70.407
G1X98.468Y70.12
G1X98.524Y69.832
G1X98.576Y69.543
G1X98.624Y69.252
G1X98.668Y68.96
G1X98.708Y68.667
G1X98.744Y68.373
G1X98.776Y68.078
G1X98.804Y67.782
G1X98.826Y67.486
G1X98.845Y67.189
G1X98.858Y66.891
G1Y66.593
G1X98.87Y66.294
G1Y65.995
G1Y65.696
G1X98.85Y65.396
G1X98.832Y65.097
G1X98.809Y64.797
G1X98.78Y64.498
G1X98.745Y64.198
G1X98.704Y63.899
G1X98.658Y63.6
G1X98.605Y63.302
G1X98.545Y63.004
G1X98.48Y62.707
G1X98.431Y62.509
G1X98.205Y62.464
G1X98.039Y62.419
G1X97.807Y62.345
G1X97.751Y62.46
G1X97.726Y62.521
G1X97.702Y62.593
G1X97.679Y62.682
G1X97.64Y62.861
G1X97.596Y63.114
G1X97.52Y63.603
G1X97.418Y64.311
G1X97.168Y66.1
G1Y66.132
G1X97.091Y66.404
G1X96.972Y66.836
G1X96.845Y67.266
G1X96.712Y67.693
G1X96.574Y68.117
G1X96.291Y68.954
G1X96.005Y69.776
G1X95.729Y70.58
G1X95.597Y70.976
G1X95.472Y71.367
G1X95.354Y71.753
G1X95.246Y72.134
G1X95.18Y72.381
G1X95.663Y72.308
G1X96.078Y72.242
G1X96.306Y72.201
G1X96.542Y72.155
G1X96.78Y72.102
G1X97.017Y72.044
G1X97.247Y71.979
G1X97.466Y71.907
G1X97.57Y71.868
G1X97.669Y71.827
G1X97.764Y71.784
G1X97.852Y71.739
G1X97.935Y71.692
G1X98.01Y71.643
G1X98.078Y71.592
G1X98.138Y71.538
G1X98.28Y70.976
G1X98.39Y70.488
G0X93.684Y70.039
; Layer C27
G1X93.327Y70.667
G1X93.268Y70.679
G1X92.943Y70.752
G1X92.933
G1X92.719Y70.603
G1X92.591Y70.509
G1X92.465Y70.413
G1X92.341Y70.316
G1X91.974Y70.018
G1X91.904Y69.998
G1X91.837Y69.975
G1X91.772Y69.948
G1X91.711Y69.918
G1X91.653Y69.884
G1X91.598Y69.848
G1X91.545Y69.808
G1X91.496Y69.765
G1X91.406Y69.67
G1X91.327Y69.565
G1X91.259Y69.451
G1X91.201Y69.327
G1X91.154Y69.195
G1X91.117Y69.056
G1X91.09Y68.911
G1X91.073Y68.761
G1Y68.606
G1Y68.447
G1Y68.285
G1X91.095Y68.122
G1X91.122Y67.958
G1X91.157Y67.793
G1X91.2Y67.629
G1X91.25Y67.467
G1X91.308Y67.307
G1X91.373Y67.151
G1X91.445Y66.999
G1X91.523Y66.852
G1X91.608Y66.711
G1X91.698Y66.576
G1X91.795Y66.45
G1X91.897Y66.332
G1X92.004Y66.224
G1X92.116Y66.126
G1X92.188Y66.07
G1X92.872Y66.168
G1X93.278Y66.234
G1X93.682Y66.305
G1X94.085Y66.38
G1X94.487Y66.459
G1X94.887Y66.542
G1X95.285Y66.629
G1Y66.735
G1X95.262Y66.848
G1X95.237Y66.969
G1X95.203Y67.096
G1X95.16Y67.23
G1X95.111Y67.368
G1X95.054Y67.512
G1X94.992Y67.659
G1X94.924Y67.81
G1X94.851Y67.963
G1X94.775Y68.118
G1X94.694Y68.275
G1X94.525Y68.591
G1X94.35Y68.905
G1X94.173Y69.212
G1X93.684Y70.039
G1X93.437Y70.474
G0X103.695Y87.402
; Layer C27
G1X103.496Y87.473
G1X103.301Y87.547
G1X103.111Y87.624
G1X102.926Y87.704
G1X102.745Y87.787
G1X102.568Y87.873
G1X102.396Y87.962
G1X102.227Y88.053
G1X102.063Y88.147
G1X101.902Y88.244
G1X101.744Y88.343
G1X101.59Y88.445
G1X101.291Y88.654
G1X101.004Y88.872
G1X100.728Y89.097
G1X100.46Y89.33
G1X100.201Y89.568
G1X99.948Y89.812
G1X99.701Y90.061
G1X99.458Y90.314
G1X99.173Y90.618
G1X99.668Y90.67
G1X99.925Y90.699
G1X100.169Y90.732
G1X100.401Y90.771
G1X100.622Y90.818
G1X100.835Y90.877
G1X100.938Y90.912
G1X101.039Y90.95
G1X101.138Y90.992
G1X101.236Y91.038
G1X101.332Y91.089
G1X101.428Y91.145
G1X101.522Y91.206
G1X101.615Y91.272
G1X101.707Y91.345
G1X101.799Y91.423
G1X101.89Y91.508
G1X101.981Y91.599
G1X102.071Y91.697
G1X102.162Y91.802
G1X102.252Y91.916
G1X102.343Y92.036
G1X102.411Y92.132
G1X102.426
G1X102.512
G1X102.582
G1X102.724Y92.111
G1X102.869Y92.078
G1X103.015Y92.033
G1X103.163Y91.977
G1X103.313Y91.91
G1X103.462Y91.833
G1X103.612Y91.746
G1X103.761Y91.65
G1X103.909Y91.544
G1X104.055Y91.43
G1X104.199Y91.309
G1X104.34Y91.18
G1X104.478Y91.044
G1X104.611Y90.902
G1X104.741Y90.754
G1X104.865Y90.601
G1X104.984Y90.442
G1X105.097Y90.28
G1X105.204Y90.113
G1X105.303Y89.943
G1X105.395Y89.77
G1X105.478Y89.595
G1X105.553Y89.418
G1X105.618Y89.239
G1X105.674Y89.06
G1X105.719Y88.88
G1X105.753Y88.7
G1X105.776Y88.521
G1Y88.432
G1X105.787Y88.321
G1Y88.306
G1X105.694Y88.199
G1X105.628Y88.127
G1X105.564Y88.06
G1X105.499Y87.998
G1X105.436Y87.94
G1X105.372Y87.887
G1X105.246Y87.792
G1X105.121Y87.712
G1X104.994Y87.646
G1X104.867Y87.591
G1X104.737Y87.547
G1X104.604Y87.512
G1X104.467Y87.484
G1X104.326Y87.462
G1X104.179Y87.444
G1X104.025Y87.429
G1X103.695Y87.402
G1X103.496Y87.473
G1X103.425Y87.501
G0X108.208Y89.492
; Layer C27
G1X107.977Y89.698
G1X107.755Y89.917
G1X107.539Y90.146
G1X107.33Y90.383
G1X107.127Y90.625
G1X106.928Y90.87
G1X106.354Y91.599
G1X106.168Y91.831
G1X105.982Y92.053
G1X105.797Y92.264
G1X105.704Y92.364
G1X105.549Y92.523
G1X105.535Y92.587
G1Y92.636
G1X105.518Y92.729
G1Y92.867
G1X105.561Y92.879
G1X105.7Y92.921
G1X105.808Y92.962
G1X105.915Y93.01
G1X106.019Y93.063
G1X106.121Y93.122
G1X106.221Y93.186
G1X106.32Y93.255
G1X106.416Y93.329
G1X106.511Y93.407
G1X106.604Y93.488
G1X106.785Y93.66
G1X106.959Y93.842
G1X107.128Y94.031
G1X107.291Y94.224
G1X107.9Y94.973
G1X108.044Y95.139
G1X108.184Y95.291
G1X108.312Y95.172
G1X108.447Y95.042
G1X108.586Y94.9
G1X108.73Y94.748
G1X108.877Y94.586
G1X109.026Y94.415
G1X109.176Y94.236
G1X109.324Y94.049
G1X109.472Y93.855
G1X109.616Y93.655
G1X109.756Y93.45
G1X109.891Y93.239
G1X110.02Y93.024
G1X110.141Y92.806
G1X110.253Y92.585
G1X110.355Y92.362
G1X110.446Y92.138
G1X110.524Y91.913
G1X110.589Y91.688
G1X110.64Y91.463
G1X110.659Y91.352
G1X110.674Y91.241
G1X110.685Y91.13
G1Y91.02
G1Y90.91
G1Y90.802
G1Y90.694
G1X110.67Y90.588
G1X110.652Y90.482
G1X110.629Y90.378
G1X110.6Y90.274
G1X110.566Y90.172
G1X110.526Y90.072
G1X110.48Y89.973
G1X110.428Y89.875
G1X110.37Y89.78
G1X110.306Y89.686
G1X110.235Y89.594
G1X110.157Y89.503
G1X110.072Y89.415
G1X109.981Y89.329
G1X109.947Y89.301
G1X109.584Y89.263
G1X109.257Y89.219
G1X108.696Y89.129
G1X108.57Y89.213
G1X108.447Y89.302
G1X108.326Y89.395
G1X108.208Y89.492
G1X107.977Y89.698
G1X108.069Y89.623
G0X113.132Y92.21
; Layer C27
G1X113.004Y92.319
G1X112.881Y92.434
G1X112.765Y92.554
G1X112.654Y92.679
G1X112.548Y92.808
G1X112.447Y92.94
G1X112.349Y93.075
G1X112.255Y93.213
G1X112.164Y93.353
G1X111.989Y93.634
G1X111.657Y94.192
G1X111.493Y94.459
G1X111.409Y94.588
G1X111.324Y94.712
G1X111.238Y94.832
G1X111.149Y94.946
G1X111.057Y95.054
G1X110.962Y95.156
G1X110.863Y95.25
G1X110.761Y95.337
G1X110.653Y95.416
G1X110.541Y95.486
G1X110.44Y95.54
G1X110.392Y95.723
G1X110.378Y95.799
G1Y95.851
G1X110.558Y95.959
G1X110.692Y96.04
G1X110.818Y96.12
G1X110.936Y96.199
G1X111.047Y96.278
G1X111.151Y96.356
G1X111.248Y96.433
G1X111.339Y96.511
G1X111.425Y96.589
G1X111.505Y96.667
G1X111.58Y96.746
G1X111.65Y96.826
G1X111.715Y96.908
G1X111.777Y96.991
G1X111.835Y97.076
G1X111.889Y97.163
G1X111.94Y97.253
G1X111.988Y97.345
G1X112.078Y97.538
G1X112.162Y97.745
G1X112.201Y97.854
G1X112.279Y98.085
G1X112.357Y98.335
G1X112.502Y98.824
G1X112.516Y98.838
G1X112.712Y98.898
G1X113.201Y99.067
G1X113.326Y99.105
G1X113.454Y99.137
G1X113.585Y99.163
G1X113.719Y99.179
G1X113.857
G1X114
G1X114.072
G1X114.147Y99.158
G1X114.222Y99.141
G1X114.299Y99.121
G1X114.377Y99.096
G1X114.457Y99.067
G1X114.559Y99.024
G1X114.582Y99.003
G1X114.901Y98.479
G1X115.169Y98.033
G1X115.303Y97.803
G1X115.436Y97.569
G1X115.566Y97.331
G1X115.693Y97.09
G1X115.814Y96.846
G1X115.929Y96.601
G1X116.036Y96.354
G1X116.134Y96.106
G1X116.222Y95.858
G1X116.298Y95.611
G1X116.362Y95.364
G1X116.411Y95.118
G1X116.43Y94.996
G1X116.445Y94.875
G1X116.456Y94.754
G1Y94.634
G1Y94.515
G1Y94.396
G1Y94.279
G1X116.441Y94.162
G1X116.424Y94.046
G1X116.401Y93.932
G1X116.372Y93.819
G1X116.338Y93.707
G1X116.298Y93.596
G1X116.252Y93.487
G1X116.201Y93.379
G1X116.142Y93.273
G1X116.078Y93.168
G1X116.007Y93.065
G1X115.929Y92.964
G1X115.844Y92.864
G1X115.752Y92.767
G1X115.653Y92.671
G1X115.547Y92.577
G1X115.433Y92.486
G1X115.311Y92.396
G1X115.182Y92.309
G1X115.044Y92.224
G1X114.899Y92.142
G1X114.81Y92.096
G1X114.441Y92.058
G1X114.115Y92.013
G1X113.558Y91.924
G1X113.409Y92.012
G1X113.267Y92.107
G1X113.132Y92.21
G1X113.004Y92.319
G1X112.885Y92.431
G0X118.538Y95.928
; Layer C27
G1X118.47Y95.98
G1X118.438Y96.01
G1X118.406Y96.043
G1X118.336Y96.125
G1X118.184Y96.32
G1X118.102Y96.529
G1X118.036Y96.684
G1X117.965Y96.839
G1X117.89Y96.992
G1X117.812Y97.145
G1X117.647Y97.447
G1X117.472Y97.746
G1X117.292Y98.041
G1X116.751Y98.896
G1X116.582Y99.17
G1X116.424Y99.439
G1X116.35Y99.571
G1X116.281Y99.702
G1X116.216Y99.83
G1X116.155Y99.958
G1X116.101Y100.083
G1X116.052Y100.207
G1X116.009Y100.329
G1X115.973Y100.449
G1X115.957Y100.508
G1X115.938Y100.597
G1Y100.61
G1X116.051Y100.758
G1X116.113Y100.85
G1X116.172Y100.943
G1X116.227Y101.036
G1X116.278Y101.131
G1X116.325Y101.226
G1X116.408Y101.417
G1X116.478Y101.61
G1X116.536Y101.805
G1X116.584Y102.001
G1X116.621Y102.196
G1X116.651Y102.392
G1X116.673Y102.588
G1X116.689Y102.783
G1X116.7Y102.976
G1Y103.167
G1X116.717Y103.542
G1X117.051Y103.622
G1X117.308Y103.681
G1X117.512Y103.722
G1X117.684Y103.75
G1X117.847Y103.767
G1X118.023
G1X118.406Y103.783
G1X118.416
G1X118.718Y103.392
G1X118.91Y103.145
G1X119.104Y102.89
G1X119.298Y102.626
G1X119.491Y102.356
G1X119.682Y102.08
G1X119.867Y101.798
G1X120.047Y101.512
G1X120.218Y101.222
G1X120.379Y100.93
G1X120.528Y100.635
G1X120.665Y100.34
G1X120.727Y100.192
G1X120.786Y100.044
G1X120.84Y99.896
G1X120.89Y99.748
G1X120.935Y99.601
G1X120.976Y99.454
G1X121.011Y99.308
G1X121.041Y99.162
G1X121.066Y99.018
G1X121.084Y98.873
G1X121.097Y98.73
G1Y98.588
G1Y98.447
G1Y98.308
G1X121.085Y98.17
G1X121.064Y98.033
G1X121.037Y97.897
G1X121.002Y97.764
G1X120.959Y97.632
G1X120.909Y97.502
G1X120.85Y97.374
G1X120.783Y97.248
G1X120.708Y97.125
G1X120.624Y97.003
G1X120.53Y96.884
G1X120.428Y96.768
G1X120.316Y96.654
G1X120.194Y96.543
G1X120.063Y96.434
G1X119.921Y96.329
G1X119.769Y96.226
G1X119.607Y96.127
G1X119.434Y96.031
G1X119.25Y95.938
G1X119.055Y95.849
G1X118.848Y95.763
G1X118.779Y95.797
G1X118.617Y95.879
G1X118.538Y95.928
G1X118.47Y95.98
G1X118.438Y96.01
G1X118.406Y96.043
G1X118.458Y96.005
G0X123.095Y100.219
; Layer C27
G1X123.01Y100.276
G1X122.924Y100.343
G1X122.838Y100.42
G1X122.751Y100.505
G1X122.663Y100.598
G1X122.576Y100.699
G1X122.488Y100.806
G1X122.4Y100.919
G1X122.226Y101.16
G1X122.054Y101.416
G1X121.887Y101.682
G1X121.725Y101.952
G1X121.571Y102.219
G1X121.425Y102.48
G1X120.956Y103.335
G1X120.874Y103.474
G1X120.843Y103.518
G1X120.604Y103.818
G1X120.34Y104.16
G1X120.179Y104.378
G1X120.049Y104.567
G1X119.977Y104.68
G1X119.918Y104.784
G1X119.869Y104.879
G1X119.831Y104.967
G1X119.802Y105.049
G1X119.783Y105.127
G1X119.773Y105.202
G1Y105.274
G1Y105.346
G1X119.786Y105.418
G1X119.803Y105.491
G1X120.084Y106.285
G1X120.127Y106.428
G1X120.17Y106.585
G1X120.213Y106.757
G1X120.253Y106.946
G1X120.282Y107.099
G1Y107.109
G1X120.36
G1X120.419Y107.094
G1X120.475Y107.076
G1X120.529Y107.052
G1X120.58Y107.023
G1X120.63Y106.989
G1X120.677Y106.949
G1X120.767Y106.858
G1X120.853Y106.754
G1X121.199Y106.264
G1X121.297Y106.141
G1X121.405Y106.024
G1X121.462Y105.969
G1X121.523Y105.918
G1X121.588Y105.869
G1X121.656Y105.824
G1X121.804Y105.748
G1X121.95Y105.66
G1X122.235Y105.371
G1X122.571Y105.033
G1X122.94Y104.656
G1X123.131Y104.456
G1X123.323Y104.249
G1X123.514Y104.037
G1X123.701Y103.82
G1X123.883Y103.6
G1X124.056Y103.378
G1X124.219Y103.154
G1X124.369Y102.931
G1X124.438Y102.819
G1X124.503Y102.708
G1X124.564Y102.598
G1X124.62Y102.488
G1X124.671Y102.379
G1X124.717Y102.27
G1X124.757Y102.163
G1X124.792Y102.057
G1X124.82Y101.953
G1X124.842Y101.849
G1X124.857Y101.748
G1Y101.648
G1Y101.55
G1Y101.454
G1X124.843Y101.36
G1X124.82Y101.268
G1X124.789Y101.179
G1X124.748Y101.092
G1X124.699Y101.008
G1X124.64Y100.927
G1X124.571Y100.848
G1X124.493Y100.773
G1X124.404Y100.701
G1X124.305Y100.632
G1X124.195Y100.567
G1X124.073Y100.505
G1X123.941Y100.447
G1X123.796Y100.393
G1X123.64Y100.343
G1X123.471Y100.297
G1X123.289Y100.256
G1X123.095Y100.219
G1X123.01Y100.276
G1X122.924Y100.343
G1X122.948
G0X126.278Y104.442
; Layer C27
G1X126.228Y104.487
G1X126.179Y104.525
G1X126.129Y104.558
G1X126.08Y104.585
G1X125.983Y104.624
G1X125.887Y104.649
G1X125.793Y104.663
G1X125.554Y104.685
G1X125.463Y104.75
G1X125.281Y104.892
G1X125Y105.122
G1X124.845Y105.253
G1X124.684Y105.394
G1X124.516Y105.543
G1X124.342Y105.699
G1X124.164Y105.863
G1X123.983Y106.032
G1X123.8Y106.206
G1X123.616Y106.384
G1X123.431Y106.565
G1X123.067Y106.933
G1X122.716Y107.303
G1X122.549Y107.486
G1X122.388Y107.666
G1X122.234Y107.843
G1X122.089Y108.016
G1X121.954Y108.184
G1X121.83Y108.346
G1X121.718Y108.501
G1X121.619Y108.648
G1X121.534Y108.786
G1X121.498Y108.852
G1X121.465Y108.915
G1X121.436Y108.975
G1X121.412Y109.033
G1X121.392Y109.087
G1X121.376Y109.139
G1X121.365Y109.188
G1Y109.233
G1Y109.255
G1Y109.266
G1X121.393Y109.277
G1X121.456Y109.292
G1X121.53
G1X121.615
G1X121.709
G1X121.813Y109.273
G1X121.926Y109.25
G1X122.046Y109.222
G1X122.173Y109.188
G1X122.306Y109.149
G1X122.445Y109.106
G1X122.589Y109.058
G1X122.737Y109.007
G1X123.043Y108.894
G1X123.357Y108.772
G1X123.673Y108.644
G1X123.985Y108.513
G1X124.845Y108.145
G1X125.295Y107.955
G1X125.461Y107.92
G1X125.96Y107.809
G1X126.292Y107.732
G1X126.957Y107.574
G1X127.83Y107.359
G1X127.846Y107.349
G1X127.867Y107.291
G1X127.928Y107.1
G1X127.968Y106.951
G1X128Y106.806
G1X128.024Y106.665
G1X128.041Y106.528
G1Y106.394
G1X128.052Y106.264
G1Y106.138
G1X128.034Y106.016
G1X128.015Y105.898
G1X127.988Y105.783
G1X127.954Y105.673
G1X127.914Y105.567
G1X127.867Y105.466
G1X127.813Y105.368
G1X127.753Y105.275
G1X127.686Y105.186
G1X127.613Y105.101
G1X127.533Y105.021
G1X127.448Y104.945
G1X127.357Y104.874
G1X127.259Y104.807
G1X127.156Y104.745
G1X127.047Y104.687
G1X126.932Y104.634
G1X126.812Y104.586
G1X126.686Y104.543
G1X126.555Y104.504
G1X126.419Y104.471
G1X126.278Y104.442
G1X126.228Y104.487
G1X126.179Y104.525
G1X126.129Y104.558
G1X126.185Y104.509
G0X128.611Y109.743
; Layer C27
G1X128.093Y109.833
G1X127.58Y109.928
G1X127.073Y110.028
G1X126.57Y110.135
G1X126.072Y110.246
G1X125.579Y110.364
G1X125.089Y110.487
G1X124.604Y110.616
G1X124.123Y110.752
G1X123.645Y110.893
G1X123.17Y111.041
G1X122.968Y111.107
G1X123.011Y111.419
G1X123.229Y112.934
G1X123.363Y112.951
G1X123.448
G1X123.619Y112.968
G1X123.875
G1X124.612Y112.833
G1X125.12Y112.739
G1X125.628Y112.648
G1X126.644Y112.478
G1X127.662Y112.32
G1X128.682Y112.174
G1X129.705Y112.04
G1X130.731Y111.917
G1X131.762Y111.803
G1X132.796Y111.699
G1X133.837Y111.603
G1X134.883Y111.515
G1X135.935Y111.434
G1X136.995Y111.359
G1X138.062Y111.289
G1X139.928Y111.176
G1X140.76Y111.001
G1X140.71Y110.913
G1X140.684Y110.878
G1X140.624Y110.809
G1X140.554Y110.742
G1X140.473Y110.678
G1X140.383Y110.616
G1X140.284Y110.556
G1X140.176Y110.498
G1X140.059Y110.442
G1X139.934Y110.388
G1X139.801Y110.336
G1X139.661Y110.287
G1X139.513Y110.239
G1X139.359Y110.192
G1X139.198Y110.148
G1X139.031Y110.106
G1X138.858Y110.065
G1X138.679Y110.026
G1X138.496Y109.988
G1X138.307Y109.953
G1X138.115Y109.919
G1X137.918Y109.886
G1X137.514Y109.825
G1X137.098Y109.771
G1X136.672Y109.721
G1X136.24Y109.677
G1X135.805Y109.638
G1X135.368Y109.604
G1X134.934Y109.573
G1X134.504Y109.547
G1X134.082Y109.525
G1X133.67Y109.506
G1X132.889Y109.476
G1X132.183Y109.457
G1X131.574Y109.445
G1X130.738
G1X130.197Y109.505
G1X129.663Y109.579
G1X129.134Y109.658
G1X128.611Y109.743
G1X128.118Y109.828
G0X129.861Y113.969
; Layer C27
G1X129.045Y114.07
G1X128.233Y114.18
G1X127.426Y114.301
G1X126.622Y114.434
G1X125.82Y114.579
G1X125.019Y114.738
G1X124.218Y114.91
G1X123.817Y115.002
G1X123.416Y115.098
G1X123.014Y115.198
G1X123.054Y115.318
G1X123.087Y115.401
G1X123.108Y115.443
G1X123.132Y115.487
G1X123.162Y115.536
G1X123.242Y115.656
G1X123.428Y115.913
G1X123.722Y116.308
G1X123.788
G1X123.857
G1X123.933
G1X123.977
G1X124.138Y116.276
G1X124.451Y116.213
G1X125.604Y115.968
G1X126.543Y115.772
G1X128.157Y115.447
G1X128.665Y115.382
G1X129.174Y115.322
G1X129.684Y115.266
G1X130.195Y115.215
G1X130.706Y115.167
G1X131.219Y115.124
G1X131.732Y115.084
G1X132.761Y115.016
G1X133.793Y114.961
G1X134.829Y114.918
G1X135.87Y114.886
G1X136.914Y114.864
G1X137.963Y114.851
G1X139.016
G1X140.074
G1X141.137
G1X142.205
G1X144.356Y114.883
G1X144.483Y114.854
G1X144.62Y114.816
G1X144.891Y114.731
G1X144.829Y114.593
G1X144.8Y114.51
G1X144.656Y114.475
G1X144.223Y114.377
G1X143.934Y114.315
G1X143.354Y114.202
G1X142.773Y114.101
G1X142.191Y114.011
G1X141.607Y113.932
G1X141.023Y113.861
G1X140.439Y113.799
G1X139.855Y113.743
G1X139.272Y113.694
G1X138.69Y113.649
G1X138.109Y113.608
G1X137.53Y113.569
G1X135.806Y113.46
G1X134.925Y113.518
G1X134.056Y113.579
G1X133.199Y113.645
G1X132.352Y113.716
G1X131.514Y113.793
G1X130.684Y113.877
G1X129.861Y113.969
G1X129.365Y114.03
G0X130.113Y117.295
; Layer C27
G1X129.344Y117.407
G1X128.578Y117.516
G1X127.053Y117.728
G1X124.234Y118.108
G1X124.123Y118.178
G1X124.064Y118.22
G1X124.014Y118.258
G1X123.972Y118.295
G1X123.937Y118.33
G1X123.909Y118.364
G1X123.885Y118.397
G1X123.867Y118.431
G1X123.839Y118.5
G1X123.819Y118.575
G1X123.789Y118.699
G1X124.577Y118.652
G1X125.19Y118.622
G1X125.803Y118.598
G1X126.415Y118.581
G1X127.028Y118.569
G1X127.64
G1X128.252
G1X128.864
G1X129.477
G1X130.089Y118.594
G1X130.702Y118.614
G1X131.315Y118.639
G1X131.929Y118.668
G1X132.543Y118.701
G1X133.773Y118.78
G1X135.005Y118.874
G1X136.242Y118.982
G1X137.482Y119.101
G1X138.727Y119.231
G1X139.976Y119.369
G1X141.232Y119.515
G1X142.494Y119.667
G1X143.13Y119.739
G1X143.808Y119.82
G1X144.756Y119.929
G1X145.293Y119.985
G1X145.853Y120.038
G1X146.419Y120.083
G1X146.977Y120.118
G1X147.248Y120.13
G1X147.511
G1X147.765Y120.143
G1X148.007
G1X148.235
G1X148.448Y120.125
G1X148.644Y120.107
G1X148.735Y120.096
G1X148.821Y120.083
G1X148.901Y120.068
G1X148.976Y120.052
G1X149.046Y120.033
G1X149.109Y120.013
G1X149.166Y119.991
G1X149.217Y119.967
G1X149.254Y119.944
G1X149.213Y119.923
G1X148.909Y119.785
G1X148.628Y119.674
G1X148.339Y119.573
G1X148.042Y119.482
G1X147.739Y119.399
G1X147.433Y119.323
G1X147.124Y119.253
G1X146.816Y119.189
G1X146.508Y119.128
G1X145.325Y118.909
G1X145.05Y118.854
G1X144.754Y118.791
G1X143.841Y118.647
G1X143.354Y118.573
G1X142.384Y118.432
G1X141.418Y118.301
G1X140.457Y118.177
G1X139.5Y118.063
G1X138.547Y117.955
G1X137.598Y117.856
G1X136.653Y117.764
G1X135.71Y117.678
G1X134.771Y117.6
G1X133.835Y117.528
G1X132.901Y117.461
G1X131.97Y117.401
G1X131.04Y117.346
G1X130.113Y117.295
G1X129.618Y117.367
G0X128.187Y120.577
; Layer C27
G1X127.577Y120.566
G1X126.841Y120.543
G1X125.368Y120.481
G1X125.233Y120.527
G1X125.097Y120.57
G1X124.961Y120.611
G1X124.69Y120.688
G1X124.33Y120.783
G1Y120.794
G1X124.634Y121.173
G1X124.801Y121.395
G1X124.957Y121.61
G1X125.103Y121.821
G1X125.241Y122.028
G1X125.371Y122.235
G1X125.494Y122.442
G1X125.612Y122.651
G1X125.725Y122.864
G1X125.835Y123.083
G1X125.942Y123.31
G1X126.047Y123.547
G1X126.152Y123.794
G1X126.257Y124.055
G1X126.324Y124.226
G1X126.341Y124.246
G1X126.429Y124.296
G1X126.48Y124.32
G1X126.593Y124.37
G1X126.721Y124.418
G1X126.863Y124.465
G1X127.018Y124.51
G1X127.184Y124.553
G1X127.361Y124.595
G1X127.548Y124.634
G1X127.742Y124.67
G1X127.944Y124.703
G1X128.152Y124.733
G1X128.365Y124.76
G1X128.581Y124.783
G1X128.799Y124.801
G1X129.019Y124.815
G1X129.239
G1X129.458Y124.829
G1X129.675
G1X129.889
G1X130.098Y124.809
G1X130.302Y124.791
G1X130.499Y124.766
G1X130.688Y124.735
G1X130.868Y124.696
G1X131.038Y124.65
G1X131.196Y124.596
G1X131.271Y124.567
G1X131.342Y124.535
G1X131.41Y124.501
G1X131.475Y124.465
G1X131.535Y124.427
G1X131.592Y124.387
G1X131.645Y124.345
G1X131.694Y124.301
G1Y124.052
G1Y123.816
G1X131.668Y123.594
G1X131.645Y123.383
G1X131.614Y123.185
G1X131.575Y122.998
G1X131.529Y122.821
G1X131.475Y122.655
G1X131.413Y122.499
G1X131.344Y122.352
G1X131.267Y122.214
G1X131.182Y122.084
G1X131.09Y121.962
G1X130.99Y121.848
G1X130.883Y121.74
G1X130.768Y121.639
G1X130.645Y121.544
G1X130.514Y121.454
G1X130.376Y121.369
G1X130.23Y121.289
G1X130.076Y121.212
G1X129.915Y121.139
G1X129.746Y121.069
G1X129.569Y121.001
G1X129.384Y120.936
G1X129.192Y120.872
G1X128.992Y120.808
G1X128.784Y120.746
G1X128.568Y120.683
G1X128.187Y120.577
G1X127.687
G0X133.3Y121.11
; Layer C27
G1X133.344Y121.293
G1X133.394Y121.475
G1X133.45Y121.655
G1X133.509Y121.835
G1X133.639Y122.19
G1X133.908Y122.89
G1X134.034Y123.236
G1X134.092Y123.409
G1X134.145Y123.581
G1X134.169Y123.667
G1X134.209Y123.823
G1X134.22
G1X136.801Y124.02
G1X138.388Y124.144
G1X139.111Y124.204
G1X140.174Y124.296
G1X141.288Y124.4
G1X142.996Y124.569
G1X145.139Y124.79
G1X147.916Y125.081
G1X149.386Y125.237
G1X149.637Y125.273
G1X150.122Y125.352
G1X150.591Y125.433
G1X151.056Y125.51
G1X151.528Y125.572
G1X151.77Y125.596
G1X152.017Y125.614
G1X152.272
G1X152.534Y125.625
G1X152.807
G1X153.091Y125.599
G1X153.174
G1Y125.404
G1X153.141Y125.387
G1X152.89Y125.275
G1X152.385Y125.059
G1X151.873Y124.851
G1X151.355Y124.652
G1X150.83Y124.461
G1X150.301Y124.278
G1X149.766Y124.103
G1X149.227Y123.935
G1X148.684Y123.773
G1X148.137Y123.619
G1X147.586Y123.471
G1X147.033Y123.329
G1X146.478Y123.194
G1X145.921Y123.063
G1X145.362Y122.938
G1X144.803Y122.818
G1X144.242Y122.703
G1X143.682Y122.592
G1X143.122Y122.485
G1X142.562Y122.382
G1X142.004Y122.283
G1X140.893Y122.094
G1X139.792Y121.915
G1X138.704Y121.745
G1X136.423Y121.397
G1X135.728Y121.344
G1X134.913Y121.271
G1X133.3Y121.11
G1X133.344Y121.293
G1X133.378Y121.411
G0X131.574Y127.428
; Layer C27
G1X131.176Y127.388
G1X130.787Y127.355
G1X130.409Y127.326
G1X130.044Y127.301
G1X129.526Y127.273
G1X128.763Y127.24
G1X127.894Y127.214
G1Y127.722
G1X127.876Y128.054
G1X127.86Y128.352
G1X127.846Y128.537
G1X127.828Y128.713
G1X127.805Y128.882
G1X127.778Y129.047
G1X127.746Y129.21
G1X127.707Y129.374
G1X127.662Y129.541
G1X127.61Y129.713
G1X127.551Y129.892
G1X127.453Y130.163
G1X127.641Y130.174
G1X128.378Y130.206
G1X128.966Y130.24
G1X129.552Y130.281
G1X130.137Y130.328
G1X130.721Y130.383
G1X131.306Y130.445
G1X131.89Y130.513
G1X132.475Y130.588
G1X133.062Y130.67
G1X133.649Y130.758
G1X134.239Y130.853
G1X134.831Y130.955
G1X135.426Y131.063
G1X136.023Y131.178
G1X136.542Y131.282
G1X137.005Y131.442
G1X137.207Y131.509
G1X137.286Y131.534
G1X137.41Y131.568
G1X137.459Y131.579
G1X137.539Y131.589
G1X137.609
G1X137.695Y131.578
G1X137.736Y131.477
G1X137.748Y131.432
G1X137.768Y131.339
G1X137.78Y131.239
G1Y131.135
G1Y131.026
G1Y130.912
G1X137.76Y130.796
G1X137.741Y130.677
G1X137.716Y130.555
G1X137.687Y130.432
G1X137.653Y130.307
G1X137.615Y130.182
G1X137.552Y129.995
G1X137.496Y129.845
G1X137.279
G1X137.255Y129.757
G1X137.236Y129.698
G1X137.215Y129.64
G1X137.165Y129.527
G1X137.105Y129.418
G1X137.036Y129.312
G1X136.958Y129.21
G1X136.871Y129.111
G1X136.775Y129.016
G1X136.672Y128.924
G1X136.561Y128.835
G1X136.442Y128.749
G1X136.317Y128.667
G1X136.184Y128.587
G1X136.045Y128.511
G1X135.9Y128.438
G1X135.749Y128.367
G1X135.592Y128.299
G1X135.43Y128.235
G1X135.263Y128.172
G1X135.091Y128.113
G1X134.916Y128.056
G1X134.736Y128.002
G1X134.365Y127.9
G1X133.983Y127.808
G1X133.591Y127.726
G1X133.191Y127.651
G1X132.788Y127.585
G1X132.382Y127.525
G1X131.976Y127.473
G1X131.574Y127.428
G1X131.176Y127.388
G1X131.473Y127.419
G0X125.413Y127.775
; Layer C27
G1X125.397Y127.642
G1X125.376Y127.513
G1X125.351Y127.389
G1X125.322Y127.269
G1X125.288Y127.154
G1X125.25Y127.044
G1X125.209Y126.937
G1X125.163Y126.835
G1X125.114Y126.737
G1X125.061Y126.643
G1X125.005Y126.553
G1X124.945Y126.467
G1X124.881Y126.384
G1X124.815Y126.306
G1X124.745Y126.23
G1X124.672Y126.159
G1X124.596Y126.09
G1X124.518Y126.025
G1X124.436Y125.964
G1X124.352Y125.905
G1X124.266Y125.85
G1X124.177Y125.797
G1X123.992Y125.7
G1X123.798Y125.615
G1X123.597Y125.539
G1X123.389Y125.473
G1X123.175Y125.415
G1X122.955Y125.366
G1X122.731Y125.324
G1X122.503Y125.288
G1X122.272Y125.259
G1X122.039Y125.234
G1X121.571Y125.198
G1X121.103Y125.174
G1X120.199Y125.141
G1X119.69Y125.198
G1X119.186Y125.257
G1X118.686Y125.32
G1X118.189Y125.387
G1X117.697Y125.458
G1X117.209Y125.533
G1X116.724Y125.614
G1X116.244Y125.7
G1X115.767Y125.791
G1X115.294Y125.889
G1X114.826Y125.994
G1X114.361Y126.105
G1X113.9Y126.224
G1X113.443Y126.351
G1X113.216Y126.418
G1X112.849Y126.53
G1X113.169Y127.338
G1X113.257Y127.541
G1X113.326Y127.688
G1X113.357Y127.746
G1X113.387Y127.797
G1X113.447Y127.89
G1X113.542Y128.018
G1X114.429Y128.063
G1X114.815Y128.085
G1X115.204Y128.11
G1X115.595Y128.138
G1X115.988Y128.17
G1X116.383Y128.207
G1X116.779Y128.25
G1X117.175Y128.299
G1X117.57Y128.354
G1X117.966Y128.416
G1X118.36Y128.487
G1X118.752Y128.566
G1X119.142Y128.654
G1X119.529Y128.752
G1X119.781Y128.855
G1X120.031Y128.964
G1X120.279Y129.079
G1X120.523Y129.198
G1X121.003Y129.441
G1X121.47Y129.681
G1X121.698Y129.795
G1X121.923Y129.904
G1X122.143Y130.006
G1X122.359Y130.1
G1X122.571Y130.183
G1X122.779Y130.254
G1X122.881Y130.285
G1X122.982Y130.312
G1X123.082Y130.335
G1X123.18Y130.354
G1X123.277Y130.37
G1X123.373Y130.381
G1X123.468
G1X123.561
G1X123.654
G1X123.744
G1X123.834Y130.363
G1X123.922Y130.344
G1X124.009Y130.319
G1X124.094Y130.288
G1X124.178Y130.251
G1X124.26Y130.208
G1X124.341Y130.158
G1X124.42Y130.102
G1X124.498Y130.039
G1X124.574Y129.968
G1X124.649Y129.89
G1X124.722Y129.805
G1X124.794Y129.712
G1X124.864Y129.611
G1X124.932Y129.503
G1X124.998Y129.385
G1X125.063Y129.26
G1X125.127Y129.126
G1X125.188Y128.982
G1X125.248Y128.83
G1X125.306Y128.669
G1X125.362Y128.498
G1X125.389Y128.409
G1X125.434Y128.252
G1Y128.056
G1Y127.913
G1X125.413Y127.775
G1X125.397Y127.642
G1X125.376Y127.513
G1X125.397Y127.675
G0X121.414Y131.222
; Layer C27
G1X121.258Y131.147
G1X120.938Y131.003
G1X120.609Y130.87
G1X120.273Y130.746
G1X119.93Y130.632
G1X119.583Y130.527
G1X119.232Y130.43
G1X118.878Y130.342
G1X118.524Y130.262
G1X118.17Y130.189
G1X117.818Y130.124
G1X117.469Y130.065
G1X117.125Y130.013
G1X116.786Y129.968
G1X116.454Y129.928
G1X116.13Y129.894
G1X115.816Y129.866
G1X115.514Y129.842
G1X115.223Y129.823
G1X114.946Y129.808
G1X114.684Y129.797
G1Y129.879
G1X114.694Y129.964
G1X114.708Y130.051
G1X114.727Y130.14
G1X114.751Y130.23
G1X114.781Y130.322
G1X114.816Y130.416
G1X114.856Y130.511
G1X114.9Y130.608
G1X114.949Y130.705
G1X115.003Y130.805
G1X115.06Y130.905
G1X115.188Y131.108
G1X115.33Y131.315
G1X115.487Y131.524
G1X115.655Y131.736
G1X115.835Y131.949
G1X116.024Y132.162
G1X116.222Y132.375
G1X116.427Y132.587
G1X116.638Y132.797
G1X116.853Y133.006
G1X117.072Y133.211
G1X117.292Y133.412
G1X117.513Y133.609
G1X117.733Y133.8
G1X117.952Y133.986
G1X118.167Y134.164
G1X118.377Y134.336
G1X118.581Y134.499
G1X118.779Y134.653
G1X118.967Y134.798
G1X119.313Y135.056
G1X119.609Y135.267
G1X120.023Y135.388
G1X120.225Y135.443
G1X120.424Y135.495
G1X120.619Y135.543
G1X120.81Y135.585
G1X120.997Y135.621
G1X121.18Y135.651
G1X121.359Y135.673
G1X121.533Y135.688
G1X121.702
G1X121.865
G1X122.024Y135.675
G1X122.177Y135.65
G1X122.324Y135.614
G1X122.465Y135.566
G1X122.599Y135.504
G1X122.728Y135.429
G1X122.789Y135.386
G1X122.849Y135.339
G1X122.908Y135.289
G1X122.964Y135.235
G1X123.019Y135.177
G1X123.072Y135.114
G1X123.123Y135.048
G1X123.172Y134.978
G1X123.219Y134.903
G1X123.264Y134.824
G1X123.308Y134.74
G1X123.349Y134.652
G1X123.389Y134.559
G1X123.426Y134.462
G1X123.461Y134.359
G1X123.494Y134.252
G1X123.526Y134.14
G1X123.555Y134.022
G1X123.581Y133.9
G1X123.606Y133.772
G1X123.628Y133.639
G1X123.648Y133.501
G1X123.666Y133.357
G1X123.682Y133.207
G1X123.605Y133.074
G1X123.523Y132.944
G1X123.435Y132.818
G1X123.342Y132.696
G1X123.243Y132.576
G1X123.14Y132.46
G1X123.032Y132.347
G1X122.919Y132.237
G1X122.801Y132.13
G1X122.68Y132.026
G1X122.554Y131.925
G1X122.424Y131.827
G1X122.29Y131.732
G1X122.152Y131.64
G1X122.011Y131.551
G1X121.866Y131.465
G1X121.719Y131.381
G1X121.568Y131.3
G1X121.414Y131.222
G1X121.258Y131.147
G1X121.118Y131.086
G0X126.451Y132.548
; Layer C27
G1Y132.798
G1X128.447Y133.29
G1X129.298Y133.504
G1X129.66Y133.597
G1X130.31Y133.773
G1X130.621Y133.861
G1X131.265Y134.051
G1X132.014Y134.282
G1X132.954Y134.575
G1X133.105Y134.636
G1X133.263Y134.704
G1X133.428Y134.778
G1X133.599Y134.858
G1X134.738Y135.407
G1X135.148Y135.598
G1X135.567Y135.781
G1X135.991Y135.95
G1X136.204Y136.027
G1X136.416Y136.099
G1X136.628Y136.164
G1X136.839Y136.221
G1X137.049Y136.27
G1X137.256Y136.311
G1X137.461Y136.341
G1X137.663Y136.36
G1X137.861
G1X138.056
G1X138.246Y136.346
G1X138.431Y136.314
G1X138.522Y136.293
G1X138.611Y136.268
G1X138.699Y136.239
G1X138.785Y136.206
G1X138.891Y136.159
G1Y136.02
G1Y135.94
G1X138.866Y135.783
G1X138.83Y135.631
G1X138.782Y135.483
G1X138.722Y135.34
G1X138.651Y135.2
G1X138.568Y135.065
G1X138.474Y134.934
G1X138.37Y134.806
G1X138.256Y134.683
G1X138.132Y134.563
G1X137.999Y134.448
G1X137.857Y134.336
G1X137.707Y134.228
G1X137.549Y134.123
G1X137.383Y134.022
G1X137.209Y133.924
G1X137.029Y133.83
G1X136.843Y133.74
G1X136.65Y133.652
G1X136.452Y133.568
G1X136.248Y133.487
G1X136.04Y133.409
G1X135.827Y133.334
G1X135.61Y133.262
G1X135.39Y133.194
G1X135.166Y133.128
G1X134.939Y133.065
G1X134.71Y133.004
G1X134.246Y132.892
G1X133.777Y132.789
G1X133.306Y132.697
G1X132.836Y132.613
G1X132.371Y132.539
G1X131.913Y132.473
G1X131.466Y132.415
G1X131.034Y132.364
G1X130.619Y132.32
G1X130.035Y132.265
G1X129.508Y132.224
G1X128.913Y132.185
G1X128.464Y132.162
G1X128.194Y132.219
G1X127.928Y132.273
G1X127.402Y132.374
G1X126.451Y132.548
G1Y132.798
G1X126.685Y132.635
G0X126.548Y134.972
; Layer C27
G1X126.22Y135.445
G1X125.941Y135.836
G1X125.526Y136.406
G1X125.388Y136.602
G1X125.361Y136.643
G1X125.295Y136.749
G1X125.266Y136.808
G1X125.247Y136.858
G1Y136.88
G1Y136.907
G1X127.895Y137.819
G1X128.611Y138.061
G1X129.333Y138.298
G1X130.06Y138.528
G1X130.793Y138.749
G1X131.531Y138.959
G1X131.902Y139.059
G1X132.274Y139.155
G1X132.646Y139.247
G1X133.02Y139.335
G1X133.395Y139.418
G1X133.77Y139.496
G1X134.147Y139.569
G1X134.524Y139.636
G1X134.902Y139.697
G1X135.281Y139.752
G1X135.66Y139.8
G1X136.04Y139.842
G1X136.325Y139.869
G1X136.348
G1X136.613Y139.806
G1X136.698Y139.783
G1X136.774Y139.758
G1X136.84Y139.729
G1X136.897Y139.693
G1X136.947Y139.649
G1X136.988Y139.594
G1X137.023Y139.527
G1X137.038Y139.487
G1X137.051Y139.444
G1X137.063Y139.396
G1X137.073Y139.344
G1Y139.287
G1X137.096Y139.157
G1Y139.005
G1X137.109Y138.817
G1Y138.803
G1X137.032Y138.742
G1X136.706Y138.473
G1X136.408Y138.248
G1X136.101Y138.034
G1X135.787Y137.831
G1X135.466Y137.638
G1X135.139Y137.456
G1X134.805Y137.283
G1X134.466Y137.12
G1X134.122Y136.965
G1X133.773Y136.819
G1X133.42Y136.681
G1X133.063Y136.55
G1X132.703Y136.427
G1X132.34Y136.31
G1X131.975Y136.199
G1X131.608Y136.094
G1X131.24Y135.994
G1X130.871Y135.898
G1X130.132Y135.721
G1X129.396Y135.557
G1X128.665Y135.404
G1X127.238Y135.115
G1X126.548Y134.972
G1X126.263Y135.383
G0X112.959Y133.626
; Layer C27
G1Y133.636
G1X112.492Y134.05
G1X112.153Y134.346
G1X111.811Y134.638
G1X111.465Y134.926
G1X111.116Y135.21
G1X110.763Y135.491
G1X110.407Y135.767
G1X110.048Y136.04
G1X109.686Y136.308
G1X109.321Y136.572
G1X108.953Y136.832
G1X108.581Y137.088
G1X108.207Y137.34
G1X107.829Y137.587
G1X107.449Y137.83
G1X107.065Y138.069
G1X106.679Y138.303
G1X106.29Y138.533
G1X105.897Y138.759
G1X105.503Y138.98
G1X105.105Y139.197
G1X104.705Y139.409
G1X104.302Y139.617
G1X103.896Y139.82
G1X103.488Y140.018
G1X103.077Y140.212
G1X102.663Y140.401
G1X102.247Y140.586
G1X101.829Y140.765
G1X101.408Y140.94
G1X100.984Y141.11
G1X100.558Y141.275
G1X100.13Y141.436
G1X99.7Y141.591
G1X99.267Y141.741
G1X98.832Y141.887
G1X98.395Y142.027
G1X97.956Y142.162
G1X97.514Y142.293
G1X97.071Y142.418
G1X96.625Y142.538
G1X96.177Y142.652
G1X95.728Y142.762
G1X95.276Y142.866
G1X94.822Y142.965
G1X94.367Y143.059
G1X93.91Y143.147
G1X93.45Y143.23
G1X92.989Y143.307
G1X92.527Y143.379
G1X92.062Y143.445
G1X91.596Y143.506
G1X91.128Y143.561
G1X90.659Y143.611
G1X90.188Y143.655
G1X89.715Y143.694
G1X89.241Y143.726
G1X88.766Y143.753
G1X88.289Y143.774
G1X87.81Y143.79
G1X87.33
G1X86.849Y143.803
G1X86.202
G1X85.633Y143.785
G1X85.349
G1X84.783Y143.751
G1X84.22Y143.718
G1X83.658Y143.677
G1X83.099Y143.628
G1X82.542Y143.571
G1X81.988Y143.506
G1X81.435Y143.433
G1X80.886Y143.353
G1X80.338Y143.265
G1X79.794Y143.169
G1X79.251Y143.066
G1X78.712Y142.955
G1X78.175Y142.837
G1X77.641Y142.711
G1X77.11Y142.578
G1X76.582Y142.438
G1X76.057Y142.29
G1X75.535Y142.135
G1X75.016Y141.974
G1X74.5Y141.805
G1X73.987Y141.629
G1X73.477Y141.446
G1X72.971Y141.256
G1X72.468Y141.06
G1X71.968Y140.857
G1X71.472Y140.647
G1X70.979Y140.43
G1X70.49Y140.207
G1X70.005Y139.977
G1X69.523Y139.741
G1Y139.643
G1X69.507Y139.509
G1X69.411Y138.711
G1X69.385Y138.473
G1X69.362Y138.23
G1X69.344Y137.987
G1X69.333Y137.75
G1Y137.635
G1Y137.524
G1Y137.417
G1Y137.314
G1X69.349Y137.217
G1X69.361Y137.126
G1X69.377Y137.042
G1X69.397Y136.965
G1X69.421Y136.896
G1X69.449Y136.836
G1X69.465Y136.81
G1X69.482Y136.786
G1X69.505Y136.759
G1X69.742Y136.988
G1X69.915Y137.153
G1X70.077Y137.301
G1X70.23Y137.431
G1X70.373Y137.545
G1X70.507Y137.642
G1X70.571Y137.685
G1X70.632Y137.723
G1X70.692Y137.758
G1X70.749Y137.789
G1X70.805Y137.815
G1X70.858Y137.838
G1X70.909Y137.857
G1X70.959Y137.872
G1X71.006Y137.883
G1X71.052
G1X71.096Y137.895
G1X71.138
G1X71.178
G1X71.217Y137.884
G1X71.254Y137.873
G1X71.289Y137.858
G1X71.355Y137.818
G1X71.415Y137.765
G1X71.469Y137.697
G1X71.518Y137.616
G1X71.561Y137.522
G1X71.6Y137.415
G1X71.633Y137.295
G1X71.663Y137.162
G1X71.688Y137.018
G1X71.71Y136.861
G1X71.729Y136.692
G1X71.744Y136.512
G1X71.756Y136.32
G1X71.766Y136.118
G1Y135.905
G1X71.787Y135.334
G1X71.902
G1X71.991Y135.357
G1X72.077Y135.377
G1X72.162Y135.402
G1X72.508Y135.521
G1X72.601Y135.548
G1X72.699Y135.572
G1X72.803Y135.59
G1X72.914Y135.603
G1X73.032
G1X73.159
G1X73.226
G1X73.296Y135.587
G1X73.377Y135.574
G1X73.443Y135.334
G1X73.475Y135.165
G1X73.499Y134.996
G1X73.515Y134.828
G1Y134.658
G1X73.527Y134.487
G1Y134.315
G1X73.516Y134.139
G1X73.503Y133.96
G1X73.487Y133.777
G1X73.467Y133.59
G1X73.444Y133.397
G1X73.36Y132.725
G1Y132.678
G1X73.396
G1X73.57Y132.731
G1X73.7Y132.77
G1X73.824Y132.811
G1X74.176Y132.932
G1X74.411Y132.998
G1X74.533Y133.022
G1X74.662Y133.04
G1X74.798
G1X74.943
G1X75.02
G1X75.1
G1X75.182Y133.024
G1X75.268Y133.009
G1X75.358Y132.992
G1X75.5Y132.959
G1X75.518
G1X75.536Y132.911
G1X75.585Y132.783
G1X75.614Y132.685
G1X75.637Y132.588
G1X75.654Y132.493
G1X75.666Y132.396
G1Y132.298
G1X75.677Y132.197
G1Y131.864
G1X75.688Y131.605
G1Y131.46
G1X75.706Y131.304
G1X75.725Y131.114
G1Y131.1
G1X75.997
G1X76.127
G1X76.452Y131.128
G1X76.547
G1X76.639
G1X76.732Y131.112
G1X76.826Y131.09
G1X76.925Y131.057
G1X76.977Y131.035
G1X77.031Y131.01
G1X77.087Y130.982
G1X77.146Y130.949
G1X77.208Y130.913
G1X77.273Y130.872
G1X77.414Y130.775
G1X77.572Y130.659
G1X77.583Y130.601
G1Y130.545
G1Y130.322
G1X77.554Y130.098
G1X77.523Y129.867
G1X77.481Y129.626
G1X77.456Y129.499
G1X77.4Y129.231
G1X77.278Y128.704
G1Y128.632
G1X77.65
G1X77.867Y128.619
G1X77.97
G1X78.072Y128.603
G1X78.174Y128.59
G1X78.278Y128.571
G1X78.386Y128.547
G1X78.5Y128.516
G1X78.621Y128.477
G1X78.751Y128.43
G1X78.82Y128.403
G1X78.968Y128.342
G1X79.171Y128.25
G1Y128.236
G1Y128.158
G1Y128.094
G1X79.15Y127.967
G1X79.125Y127.838
G1X79.094Y127.708
G1X79.059Y127.576
G1X78.977Y127.31
G1X78.8Y126.77
G1X78.72Y126.496
G1X78.685Y126.359
G1X78.656Y126.222
G1X78.641Y126.136
G1X78.725Y126.123
G1X79.215Y126.097
G1X79.329
G1X79.445Y126.076
G1X79.562Y126.059
G1X79.681Y126.035
G1X79.8Y126.004
G1X79.92Y125.965
G1X80.04Y125.916
G1X80.161Y125.856
G1X80.281Y125.785
G1X80.402Y125.7
G1X80.462Y125.652
G1Y125.62
G1Y125.461
G1Y125.216
G1X80.435Y124.978
G1X80.419Y124.859
G1X80.401Y124.74
G1X80.378Y124.619
G1X80.352Y124.496
G1X80.322Y124.37
G1X80.287Y124.239
G1X80.248Y124.104
G1X80.205Y123.964
G1X80.157Y123.817
G1X80.083Y123.603
G1X80.623Y123.471
G1X80.803Y123.423
G1X80.987Y123.364
G1X81.082Y123.327
G1X81.18Y123.285
G1X81.283Y123.236
G1X81.391Y123.18
G1X81.504Y123.115
G1X81.655Y123.02
G1Y123.006
G1Y122.806
G1X81.641Y122.568
G1X81.615Y122.331
G1X81.597Y122.211
G1X81.575Y122.091
G1X81.55Y121.968
G1X81.522Y121.842
G1X81.491Y121.712
G1X81.456Y121.579
G1X81.375Y121.297
G1X81.274Y120.97
G1X81.29
G1X81.459Y120.916
G1X82.272Y120.7
G1X82.373Y120.67
G1X82.468Y120.639
G1X82.557Y120.607
G1X82.639Y120.572
G1X82.715Y120.535
G1X82.786Y120.495
G1X82.85Y120.45
G1X82.909Y120.401
G1X82.961Y120.347
G1X83.008Y120.287
G1X83.049Y120.221
G1X83.085Y120.148
G1X83.114Y120.067
G1X83.139Y119.978
G1X83.158Y119.88
G1X83.171Y119.773
G1Y119.656
G1X83.182Y119.528
G1Y119.389
G1X83.172Y119.238
G1X83.159Y119.075
G1X83.142Y118.898
G1X83.119Y118.708
G1X83.091Y118.504
G1X83.359Y118.403
G1X83.486Y118.352
G1X83.551Y118.323
G1X83.616Y118.292
G1X83.682Y118.256
G1X83.751Y118.215
G1X83.823Y118.168
G1X83.897Y118.114
G1X83.976Y118.052
G1X84.103Y117.944
G1X84.217Y117.836
G1X84.229Y117.804
G1Y117.525
G1Y117.307
G1Y117.133
G1X84.217Y116.985
G1X84.199Y116.843
G1X84.172Y116.69
G1X84.091Y116.313
G1X84.251
G1X84.682
G1X84.977
G1X85.243Y116.296
G1X85.257
G1Y116.273
G1X85.302Y116.208
G1X85.329Y116.131
G1X85.349Y116.044
G1X85.363Y115.947
G1Y115.842
G1Y115.729
G1Y115.61
G1X85.351Y115.487
G1X85.334Y115.36
G1X85.312Y115.23
G1X85.285Y115.1
G1X85.254Y114.969
G1X85.218Y114.839
G1X85.179Y114.712
G1X85.124Y114.557
G1Y114.53
G1X85.355Y114.395
G1X85.456Y114.332
G1X85.547Y114.267
G1X85.639Y114.192
G1X85.743Y114.099
G1X86.057Y113.795
G1Y113.777
G1X86.016Y113.752
G1X85.975Y113.734
G1X85.924Y113.718
G1X85.86Y113.704
G1X85.737Y113.684
G1X85.447Y113.648
G1X84.696Y113.562
G1X84.159Y113.496
G1X83.845Y113.454
G1X83.778Y113.444
G1Y113.243
G1X83.791Y113.124
G1Y113.065
G1X83.814Y112.976
G1X84.361Y113.106
G1X84.961Y113.241
G1X86.57Y113.589
G1X87.234Y113.736
G1X87.898Y113.891
G1X88.553Y114.055
G1X88.854Y114.136
G1X88.866Y114.153
G1X88.884Y114.171
G1X88.914Y114.191
G1X88.936Y114.203
G1X89.037Y114.25
G1X89.211Y114.319
G1X89.721Y114.508
G1X90.387Y114.746
G1X93.218Y115.746
G1X93.33Y115.795
G1X93.921Y116.091
G1X94.391Y116.332
G1X94.858Y116.575
G1X95.322Y116.821
G1X95.784Y117.071
G1X96.243Y117.324
G1X96.698Y117.581
G1X97.151Y117.842
G1X97.602Y118.106
G1X98.049Y118.374
G1X98.493Y118.647
G1X98.934Y118.923
G1X99.372Y119.204
G1X99.807Y119.489
G1X100.239Y119.779
G1X100.668Y120.074
G1X101.094Y120.373
G1X101.516Y120.677
G1X101.935Y120.987
G1X102.351Y121.301
G1X102.764Y121.621
G1X103.174Y121.946
G1X103.58Y122.277
G1X103.982Y122.614
G1X104.382Y122.956
G1X104.777Y123.304
G1X105.17Y123.659
G1X105.559Y124.019
G1X105.944Y124.386
G1X106.326Y124.759
G1X106.833Y125.268
G1X106.885Y125.297
G1X106.931Y125.331
G1X106.984Y125.377
G1X107.014Y125.407
G1X107.124Y125.523
G1X107.334Y125.759
G1X108.071Y126.612
G1X108.652Y127.281
G1X109.633Y128.398
G1X109.693Y128.485
G1X109.848Y128.727
G1X109.949Y128.891
G1X110.147Y129.226
G1X110.342Y129.566
G1X111.107Y130.954
G1X111.302Y131.299
G1X111.501Y131.641
G1X111.706Y131.977
G1X111.917Y132.306
G1X112.136Y132.626
G1X112.365Y132.936
G1X112.484Y133.087
G1X112.605Y133.235
G1X112.729Y133.379
G1X112.857Y133.519
G1X112.959Y133.626
G1Y133.636
G1X112.597Y133.954
G0X112.445Y124.353
; Layer C27
G1X112.656
G1X112.871Y124.334
G1X113.09Y124.319
G1X113.311Y124.301
G1X113.764Y124.256
G1X114.229Y124.202
G1X114.702Y124.139
G1X115.183Y124.071
G1X116.652Y123.853
G1X117.146Y123.782
G1X117.638Y123.717
G1X118.127Y123.658
G1X118.37Y123.632
G1X118.611Y123.608
G1X118.897Y123.583
G1X118.618Y123.485
G1X118.416Y123.422
G1X118.213Y123.363
G1X118.01Y123.309
G1X117.806Y123.259
G1X117.602Y123.214
G1X117.193Y123.136
G1X116.783Y123.072
G1X116.373Y123.022
G1X115.963Y122.982
G1X115.555Y122.951
G1X115.149Y122.929
G1X114.745Y122.911
G1X114.344Y122.898
G1X113.169Y122.865
G1X112.788Y122.851
G1X112.615Y122.897
G1X112.441Y122.94
G1X112.097Y123.02
G1X111.504Y123.149
G1Y123.371
G1Y123.475
G1Y123.567
G1X111.515Y123.65
G1X111.526Y123.724
G1X111.54Y123.792
G1X111.557Y123.856
G1X111.577Y123.916
G1X111.601Y123.975
G1X111.628Y124.035
G1X111.659Y124.098
G1X111.797Y124.347
G1X111.813
G1X112.035
G1X112.238
G1X112.445
G1X112.656
G1X112.734
G0X112.736Y121.303
; Layer C27
G1X113.562
G1X113.981Y121.317
G1X114.403Y121.327
G1X114.829Y121.342
G1X115.259Y121.361
G1X115.692Y121.387
G1X116.129Y121.419
G1X116.569Y121.459
G1X116.79Y121.482
G1X117.956Y121.789
G1X118.623Y121.962
G1X119.291Y122.132
G1X120.632Y122.468
G1X121.983Y122.802
G1X122.618Y123.07
G1X122.824Y123.152
G1X122.907Y123.183
G1X122.981Y123.208
G1X123.046Y123.228
G1X123.107Y123.244
G1X123.222Y123.266
G1X123.344Y123.281
G1X123.453
G1X123.413Y123.177
G1X123.366Y123.065
G1X123.313Y122.955
G1X123.254Y122.847
G1X123.189Y122.74
G1X123.118Y122.636
G1X123.041Y122.533
G1X122.959Y122.432
G1X122.871Y122.332
G1X122.779Y122.234
G1X122.681Y122.138
G1X122.579Y122.044
G1X122.473Y121.952
G1X122.362Y121.861
G1X122.247Y121.771
G1X122.128Y121.684
G1X122.005Y121.598
G1X121.879Y121.514
G1X121.616Y121.35
G1X121.341Y121.193
G1X121.056Y121.042
G1X120.762Y120.898
G1X120.46Y120.759
G1X120.153Y120.627
G1X119.841Y120.501
G1X119.526Y120.381
G1X119.21Y120.266
G1X118.893Y120.157
G1X118.579Y120.054
G1X118.267Y119.956
G1X117.96Y119.864
G1X117.659Y119.777
G1X117.366Y119.696
G1X117.082Y119.62
G1X116.547Y119.482
G1X116.068Y119.364
G1X115.655Y119.265
G1X114.958Y119.253
G1X114.17Y119.229
G1X112.612Y119.166
G1X111.479Y119.383
G1X111.103Y119.46
G1X110.946Y119.494
G1X110.804Y119.528
G1X110.547Y119.596
G1X110.293Y119.673
G1X110.157Y119.718
G1X109.748Y119.857
G1Y119.922
G1Y120.045
G1X109.77Y120.158
G1X109.792Y120.263
G1X109.82Y120.36
G1X109.853Y120.45
G1X109.892Y120.536
G1X109.936Y120.618
G1X109.983Y120.697
G1X110.085Y120.852
G1X110.194Y121.012
G1X110.25Y121.096
G1X110.305Y121.185
G1X110.359Y121.28
G1X110.551
G1X111.134Y121.295
G1X111.528
G1X112.736
G1X113.236Y121.307
G0X113.743Y116.981
; Layer C27
G1X114.779Y117.125
G1X115.242Y117.194
G1X115.705Y117.269
G1X116.17Y117.349
G1X116.636Y117.436
G1X117.103Y117.531
G1X117.572Y117.635
G1X118.042Y117.749
G1X118.514Y117.874
G1X118.988Y118.011
G1X119.463Y118.161
G1X119.941Y118.325
G1X120.18Y118.412
G1X120.42Y118.503
G1X120.661Y118.598
G1X120.902Y118.698
G1X120.981
G1X121.054Y118.683
G1X121.12Y118.665
G1X121.179Y118.639
G1X121.233Y118.606
G1X121.28Y118.568
G1X121.322Y118.523
G1X121.359Y118.472
G1X121.391Y118.416
G1X121.418Y118.355
G1X121.44Y118.29
G1X121.458Y118.221
G1X121.472Y118.148
G1X121.483Y118.071
G1Y117.992
G1Y117.91
G1Y117.74
G1Y117.564
G1X121.46Y117.386
G1X121.434Y117.208
G1X121.405Y117.033
G1X121.336Y116.669
G1Y116.653
G1X121.059Y116.524
G1X120.895Y116.452
G1X120.73Y116.386
G1X120.566Y116.326
G1X120.402Y116.271
G1X120.239Y116.22
G1X120.075Y116.175
G1X119.912Y116.134
G1X119.749Y116.098
G1X119.586Y116.065
G1X119.262Y116.011
G1X118.939Y115.97
G1X118.617Y115.94
G1X118.297Y115.919
G1X117.978Y115.906
G1X117.662
G1X116.724Y115.883
G1X116.416
G1X115.169Y116.09
G1X114.775Y116.162
G1X114.487Y116.22
G1X114.372Y116.247
G1X114.271Y116.273
G1X114.178Y116.299
G1X114.09Y116.327
G1X114.002Y116.357
G1X113.783Y116.439
G1X113.732Y116.685
G1X113.714Y116.825
G1Y116.892
G1Y116.975
G1X113.743
G1X114.238Y117.05
G0X112.139Y116.637
; Layer C27
G1X112.122Y115.622
G1X112.112Y115.228
G1Y115.046
G1X112.092Y114.874
G1X112.077Y114.711
G1X112.058Y114.556
G1X112.033Y114.41
G1X112.003Y114.272
G1X111.966Y114.142
G1X111.922Y114.019
G1X111.87Y113.903
G1X111.809Y113.794
G1X111.74Y113.69
G1X111.66Y113.593
G1X111.57Y113.501
G1X111.468Y113.414
G1X111.354Y113.332
G1X111.228Y113.254
G1X111.088Y113.18
G1X110.934Y113.11
G1X110.851Y113.076
G1X110.765Y113.043
G1X110.581Y112.979
G1X110.38Y112.917
G1X110.163Y112.858
G1X109.928Y112.8
G1X109.675Y112.743
G1X108.981Y113.211
G1X108.729Y113.384
G1X108.473Y113.565
G1X108.219Y113.753
G1X107.971Y113.945
G1X107.734Y114.142
G1X107.621Y114.242
G1X107.512Y114.343
G1X107.408Y114.444
G1X107.31Y114.546
G1X107.218Y114.648
G1X107.132Y114.75
G1X107.054Y114.853
G1X106.983Y114.956
G1X106.921Y115.058
G1X106.868Y115.16
G1X106.824Y115.262
G1X106.79Y115.364
G1X106.767Y115.464
G1X106.756Y115.564
G1Y115.589
G1Y115.611
G1X108.316Y117.586
G1X108.342Y117.605
G1X108.371
G1X108.475
G1X108.557Y117.584
G1X108.648Y117.568
G1X108.858Y117.525
G1X109.098Y117.469
G1X109.362Y117.403
G1X109.792Y117.288
G1X110.093Y117.205
G1X111.291Y116.867
G1X111.807Y116.726
G1X111.92Y116.697
G1X112.133Y116.645
G1Y116.137
G0X113.71Y114.617
; Layer C27
G1X113.877
G1X114.22Y114.594
G1X114.585Y114.564
G1X114.793Y114.545
G1X115.497Y114.475
G1X116.284Y114.389
G1X117.107Y114.294
G1X117.652Y114.227
G1X118.428Y114.126
G1X119.113Y114.03
G1X119.495Y113.971
G1X119.864Y113.905
G1X120.017Y113.872
G1X120.125Y113.825
G1X120.226Y113.774
G1X120.321Y113.718
G1X120.41Y113.658
G1X120.493Y113.595
G1X120.57Y113.527
G1X120.64Y113.456
G1X120.704Y113.382
G1X120.763Y113.304
G1X120.815Y113.223
G1X120.861Y113.139
G1X120.901Y113.052
G1X120.935Y112.962
G1X120.963Y112.87
G1X120.985Y112.775
G1X121.001Y112.678
G1X121.012Y112.578
G1Y112.477
G1Y112.374
G1Y112.269
G1X120.995Y112.162
G1X120.977Y112.054
G1X120.953Y111.945
G1X120.923Y111.834
G1X120.888Y111.723
G1X120.847Y111.61
G1X120.8Y111.497
G1X120.748Y111.383
G1X120.691Y111.269
G1X120.628Y111.154
G1X120.586Y111.083
G1X120.212Y111.02
G1X119.299Y110.874
G1X119.076Y110.931
G1X118.859Y110.99
G1X118.646Y111.052
G1X118.437Y111.115
G1X118.233Y111.181
G1X118.032Y111.248
G1X117.836Y111.318
G1X117.642Y111.389
G1X117.266Y111.538
G1X116.9Y111.693
G1X116.545Y111.856
G1X116.198Y112.025
G1X115.857Y112.2
G1X115.522Y112.38
G1X115.189Y112.566
G1X114.859Y112.756
G1X114.528Y112.951
G1X113.753Y113.416
G1X113.73Y113.634
G1Y113.793
G1X113.709Y114.108
G1Y114.613
G1X113.877
G1X114.043Y114.602
G0X113.353Y111.779
; Layer C27
G1X113.368
G1X113.932Y111.43
G1X114.273Y111.218
G1X114.645Y110.978
G1X114.905Y110.804
G1X115.173Y110.621
G1X115.444Y110.427
G1X115.717Y110.226
G1X115.987Y110.016
G1X116.253Y109.8
G1X116.512Y109.577
G1X116.759Y109.349
G1X116.993Y109.116
G1X117.104Y108.998
G1X117.211Y108.879
G1X117.313Y108.76
G1X117.41Y108.639
G1X117.501Y108.519
G1X117.586Y108.397
G1X117.665Y108.276
G1X117.738Y108.154
G1X117.803Y108.032
G1X117.861Y107.909
G1X117.911Y107.787
G1X117.954Y107.665
G1X117.987Y107.543
G1X118.012Y107.422
G1X118.028Y107.3
G1Y107.18
G1Y107.06
G1X118.017Y106.94
G1X117.993Y106.822
G1X117.958Y106.704
G1X117.911Y106.588
G1X117.852Y106.472
G1X117.782Y106.358
G1X117.699Y106.245
G1X117.603Y106.133
G1X117.495Y106.023
G1X117.372Y105.914
G1X117.236Y105.807
G1X117.086Y105.702
G1X116.921Y105.599
G1X116.85Y105.558
G1X116.633
G1X116.36Y105.535
G1X115.816Y105.483
G1X115.635Y105.57
G1X115.453Y105.671
G1X115.271Y105.787
G1X115.089Y105.917
G1X114.907Y106.058
G1X114.726Y106.211
G1X114.547Y106.375
G1X114.369Y106.548
G1X114.193Y106.73
G1X114.02Y106.92
G1X113.85Y107.116
G1X113.684Y107.318
G1X113.521Y107.525
G1X113.362Y107.736
G1X113.208Y107.95
G1X113.059Y108.166
G1X112.916Y108.383
G1X112.779Y108.601
G1X112.648Y108.818
G1X112.524Y109.033
G1X112.406Y109.245
G1X112.297Y109.454
G1X112.196Y109.659
G1X112.103Y109.858
G1X112.019Y110.051
G1X111.944Y110.236
G1X111.879Y110.413
G1X111.824Y110.582
G1X111.8Y110.662
G1X111.761Y110.815
G1X111.739Y110.922
G1Y110.946
G1X111.966Y111.085
G1X112.076Y111.159
G1X112.442Y111.421
G1X112.613Y111.53
G1X112.703Y111.58
G1X112.799Y111.625
G1X112.904Y111.666
G1X113.02Y111.704
G1X113.083Y111.722
G1X113.22Y111.754
G1X113.353Y111.779
G1X113.368
G1X113.768Y111.529
G0X109.022Y110.178
; Layer C27
G1X109.124Y110.042
G1X109.214Y109.904
G1X109.292Y109.762
G1X109.358Y109.616
G1X109.41Y109.464
G1X109.449Y109.307
G1X109.463Y109.226
G1X109.473Y109.143
G1Y109.058
G1Y108.97
G1Y108.881
G1Y108.79
G1Y108.696
G1X109.456Y108.599
G1X109.439Y108.501
G1X109.418Y108.399
G1X109.393Y108.294
G1X109.364Y108.187
G1X109.33Y108.077
G1X109.291Y107.963
G1X109.249Y107.847
G1X109.201Y107.727
G1X109.149Y107.603
G1X109.092Y107.476
G1X109.031Y107.346
G1X108.93Y107.143
G1Y107.132
G1X108.839Y107.1
G1X108.645Y107.028
G1X108.575Y107.006
G1X108.503Y106.986
G1X108.429Y106.969
G1X108.347Y106.953
G1X108.257Y106.938
G1X108.154Y106.924
G1X107.898Y106.897
G1X107.558Y106.866
G1X107.108Y106.828
G1X106.913Y106.907
G1X106.72Y106.995
G1X106.529Y107.091
G1X106.342Y107.195
G1X106.157Y107.308
G1X105.975Y107.427
G1X105.797Y107.554
G1X105.623Y107.687
G1X105.453Y107.827
G1X105.288Y107.972
G1X105.127Y108.123
G1X104.972Y108.279
G1X104.821Y108.44
G1X104.676Y108.605
G1X104.537Y108.773
G1X104.405Y108.946
G1X104.278Y109.121
G1X104.159Y109.299
G1X104.046Y109.48
G1X103.941Y109.662
G1X103.844Y109.846
G1X103.754Y110.031
G1X103.672Y110.217
G1X103.599Y110.404
G1X103.535Y110.59
G1X103.479Y110.776
G1X103.433Y110.961
G1X103.397Y111.146
G1X103.371Y111.328
G1X103.354Y111.509
G1Y111.554
G1Y111.663
G1X103.871Y112.276
G1X104.329Y112.803
G1X105.114Y113.697
G1X105.489
G1X106.019Y113.046
G1X106.302Y112.707
G1X106.538Y112.431
G1X106.587Y112.378
G1X106.898Y112.091
G1X107.1Y111.912
G1X107.298Y111.741
G1X107.49Y111.578
G1X108.2Y110.985
G1X108.359Y110.847
G1X108.511Y110.711
G1X108.653Y110.578
G1X108.786Y110.445
G1X108.909Y110.312
G1X109.022Y110.178
G1X109.124Y110.042
G1X109.211Y109.907
G0X111.345Y106.721
; Layer C27
G1X111.657
G1X111.969Y106.324
G1X112.254Y105.968
G1X112.565Y105.572
G1X112.726Y105.363
G1X112.887Y105.148
G1X113.046Y104.927
G1X113.202Y104.703
G1X113.352Y104.477
G1X113.494Y104.249
G1X113.625Y104.02
G1X113.745Y103.793
G1X113.8Y103.68
G1X113.851Y103.567
G1X113.898Y103.456
G1X113.94Y103.345
G1X113.978Y103.235
G1X114.011Y103.127
G1X114.039Y103.02
G1X114.062Y102.915
G1X114.079Y102.811
G1X114.09Y102.709
G1Y102.609
G1Y102.511
G1Y102.416
G1X114.071Y102.323
G1X114.049Y102.232
G1X114.019Y102.144
G1X113.982Y102.059
G1X113.936Y101.977
G1X113.883Y101.898
G1X113.821Y101.823
G1X113.75Y101.751
G1X113.67Y101.682
G1X113.581Y101.617
G1X113.483Y101.556
G1X113.374Y101.499
G1X113.256Y101.446
G1X113.127Y101.398
G1X112.988Y101.354
G1X112.838Y101.314
G1X112.677Y101.279
G1X112.504Y101.25
G1X112.32Y101.225
G1X112.066Y101.405
G1X111.825Y101.592
G1X111.595Y101.787
G1X111.376Y101.988
G1X111.167Y102.195
G1X110.969Y102.405
G1X110.78Y102.619
G1X110.599Y102.835
G1X110.427Y103.053
G1X110.262Y103.271
G1X110.105Y103.488
G1X109.954Y103.704
G1X109.809Y103.918
G1X109.501Y104.385
G1X109.491Y104.406
G1X109.508Y104.473
G1X109.544Y104.573
G1X109.589Y104.664
G1X109.644Y104.748
G1X109.706Y104.825
G1X109.775Y104.897
G1X109.85Y104.964
G1X109.93Y105.028
G1X110.014Y105.09
G1X110.371Y105.333
G1X110.461Y105.398
G1X110.549Y105.467
G1X110.592Y105.504
G1X110.622Y105.543
G1X110.863Y105.945
G1X111.152Y106.417
G1X111.345Y106.721
G1X111.657
G1X111.533
G0X105.352Y104.853
; Layer C27
G1X105.418Y104.757
G1X105.479Y104.661
G1X105.536Y104.564
G1X105.588Y104.467
G1X105.634Y104.37
G1X105.675Y104.273
G1X105.71Y104.175
G1X105.739Y104.077
G1X105.761Y103.978
G1X105.778Y103.879
G1Y103.78
G1X105.789Y103.681
G1Y103.582
G1X105.771Y103.482
G1X105.751Y103.381
G1X105.722Y103.281
G1X105.685Y103.18
G1X105.64Y103.079
G1X105.585Y102.978
G1X105.522Y102.876
G1X105.449Y102.775
G1X105.366Y102.672
G1X105.274Y102.57
G1X105.171Y102.468
G1X105.058Y102.365
G1X104.935Y102.262
G1X104.8Y102.158
G1X104.655Y102.055
G1X104.498Y101.951
G1X104.179
G1X103.815Y101.924
G1X103.087Y101.871
G1X102.872Y101.991
G1X102.667Y102.11
G1X102.297Y102.334
G1X102.23Y102.415
G1X101.893Y102.818
G1X101.618Y103.134
G1X101.338Y103.445
G1X101.054Y103.748
G1X100.766Y104.045
G1X100.474Y104.333
G1X100.178Y104.612
G1X99.88Y104.882
G1X99.579Y105.141
G1X99.275Y105.389
G1X98.969Y105.625
G1X98.661Y105.848
G1X98.352Y106.058
G1X98.041Y106.254
G1X97.886Y106.346
G1X97.73Y106.434
G1X97.711Y106.525
G1X97.678Y106.702
G1X97.665Y106.811
G1Y106.874
G1X98.518Y107.475
G1X98.885Y107.737
G1X99.219Y107.983
G1X99.565Y108.245
G1X99.966Y108.557
G1X101.115Y109.464
G1X101.146Y109.447
G1X101.178Y109.425
G1X101.212Y109.399
G1X101.246Y109.369
G1X101.318Y109.298
G1X101.392Y109.213
G1X101.47Y109.116
G1X101.549Y109.009
G1X101.63Y108.893
G1X101.712Y108.771
G1X101.794Y108.643
G1X101.876Y108.513
G1X102.036Y108.248
G1X102.295Y107.81
G1X102.368Y107.727
G1X102.445Y107.643
G1X102.609Y107.475
G1X102.785Y107.305
G1X102.972Y107.133
G1X103.167Y106.959
G1X103.99Y106.249
G1X104.196Y106.068
G1X104.399Y105.885
G1X104.595Y105.7
G1X104.784Y105.514
G1X104.962Y105.327
G1X105.129Y105.138
G1X105.207Y105.043
G1X105.281Y104.948
G1X105.352Y104.853
G1X105.418Y104.757
G1X105.479Y104.661
G1X105.434Y104.724
G0X107.942Y102.621
; Layer C27
G1X108.024Y102.642
G1X108.349Y102.72
G1X108.809Y102.181
G1X109.046Y101.892
G1X109.28Y101.591
G1X109.392Y101.437
G1X109.501Y101.279
G1X109.605Y101.12
G1X109.704Y100.958
G1X109.796Y100.794
G1X109.88Y100.628
G1X109.956Y100.459
G1X110.024Y100.289
G1X110.081Y100.117
G1X110.127Y99.943
G1X110.161Y99.767
G1X110.182Y99.59
G1Y99.411
G1Y99.231
G1Y99.141
G1X110.161Y99.05
G1X110.144Y98.959
G1X110.122Y98.868
G1X110.097Y98.777
G1X110.067Y98.685
G1X110.032Y98.593
G1X109.993Y98.501
G1X109.948Y98.409
G1X109.899Y98.316
G1X109.846Y98.224
G1X109.786Y98.131
G1X109.722Y98.038
G1X109.653Y97.945
G1X109.578Y97.852
G1X109.497Y97.758
G1X109.411Y97.665
G1X109.379Y97.634
G1X107.845Y97.521
G1X107.301Y98.011
G1X107.117Y98.181
G1X106.935Y98.353
G1X106.758Y98.526
G1X106.588Y98.702
G1X106.428Y98.878
G1X106.279Y99.056
G1X106.145Y99.233
G1X106.085Y99.322
G1X106.028Y99.411
G1X105.977Y99.5
G1X105.93Y99.588
G1X105.889Y99.677
G1X105.854Y99.765
G1X105.825Y99.853
G1X105.802Y99.941
G1X105.786Y100.028
G1Y100.115
G1X105.774Y100.169
G1X106.105Y100.417
G1X106.29Y100.559
G1X106.466Y100.7
G1X106.633Y100.84
G1X106.791Y100.981
G1X106.941Y101.123
G1X107.083Y101.269
G1X107.217Y101.42
G1X107.344Y101.575
G1X107.464Y101.738
G1X107.577Y101.908
G1X107.684Y102.088
G1X107.785Y102.278
G1X107.881Y102.479
G1X107.942Y102.621
G1X108.024Y102.642
G1X108.346Y102.719
G0X103.902Y99.206
; Layer C27
G1X103.962Y99.12
G1X104.341Y98.59
G1X104.513Y98.34
G1X104.685Y98.073
G1X104.85Y97.793
G1X104.928Y97.648
G1X105.001Y97.502
G1X105.068Y97.354
G1X105.13Y97.204
G1X105.184Y97.054
G1X105.229Y96.903
G1X105.266Y96.752
G1X105.292Y96.601
G1X105.308Y96.451
G1Y96.303
G1Y96.155
G1X105.278Y96.01
G1X105.261Y95.939
G1X105.241Y95.868
G1X105.216Y95.797
G1X105.187Y95.728
G1X105.154Y95.659
G1X105.117Y95.591
G1X105.075Y95.524
G1X105.029Y95.458
G1X104.979Y95.393
G1X104.923Y95.329
G1X104.863Y95.266
G1X104.798Y95.204
G1X104.728Y95.144
G1X104.7Y95.123
G1X104.516Y95.069
G1X104.193Y94.978
G1X104.026Y94.936
G1X103.875Y94.905
G1X103.718Y94.881
G1X103.536Y94.859
G1X103.169Y94.823
G1X102.961Y94.949
G1X102.758Y95.086
G1X102.56Y95.23
G1X102.368Y95.379
G1X102.18Y95.533
G1X101.999Y95.687
G1X101.823Y95.841
G1X101.331Y96.277
G1X101.18Y96.406
G1X101.035Y96.524
G1X100.898Y96.629
G1X100.831Y96.675
G1X100.767Y96.717
G1X100.704Y96.755
G1X100.614Y96.802
G1Y96.813
G1Y96.903
G1Y96.976
G1X100.645Y97.052
G1X100.673Y97.128
G1X100.707Y97.206
G1X100.747Y97.285
G1X100.793Y97.365
G1X100.843Y97.446
G1X100.898Y97.528
G1X101.02Y97.693
G1X101.153Y97.861
G1X101.296Y98.03
G1X101.737Y98.537
G1X101.876Y98.703
G1X102.005Y98.866
G1X102.064Y98.947
G1X102.119Y99.026
G1X102.171Y99.104
G1X102.217Y99.181
G1X102.267Y99.275
G1X102.278
G1X103.902Y99.206
G1X103.962Y99.12
G1X104.132Y98.884
G0X99.8Y99.956
; Layer C27
G1X99.714Y99.787
G1X99.621Y99.629
G1X99.523Y99.48
G1X99.419Y99.341
G1X99.309Y99.211
G1X99.193Y99.09
G1X99.071Y98.977
G1X98.944Y98.872
G1X98.811Y98.775
G1X98.673Y98.684
G1X98.53Y98.601
G1X98.382Y98.523
G1X98.228Y98.452
G1X98.07Y98.386
G1X97.907Y98.326
G1X97.739Y98.27
G1X97.566Y98.218
G1X97.389Y98.17
G1X97.208Y98.126
G1X97.022Y98.085
G1X96.832Y98.047
G1X96.638Y98.011
G1X96.439Y97.977
G1X96.237Y97.945
G1X95.822Y97.883
G1X95.524Y97.958
G1X95.238Y98.04
G1X94.965Y98.129
G1X94.704Y98.227
G1X94.454Y98.331
G1X94.215Y98.442
G1X93.986Y98.561
G1X93.766Y98.686
G1X93.556Y98.817
G1X93.355Y98.955
G1X93.162Y99.099
G1X92.976Y99.249
G1X92.798Y99.405
G1X92.626Y99.567
G1X92.46Y99.734
G1X92.3Y99.906
G1X92.145Y100.083
G1X91.995Y100.265
G1X91.849Y100.452
G1X91.706Y100.643
G1X91.567Y100.839
G1X91.43Y101.039
G1X91.295Y101.242
G1X91.161Y101.45
G1X90.896Y101.875
G1X90.632Y102.314
G1X90.271Y102.919
G1Y103.008
G1Y103.129
G1Y103.185
G1X90.29Y103.228
G1X90.31Y103.265
G1X90.338Y103.301
G1X90.391Y103.357
G1X91.681Y103.825
G1X92.236Y104.03
G1X92.698Y104.207
G1X92.913Y104.293
G1X93.126Y104.381
G1X93.58Y104.574
G1X94.117Y104.809
G1X94.796Y105.11
G1X94.872
G1X94.952
G1X95.034Y105.097
G1X95.119Y105.086
G1X95.297Y105.054
G1X95.484Y105.01
G1X95.678Y104.954
G1X95.88Y104.887
G1X96.087Y104.808
G1X96.299Y104.719
G1X96.516Y104.62
G1X96.735Y104.51
G1X96.955Y104.392
G1X97.177Y104.265
G1X97.398Y104.13
G1X97.617Y103.987
G1X97.834Y103.837
G1X98.048Y103.68
G1X98.257Y103.516
G1X98.461Y103.347
G1X98.658Y103.172
G1X98.847Y102.992
G1X99.028Y102.808
G1X99.199Y102.62
G1X99.359Y102.428
G1X99.507Y102.234
G1X99.643Y102.036
G1X99.764Y101.837
G1X99.82Y101.736
G1X99.871Y101.636
G1X99.918Y101.535
G1X99.962Y101.434
G1X100.001Y101.332
G1X100.035Y101.231
G1X100.065Y101.129
G1X100.091Y101.028
G1X100.116Y100.901
G1Y100.883
G1X100.08Y100.743
G1X100.02Y100.529
G1X99.953Y100.326
G1X99.88Y100.136
G1X99.8Y99.956
G1X99.714Y99.787
G1X99.651Y99.684
G0X98.817Y95.999
; Layer C27
G1X98.831
G1X98.88Y95.946
G1X99.391Y95.465
G1X99.691Y95.165
G1X99.832Y95.008
G1X99.964Y94.844
G1X100.027Y94.759
G1X100.086Y94.672
G1X100.143Y94.582
G1X100.197Y94.489
G1X100.247Y94.393
G1X100.294Y94.294
G1X100.337Y94.191
G1X100.376Y94.084
G1X100.41Y93.974
G1X100.441Y93.859
G1X100.467Y93.74
G1X100.488Y93.616
G1X100.504Y93.488
G1X100.515Y93.354
G1Y93.215
G1Y93.185
G1X100.441Y93.124
G1X100.381Y93.082
G1X100.255Y93.008
G1X100.12Y92.945
G1X99.979Y92.892
G1X99.833Y92.848
G1X99.684Y92.812
G1X99.532Y92.783
G1X99.379Y92.76
G1X99.226Y92.742
G1X99.075Y92.728
G1X98.927Y92.718
G1X98.393Y92.69
G1X98.111Y92.855
G1X97.815Y93.032
G1X97.511Y93.222
G1X97.202Y93.422
G1X96.893Y93.632
G1X96.587Y93.851
G1X96.289Y94.077
G1X96.003Y94.311
G1X95.866Y94.43
G1X95.734Y94.55
G1X95.606Y94.672
G1X95.485Y94.795
G1X95.369Y94.918
G1X95.26Y95.043
G1X95.158Y95.168
G1X95.065Y95.294
G1X94.979Y95.421
G1X94.902Y95.548
G1X94.835Y95.675
G1X94.777Y95.802
G1X94.729Y95.93
G1X94.693Y96.057
G1X94.682Y96.104
G1X94.898Y96.055
G1X95.163Y96.003
G1X95.423Y95.963
G1X95.679Y95.935
G1X95.934Y95.918
G1X96.188
G1X96.443Y95.907
G1X96.701
G1X96.962Y95.921
G1X98.076Y95.977
G1X98.379Y95.989
G1X98.817
G1X98.831
G1X98.88Y95.946
G1X99.111Y95.725
G0X93.512Y94.657
; Layer C27
G1X93.762Y94.271
G1X94.56Y93.319
G1X94.801Y93.026
G1X94.961Y92.82
G1X95.04Y92.71
G1X95.092Y92.625
G1X95.116Y92.578
G1X95.133Y92.535
G1X95.147Y92.492
G1X95.163Y92.435
G1X94.85
G1X94.706Y92.5
G1X94.557Y92.577
G1X94.405Y92.66
G1X94.249Y92.748
G1X94.091Y92.841
G1X93.931Y92.938
G1X93.769Y93.04
G1X93.606Y93.145
G1X93.28Y93.365
G1X92.958Y93.596
G1X92.642Y93.836
G1X92.34Y94.083
G1X92.194Y94.208
G1X92.053Y94.333
G1X91.918Y94.459
G1X91.788Y94.585
G1X91.665Y94.71
G1X91.549Y94.835
G1X91.44Y94.959
G1X91.34Y95.081
G1X91.248Y95.202
G1X91.165Y95.321
G1X91.092Y95.438
G1X91.03Y95.553
G1X90.979Y95.664
G1X90.939Y95.773
G1X90.92Y95.839
G1X91.254Y95.778
G1X91.452Y95.745
G1X91.633Y95.722
G1X91.821Y95.709
G1X92.043
G1X92.324
G1X92.825
G1X92.836
G1X93.145Y95.218
G1X93.512Y94.657
G1X93.762Y94.271
G1X93.537Y94.625
G0X91.114Y97.734
; Layer C27
G1X90.803
G1X90.536Y97.862
G1X90.278Y97.993
G1X90.029Y98.123
G1X89.789Y98.254
G1X89.557Y98.385
G1X89.333Y98.516
G1X89.117Y98.649
G1X88.909Y98.783
G1X88.708Y98.919
G1X88.514Y99.056
G1X88.327Y99.196
G1X88.146Y99.339
G1X87.972Y99.485
G1X87.804Y99.635
G1X87.642Y99.788
G1X87.485Y99.945
G1X87.334Y100.107
G1X87.187Y100.274
G1X87.046Y100.446
G1X86.908Y100.624
G1X86.775Y100.807
G1X86.647Y100.997
G1X86.521Y101.193
G1X86.4Y101.397
G1X86.281Y101.607
G1X86.166Y101.826
G1X86.053Y102.052
G1X85.942Y102.287
G1X85.834Y102.53
G1X85.728Y102.783
G1X85.659Y102.956
G1X85.835Y102.97
G1X85.903
G1X85.979
G1X86.119
G1X86.463Y102.932
G1X86.88Y102.885
G1X87.467Y102.814
G1X88.574Y102.677
G1X88.653Y102.421
G1X88.701Y102.269
G1X88.804Y101.966
G1X88.918Y101.666
G1X89.043Y101.367
G1X89.178Y101.069
G1X89.323Y100.772
G1X89.478Y100.477
G1X89.643Y100.181
G1X89.817Y99.887
G1X90.001Y99.592
G1X90.193Y99.297
G1X90.394Y99.002
G1X90.604Y98.706
G1X90.823Y98.409
G1X91.049Y98.11
G1Y98.086
G1Y98.012
G1X91.064Y97.963
G1X91.083Y97.865
G1X91.114Y97.742
G1X90.803Y97.73
G1X90.931Y97.774
G0X81.31Y104.416
; Layer C27
G1X80.978Y104.276
G1X80.615Y104.115
G1X80.374Y103.996
G1X80.136Y104.06
G1X79.907Y104.116
G1X79.493Y104.206
G1Y104.457
G1X79.971Y104.676
G1X80.582Y104.942
G1Y105.044
G1Y105.099
G1X80.608Y105.204
G1X80.64Y105.352
G1X81.305Y104.888
G1Y104.416
G1X80.978Y104.276
G1X81.182Y104.36
G0X77.618Y105.442
; Layer C27
G1X77.336
G1X77.123
G1X76.921Y105.457
G1X76.729Y105.47
G1X76.546Y105.488
G1X76.373Y105.51
G1X76.209Y105.537
G1X76.052Y105.568
G1X75.904Y105.604
G1X75.762Y105.644
G1X75.627Y105.689
G1X75.497Y105.738
G1X75.374Y105.792
G1X75.255Y105.851
G1X75.14Y105.914
G1X75.029Y105.982
G1X74.922Y106.054
G1X74.817Y106.132
G1X74.715Y106.214
G1X74.614Y106.301
G1X74.514Y106.392
G1X74.415Y106.489
G1X74.316Y106.591
G1X74.216Y106.697
G1X74.116Y106.808
G1X73.909Y107.046
G1X73.399Y107.655
G1X73.304Y107.679
G1X73.238
G1X73.145
G1X73.164Y107.602
G1X73.178Y107.55
G1X73.214Y107.445
G1X73.258Y107.337
G1X73.309Y107.226
G1X73.367Y107.114
G1X73.431Y106.999
G1X73.501Y106.883
G1X73.655Y106.647
G1X73.823Y106.405
G1X74Y106.16
G1X74.227Y105.852
G1X74.245Y105.808
G1X74.29Y105.66
G1X74.315Y105.56
G1X74.356Y105.356
G1X74.384Y105.149
G1X74.4Y104.937
G1Y104.722
G1Y104.504
G1X74.377Y104.282
G1X74.347Y104.058
G1X74.307Y103.831
G1X74.258Y103.601
G1X74.199Y103.37
G1X74.132Y103.136
G1X74.056Y102.901
G1X73.972Y102.665
G1X73.857Y102.368
G1X73.832Y102.315
G1X73.773Y102.334
G1X73.715Y102.358
G1X73.658Y102.386
G1X73.545Y102.453
G1X73.436Y102.534
G1X73.331Y102.624
G1X73.23Y102.723
G1X73.133Y102.828
G1X73.041Y102.937
G1X72.955Y103.047
G1X72.873Y103.157
G1X72.798Y103.263
G1X72.608Y103.539
G1X72.515Y103.666
G1X72.414Y103.72
G1X71.993Y103.905
G1X71.695Y104.044
G1X71.651Y104.03
G1X71.404Y103.861
G1X71.305Y103.577
G1X71.246Y103.42
G1X71.182Y103.263
G1X71.113Y103.105
G1X71.04Y102.948
G1X70.963Y102.792
G1X70.882Y102.636
G1X70.796Y102.481
G1X70.706Y102.328
G1X70.612Y102.176
G1X70.515Y102.026
G1X70.413Y101.879
G1X70.308Y101.734
G1X70.199Y101.592
G1X70.087Y101.452
G1X69.971Y101.317
G1X69.851Y101.185
G1X69.729Y101.057
G1X69.603Y100.933
G1X69.474Y100.813
G1X69.342Y100.699
G1X69.206Y100.59
G1X69.068Y100.486
G1X68.928Y100.387
G1X68.784Y100.295
G1X68.638Y100.209
G1X68.489Y100.13
G1X68.338Y100.057
G1X68.184Y99.992
G1X68.028Y99.933
G1X67.87Y99.883
G1X67.859Y99.979
G1Y100.1
G1X67.842Y100.328
G1X67.826Y101.319
G1X67.813Y101.895
G1X67.803Y102.211
G1X67.782Y102.718
G1X67.751Y103.262
G1X67.725Y103.645
G1X67.695Y104.004
G1X67.554
G1X67.465Y103.993
G1X67.404Y103.983
G1X67.352Y103.969
G1X67.203Y103.399
G1X67.14Y103.166
G1X67.077Y102.949
G1X67.011Y102.747
G1X66.94Y102.559
G1X66.902Y102.47
G1X66.861Y102.384
G1X66.818Y102.301
G1X66.773Y102.221
G1X66.724Y102.143
G1X66.672Y102.069
G1X66.616Y101.997
G1X66.557Y101.927
G1X66.493Y101.86
G1X66.424Y101.795
G1X66.351Y101.733
G1X66.273Y101.672
G1X66.189Y101.613
G1X66.099Y101.556
G1X66.004Y101.5
G1X65.902Y101.446
G1X65.793Y101.394
G1X65.678Y101.343
G1X65.523Y101.28
G1X65.5
G1Y101.44
G1Y101.573
G1X65.511Y101.705
G1X65.526Y101.837
G1X65.567Y102.097
G1X65.619Y102.348
G1X65.725Y102.803
G1X65.768Y102.996
G1X65.791Y103.122
G1Y103.222
G1Y103.696
G1X65.777Y104.164
G1Y104.394
G1X65.758Y104.622
G1X65.742Y104.846
G1X65.722Y105.066
G1X65.697Y105.28
G1X65.665Y105.49
G1X65.627Y105.694
G1X65.58Y105.891
G1X65.525Y106.081
G1X65.461Y106.263
G1X65.426Y106.351
G1X65.388Y106.437
G1X65.347Y106.521
G1X65.254Y106.546
G1X64.967Y106.616
G1X64.786Y106.666
G1X64.613Y106.717
G1X64.448Y106.77
G1X64.29Y106.825
G1X64.139Y106.883
G1X63.994Y106.943
G1X63.856Y107.005
G1X63.724Y107.069
G1X63.597Y107.136
G1X63.476Y107.206
G1X63.36Y107.278
G1X63.248Y107.354
G1X63.141Y107.432
G1X63.038Y107.513
G1X62.938Y107.597
G1X62.842Y107.685
G1X62.748Y107.776
G1X62.658Y107.87
G1X62.569Y107.968
G1X62.483Y108.07
G1X62.399Y108.175
G1X62.316Y108.284
G1X62.233Y108.397
G1X62.152Y108.513
G1X62.071Y108.634
G1X61.99Y108.759
G1X61.827Y109.023
G1X61.702Y109.232
G1X61.659Y109.292
G1X61.569Y109.352
G1X61.476Y109.405
G1X61.381Y109.453
G1X61.285Y109.494
G1X61.187Y109.53
G1X61.088Y109.56
G1X60.988Y109.584
G1X60.887Y109.604
G1X60.786Y109.619
G1X60.683Y109.63
G1X60.581
G1X60.478
G1X60.375
G1X60.169
G1X59.966Y109.597
G1X59.765Y109.561
G1X59.57Y109.516
G1X59.38Y109.465
G1X59.197Y109.409
G1X59.024Y109.351
G1X58.86Y109.292
G1X58.663Y109.217
G1Y109.308
G1Y109.363
G1X58.7Y109.468
G1X58.741Y109.568
G1X58.796Y109.665
G1X58.863Y109.758
G1X58.942Y109.847
G1X59.032Y109.933
G1X59.131Y110.014
G1X59.24Y110.092
G1X59.358Y110.167
G1X59.482Y110.238
G1X59.614Y110.305
G1X59.751Y110.369
G1X59.893Y110.43
G1X60.039Y110.488
G1X60.188Y110.543
G1X60.34Y110.594
G1X60.647Y110.689
G1X60.954Y110.772
G1X61.252Y110.845
G1X61.537Y110.908
G1X61.8Y110.962
G1X62.279Y111.053
G1Y111.101
G1Y111.136
G1X62.301Y111.203
G1X62.321Y111.264
G1X62.339Y111.305
G1X62.281Y111.36
G1X62.162Y111.459
G1X62.068Y111.528
G1X61.975Y111.587
G1X61.882Y111.638
G1X61.789Y111.681
G1X61.697Y111.718
G1X61.605Y111.75
G1X61.513Y111.777
G1X61.329Y111.82
G1X61.05Y111.875
G1X60.861Y111.916
G1Y112.1
G1X60.917Y112.118
G1X60.982
G1X61.053Y112.134
G1X61.129
G1X61.299Y112.145
G1X61.487
G1X61.69
G1X62.569Y112.117
G1X62.787
G1X62.997
G1X63.194
G1X63.287Y112.132
G1X63.375
G1X63.459Y112.151
G1X63.537Y112.164
G1X63.609Y112.179
G1X63.675Y112.197
G1X63.734Y112.218
G1X63.772Y112.235
G1Y112.643
G1X63.642Y112.714
G1X63.405Y112.842
G1X63.258Y112.917
G1X63.118Y112.984
G1X62.986Y113.044
G1X62.859Y113.098
G1X62.738Y113.146
G1X62.621Y113.189
G1X62.508Y113.227
G1X62.289Y113.292
G1X62.074Y113.345
G1X61.965Y113.369
G1X61.782Y113.407
G1X61.713Y113.535
G1X61.59Y113.758
G1X61.506Y113.901
G1X61.421Y114.039
G1X61.335Y114.172
G1X61.248Y114.3
G1X61.159Y114.423
G1X61.07Y114.542
G1X60.98Y114.656
G1X60.889Y114.764
G1X60.797Y114.868
G1X60.704Y114.967
G1X60.611Y115.061
G1X60.517Y115.15
G1X60.422Y115.235
G1X60.326Y115.314
G1X60.23Y115.389
G1X60.134Y115.459
G1X60.037Y115.523
G1X59.94Y115.583
G1X59.842Y115.638
G1X59.744Y115.688
G1X59.646Y115.733
G1X59.547Y115.773
G1X59.449Y115.809
G1X59.35Y115.839
G1X59.251Y115.864
G1X59.152Y115.885
G1X59.054Y115.9
G1X58.955Y115.911
G1X58.856
G1X58.758
G1X58.66
G1X58.562
G1X58.464Y115.889
G1X58.367Y115.869
G1X58.27Y115.845
G1X58.174Y115.816
G1X58.078Y115.781
G1X57.983Y115.742
G1X57.888Y115.698
G1X57.794Y115.648
G1X57.701Y115.594
G1X57.608Y115.535
G1X57.517Y115.47
G1X57.426Y115.401
G1X57.336Y115.327
G1X57.247Y115.247
G1X57.159Y115.163
G1X57.072Y115.073
G1X56.986Y114.978
G1X56.901Y114.879
G1X56.817Y114.774
G1X56.735Y114.664
G1X56.654Y114.549
G1X56.574Y114.429
G1X56.496Y114.304
G1X56.419Y114.174
G1X56.344Y114.039
G1X56.27Y113.899
G1X56.197Y113.754
G1X56.127Y113.603
G1X56.041Y113.408
G1Y113.392
G1X55.938Y112.179
G1X55.896Y111.71
G1X55.863Y111.384
G1X55.841Y111.216
G1X55.819Y111.1
G1X55.805Y111.045
G1X55.789Y111.003
G1X55.772Y110.972
G1X55.754Y110.946
G1X55.733Y110.923
G1X55.719Y110.911
G1X55.685
G1X55.52Y110.857
G1X55.391Y110.815
G1X55.266Y110.767
G1X55.145Y110.717
G1X55.026Y110.664
G1X54.798Y110.554
G1X54.58Y110.447
G1X54.371Y110.348
G1X54.27Y110.304
G1X54.171Y110.265
G1X54.074Y110.232
G1X53.978Y110.207
G1X53.943
G1Y110.616
G1X53.958Y110.851
G1X53.972Y111.068
G1X53.982Y111.171
G1X53.994Y111.27
G1X54.008Y111.365
G1X54.025Y111.457
G1X54.044Y111.545
G1X54.067Y111.63
G1X54.092Y111.712
G1X54.121Y111.791
G1X54.154Y111.867
G1X54.19Y111.94
G1X54.23Y112.01
G1X54.275Y112.078
G1X54.324Y112.143
G1X54.378Y112.206
G1X54.437Y112.267
G1X54.501Y112.326
G1X54.57Y112.383
G1X54.645Y112.438
G1X54.726Y112.491
G1X54.813Y112.543
G1X54.906Y112.593
G1X55.005Y112.643
G1X55.112Y112.691
G1X55.284Y112.761
G1Y113.044
G1X55.177Y113.194
G1X55.094Y113.311
G1X55.017Y113.426
G1X54.946Y113.541
G1X54.881Y113.654
G1X54.822Y113.767
G1X54.768Y113.878
G1X54.721Y113.988
G1X54.679Y114.097
G1X54.643Y114.204
G1X54.612Y114.311
G1X54.586Y114.417
G1X54.566Y114.521
G1X54.55Y114.625
G1X54.54Y114.727
G1Y114.828
G1Y114.929
G1Y115.028
G1Y115.127
G1X54.557Y115.224
G1X54.574Y115.32
G1X54.595Y115.416
