; LightBurn 1.0.06
; GRBL device profile, absolute coords
; Bounds: X60.99 Y45.3 to X159.19 Y174.7
G00 G17 G40 G21 G54
G90
M4
; Image @ 3000 mm/min, 75% power
M8
G0X133.393Y45.299
; Layer C00
G91
G1X2.8F3000S750
G1X0.8Y0.1S0
G1X-4.4S750
G1X-0.6Y0.1S0
G1X5.7S750
G1X0.5Y0.1S0
G1X-6.8S750
G1X-0.3Y0.1S0
G1X7.6S750
G1X0.3Y0.1S0
G1X-8.3S750
G1X-0.4Y0.1S0
G1X9.1S750
G1X0.3Y0.1S0
G1X-9.6S750
G1X-0.4Y0.1S0
G1X10.3S750
G1X0.4Y0.1S0
G1X-4.3S750
G1X-0.1S0
G1X-0.1S750
G1X-2.3S0
G1X-4.1S750
G1X-0.2Y0.1S0
G1X3.4S750
G1X4.2S0
G1X3.6S750
G1X0.4Y0.1S0
G1X-3.3S750
G1X-5.5S0
G1X-3.1S750
G1X-0.2Y0.1S0
G1X2.8S750
G1X6.5S0
G1X2.9S750
G1X0.4Y0.1S0
G1X-2.9S750
G1X-7.3S0
G1X-2.6S750
G1X-0.2Y0.1S0
G1X2.4S750
G1X8.2S0
G1X2.5S750
G1X0.2Y0.1S0
G1X-2.4S750
G1X-8.8S0
G1X-2.2S750
G1X-0.2Y0.1S0
G1X2.1S750
G1X9.4S0
G1X2.3S750
G1X0.3Y0.1S0
G1X-2.3S750
G1X-9.9S0
G1X-2.1S750
G1X-0.1Y0.1S0
G1X1.9S750
G1X10.5S0
G1X2S750
G1X0.2Y0.1S0
G1X-2S750
G1X-10.9S0
G1X-1.9S750
G1X-0.2Y0.1S0
G1X1.9S750
G1X11.4S0
G1X2S750
G1Y0.1S0
G1X-1.8S750
G1X-11.8S0
G1X-1.8S750
G1X-0.2Y0.1S0
G1X1.8S750
G1X12.2S0
G1X1.8S750
G1X0.1Y0.1S0
G1X-1.7S750
G1X-12.6S0
G1X-1.7S750
G1X-0.2Y0.1S0
G1X1.7S750
G1X13S0
G1X1.7S750
G1X0.2Y0.1S0
G1X-1.7S750
G1X-13.3S0
G1X-1.7S750
G1X-0.2Y0.1S0
G1X1.7S750
G1X13.7S0
G1X1.5S750
G1X0.1Y0.1S0
G1X-1.5S750
G1X-13.9S0
G1X-1.7S750
G1X-0.2Y0.1S0
G1X1.7S750
G1X14.3S0
G1X1.5S750
G1Y0.1S0
G1X-1.3S750
G1X-14.7S0
G1X-1.6S750
G1X-0.2Y0.1S0
G1X1.7S750
G1X14.9S0
G1X1.4S750
G1X0.1Y0.1S0
G1X-1.4S750
G1X-15.2S0
G1X-1.6S750
G1X-0.1Y0.1S0
G1X1.6S750
G1X15.5S0
G1X1.4S750
G1Y0.1S0
G1X-1.3S750
G1X-15.8S0
G1X-1.6S750
G1X-0.1Y0.1S0
G1X1.6S750
G1X16S0
G1X1.4S750
G1Y0.1S0
G1X-1.3S750
G1X-16.3S0
G1X-1.6S750
G1X-0.1Y0.1S0
G1X1.6S750
G1X16.6S0
G1X1.1S750
G1X0.1Y0.1S0
G1X-1.1S750
G1X-16.8S0
G1X-1.6S750
G1X-0.2Y0.1S0
G1X1.6S750
G1X17.1S0
G1X1.2S750
G1Y0.1S0
G1X-1.1S750
G1X-17.3S0
G1X-1.6S750
G1X-0.1Y0.1S0
G1X1.6S750
G1X17.4S0
G1X1.3S750
G1Y0.1S0
G1X-1.1S750
G1X-17.8S0
G1X-1.6S750
G1X-0.1Y0.1S0
G1X1.6S750
G1X17.9S0
G1X1.1S750
G1X0.1Y0.1S0
G1X-1.1S750
G1X-18.1S0
G1X-1.6S750
G1X-0.2Y0.1S0
G1X1.5S750
G1X18.5S0
G1X1S750
G1X0.2Y0.1S0
G1X-1.1S750
G1X-18.7S0
G1X-1.5S750
G1X-0.1Y0.1S0
G1X1.4S750
G1X19S0
G1X1S750
G1Y0.1S0
G1X-1S750
G1X-19S0
G1X-1.5S750
G1X-0.1Y0.1S0
G1X1.4S750
G1X19.3S0
G1X1.1S750
G1Y0.1S0
G1X-1S750
G1X-19.5S0
G1X-1.5S750
G1X-0.1Y0.1S0
G1X1.4S750
G1X19.7S0
G1X1S750
G1Y0.1S0
G1X-0.9S750
G1X-19.8S0
G1X-1.5S750
G1X-0.1Y0.1S0
G1X1.3S750
G1X20.2S0
G1X0.9S750
G1Y0.1S0
G1X-0.9S750
G1X-20.2S0
G1X-1.5S750
G1X-0.1Y0.1S0
G1X1.4S750
G1X20.5S0
G1X1S750
G1Y0.1S0
G1X-1S750
G1X-20.7S0
G1X-1.3S750
G1X-0.1Y0.1S0
G1X1.3S750
G1X20.8S0
G1X1S750
G1Y0.1S0
G1X-0.9S750
G1X-20.9S0
G1X-1.4S750
G1X-0.2Y0.1S0
G1X1.4S750
G1X21.2S0
G1X0.8S750
G1Y0.1S0
G1X-0.8S750
G1X-21.2S0
G1X-1.5S750
G1X-0.1Y0.1S0
G1X1.4S750
G1X21.4S0
G1X1S750
G1Y0.1S0
G1X-1S750
G1X-21.5S0
G1X-1.4S750
G1X-0.1Y0.1S0
G1X1.3S750
G1X21.8S0
G1X0.9S750
G1Y0.1S0
G1X-0.9S750
G1X-21.8S0
G1X-1.4S750
G1X-0.1Y0.1S0
G1X1.4S750
G1X21.9S0
G1X0.9S750
G1Y0.1S0
G1X-0.8S750
G1X-22.1S0
G1X-1.4S750
G1X-0.2Y0.1S0
G1X1.3S750
G1X22.4S0
G1X0.8S750
G1Y0.1S0
G1X-0.8S750
G1X-22.4S0
G1X-1.4S750
G1X-0.1Y0.1S0
G1X1.4S750
G1X22.6S0
G1X0.8S750
G1Y0.1S0
G1X-0.8S750
G1X-22.7S0
G1X-1.4S750
G1X-0.1Y0.1S0
G1X1.4S750
G1X22.8S0
G1X0.8S750
G1Y0.1S0
G1X-0.8S750
G1X-23S0
G1X-1.3S750
G1X-0.1Y0.1S0
G1X1.4S750
G1X23S0
G1X0.8S750
G1Y0.1S0
G1X-0.8S750
G1X-23.2S0
G1X-1.3S750
G1X-0.1Y0.1S0
G1X1.3S750
G1X23.3S0
G1X0.8S750
G1Y0.1S0
G1X-0.8S750
G1X-23.5S0
G1X-1.2S750
G1X-0.1Y0.1S0
G1X1.3S750
G1X23.5S0
G1X0.8S750
G1Y0.1S0
G1X-0.8S750
G1X-23.6S0
G1X-1.3S750
G1X-0.1Y0.1S0
G1X1.3S750
G1X23.7S0
G1X0.8S750
G1Y0.1S0
G1X-0.8S750
G1X-23.8S0
G1X-1.3S750
G1X-0.1Y0.1S0
G1X1.2S750
G1X24S0
G1X0.8S750
G1Y0.1S0
G1X-0.8S750
G1X-24S0
G1X-1.3S750
G1X-0.1Y0.1S0
G1X1.3S750
G1X24.1S0
G1X0.8S750
G1Y0.1S0
G1X-0.8S750
G1X-24.2S0
G1X-1.4S750
G1Y0.1S0
G1X1.3S750
G1X24.3S0
G1X0.8S750
G1Y0.1S0
G1X-0.8S750
G1X-24.5S0
G1X-1.3S750
G1X-0.1Y0.1S0
G1X1.4S750
G1X24.5S0
G1X0.8S750
G1Y0.1S0
G1X-0.8S750
G1X-24.6S0
G1X-1.3S750
G1X-0.1Y0.1S0
G1X1.3S750
G1X24.7S0
G1X0.8S750
G1Y0.1S0
G1X-0.8S750
G1X-24.8S0
G1X-1.3S750
G1X-0.1Y0.1S0
G1X1.2S750
G1X24.9S0
G1X0.9S750
G1X-0.1Y0.1S0
G1X-0.8S750
G1X-24.9S0
G1X-1.3S750
G1X-0.1Y0.1S0
G1X1.3S750
G1X25S0
G1X0.8S750
G1Y0.1S0
G1X-0.8S750
G1X-25.1S0
G1X-1.3S750
G1X-0.1Y0.1S0
G1X1.3S750
G1X25.2S0
G1X0.8S750
G1Y0.1S0
G1X-0.8S750
G1X-25.4S0
G1X-1.2S750
G1X-0.1Y0.1S0
G1X1.3S750
G1X25.3S0
G1X0.9S750
G1Y0.1S0
G1X-0.9S750
G1X-25.4S0
G1X-1.3S750
G1X-0.1Y0.1S0
G1X1.3S750
G1X25.5S0
G1X0.9S750
G1Y0.1S0
G1X-1S750
G1X-25.5S0
G1X-1.3S750
G1X-26.5S0
G1X-2.2S750
G1X-1.3Y0.1S0
G1X5S750
G1X24.9S0
G1X1.2S750
G1X25.7S0
G1X1S750
G1X-0.2Y0.1S0
G1X-0.8S750
G1X-25.7S0
G1X-1.3S750
G1X-24S0
G1X-6.5S750
G1X-0.6Y0.1S0
G1X7.6S750
G1X23.4S0
G1X1.3S750
G1X25.8S0
G1X0.8S750
G1Y0.1S0
G1X-0.9S750
G1X-25.8S0
G1X-1.3S750
G1X-23S0
G1X-8.4S750
G1X-0.4Y0.1S0
G1X9.2S750
G1X22.5S0
G1X1.3S750
G1X25.9S0
G1X0.9S750
G1Y0.1S0
G1X-0.9S750
G1X-26.1S0
G1X-1.1S750
G1X-22.2S0
G1X-9.9S750
G1X-0.3Y0.1S0
G1X10.5S750
G1X21.8S0
G1X1.2S750
G1X26S0
G1X1S750
G1Y0.1S0
G1X-1S750
G1X-26.1S0
G1X-1.2S750
G1X-21.5S0
G1X-11S750
G1X-0.2Y0.1S0
G1X5.1S750
G1X0.2S0
G1X0.1S750
G1X0.2S0
G1X0.1S750
G1X0.2S0
G1X0.1S750
G1X0.2S0
G1X5.3S750
G1X21.1S0
G1X1.2S750
G1X26.2S0
G1X0.8S750
G1Y0.1S0
G1X-0.9S750
G1X-26.1S0
G1X-1.3S750
G1X-21S0
G1X-3.3S750
G1X-0.1S0
G1X-0.1S750
G1X-4.4S0
G1X-3.9S750
G1X-0.2Y0.1S0
G1X3.2S750
G1X6.3S0
G1X2.8S750
G1X20.6S0
G1X1.1S750
G1X26.4S0
G1X0.9S750
G1X-0.1Y0.1S0
G1X-0.9S750
G1X-26.3S0
G1X-1.2S750
G1X-20.3S0
G1X-2.5S750
G1X-7.3S0
G1X-2.9S750
G1X-0.2Y0.1S0
G1X2.7S750
G1X8.1S0
G1X2.3S750
G1X20S0
G1X1.3S750
G1X26.3S0
G1X0.9S750
G1Y0.1S0
G1X-0.9S750
G1X-26.4S0
G1X-1.3S750
G1X-19.8S0
G1X-2.1S750
G1X-8.9S0
G1X-2.4S750
G1X-0.2Y0.1S0
G1X2.3S750
G1X9.5S0
G1X2S750
G1X19.6S0
G1X1.2S750
G1X26.4S0
G1X1S750
G1Y0.1S0
G1X-1S750
G1X-26.5S0
G1X-1.2S750
G1X-19.5S0
G1X-1.7S750
G1X-10.1S0
G1X-2.2S750
G1X-0.1Y0.1S0
G1X2S750
G1X10.6S0
G1X1.7S750
G1X19.2S0
G1X1.1S750
G1X26.6S0
G1X0.9S750
G1Y0.1S0
G1X-0.9S750
G1X-26.6S0
G1X-1.2S750
G1X-18.9S0
G1X-1.7S750
G1X-11S0
G1X-2S750
G1X-0.1Y0.1S0
G1X1.8S750
G1X11.5S0
G1X1.6S750
G1X18.7S0
G1X1.3S750
G1X26.5S0
G1X1S750
G1Y0.1S0
G1X-1S750
G1X-26.6S0
G1X-1.3S750
G1X-18.6S0
G1X-1.4S750
G1X-11.9S0
G1X-1.8S750
G1X-0.1Y0.1S0
G1X1.7S750
G1X12.2S0
G1X1.5S750
G1X18.3S0
G1X1.3S750
G1X26.6S0
G1X1.1S750
G1X-0.2Y0.1S0
G1X-0.9S750
G1X-26.7S0
G1X-1.3S750
G1X-18.1S0
G1X-1.4S750
G1X-12.6S0
G1X-1.6S750
G1X-0.2Y0.1S0
G1X1.7S750
G1X12.8S0
G1X1.4S750
G1X17.9S0
G1X1.3S750
G1X26.7S0
G1X1S750
G1X-0.1Y0.1S0
G1X-0.9S750
G1X-26.8S0
G1X-1.2S750
G1X-17.8S0
G1X-1.4S750
G1X-13.1S0
G1X-1.6S750
G1X-0.1Y0.1S0
G1X1.5S750
G1X13.5S0
G1X1.2S750
G1X17.7S0
G1X1.2S750
G1X26.8S0
G1X1S750
G1Y0.1S0
G1X-1S750
G1X-26.9S0
G1X-1.2S750
G1X-17.4S0
G1X-1.3S750
G1X-13.7S0
G1X-1.5S750
G1X-0.1Y0.1S0
G1X1.4S750
G1X14S0
G1X1.3S750
G1X17.2S0
G1X1.2S750
G1X26.9S0
G1X1.1S750
G1X-0.2Y0.1S0
G1X-1S750
G1X-26.9S0
G1X-1.2S750
G1X-17.1S0
G1X-1.2S750
G1X-14.2S0
G1X-1.4S750
G1X-0.1Y0.1S0
G1X1.4S750
G1X14.4S0
G1X1.2S750
G1X16.9S0
G1X1.3S750
G1X26.9S0
G1X1S750
G1Y0.1S0
G1X-1.1S750
G1X-26.9S0
G1X-1.2S750
G1X-16.8S0
G1X-1.2S750
G1X-14.7S0
G1X-1.3S750
G1X-0.1Y0.1S0
G1X1.3S750
G1X14.9S0
G1X1.1S750
G1X16.7S0
G1X1.2S750
G1X27S0
G1X0.9S750
G1Y0.1S0
G1X-1S750
G1X-27S0
G1X-1.2S750
G1X-16.6S0
G1X-1S750
G1X-15.1S0
G1X-1.3S750
G1X-0.1Y0.1S0
G1X1.3S750
G1X15.2S0
G1X1.2S750
G1X16.3S0
G1X1.2S750
G1X27S0
G1X1S750
G1Y0.1S0
G1X-1S750
G1X-27.1S0
G1X-1.2S750
G1X-16.1S0
G1X-1.2S750
G1X-15.4S0
G1X-1.2S750
G1X-0.1Y0.1S0
G1X1.2S750
G1X15.6S0
G1X1.1S750
G1X16S0
G1X1.2S750
G1X27.1S0
G1X1.1S750
G1X-0.2Y0.1S0
G1X-1S750
G1X-27S0
G1X-1.2S750
G1X-15.9S0
G1X-1.1S750
G1X-15.8S0
G1X-1.2S750
G1X-0.1Y0.1S0
G1X1.2S750
G1X16S0
G1X1.1S750
G1X15.7S0
G1X1.2S750
G1X27.1S0
G1X1S750
G1Y0.1S0
G1X-1.1S750
G1X-27.1S0
G1X-1.2S750
G1X-15.6S0
G1X-1.1S750
G1X-16.1S0
G1X-1.2S750
G1Y0.1S0
G1X1.1S750
G1X16.3S0
G1X1S750
G1X15.5S0
G1X1.2S750
G1X27.1S0
G1X1S750
G1Y0.1S0
G1X-1S750
G1X-27.2S0
G1X-1.2S750
G1X-15.4S0
G1X-0.9S750
G1X-16.4S0
G1X-1.2S750
G1X-0.1Y0.1S0
G1X1.2S750
G1X16.5S0
G1X1.1S750
G1X15.1S0
G1X1.2S750
G1X27.2S0
G1X1S750
G1Y0.1S0
G1X-1.1S750
G1X-27.1S0
G1X-1.2S750
G1X-15.1S0
G1X-1S750
G1X-16.7S0
G1X-1.1S750
G1X-0.1Y0.1S0
G1X1.1S750
G1X16.8S0
G1X1.1S750
G1X14.9S0
G1X1.2S750
G1X27.1S0
G1X1.2S750
G1X-0.2Y0.1S0
G1X-1S750
G1X-27.2S0
G1X-1.2S750
G1X-14.8S0
G1X-1S750
G1X-17S0
G1X-1S750
G1X-0.1Y0.1S0
G1X1.1S750
G1X17.1S0
G1X1S750
G1X14.6S0
G1X1.2S750
G1X27.2S0
G1X1.1S750
G1Y0.1S0
G1X-1.2S750
G1X-27.2S0
G1X-1.2S750
G1X-14.5S0
G1X-1S750
G1X-17.2S0
G1X-1.1S750
G1Y0.1S0
G1X1S750
G1X17.4S0
G1X1S750
G1X14.4S0
G1X1.1S750
G1X27.2S0
G1X1.1S750
G1X-0.1Y0.1S0
G1X-1S750
G1X-27.2S0
G1X-1.2S750
G1X-14.3S0
G1X-1S750
G1X-17.4S0
G1X-1.1S750
G1Y0.1S0
G1X1S750
G1X17.6S0
G1X0.9S750
G1X14.2S0
G1X1.2S750
G1X27.2S0
G1X1.1S750
G1Y0.1S0
G1X-1.2S750
G1X-27.2S0
G1X-1.2S750
G1X-14.1S0
G1X-0.9S750
G1X-17.6S0
G1X-1.1S750
G1Y0.1S0
G1X1S750
G1X17.8S0
G1X1S750
G1X13.8S0
G1X1.2S750
G1X27.2S0
G1X1.1S750
G1Y0.1S0
G1X-1.1S750
G1X-27.3S0
G1X-1.2S750
G1X-13.7S0
G1X-1S750
G1X-17.9S0
G1X-1S750
G1Y0.1S0
G1X1S750
G1X17.9S0
G1X1S750
G1X13.7S0
G1X1.2S750
G1X27.2S0
G1X1S750
G1Y0.1S0
G1X-1.1S750
G1X-27.2S0
G1X-1.2S750
G1X-13.5S0
G1X-1S750
G1X-18S0
G1X-1.1S750
G1Y0.1S0
G1X1S750
G1X18.1S0
G1X1S750
G1X13.4S0
G1X1.2S750
G1X27.2S0
G1X1.1S750
G1Y0.1S0
G1X-1.2S750
G1X-27.2S0
G1X-1.2S750
G1X-13.3S0
G1X-0.9S750
G1X-18.3S0
G1X-0.9S750
G1X-0.1Y0.1S0
G1X1S750
G1X18.3S0
G1X1S750
G1X13.1S0
G1X1.2S750
G1X27.2S0
G1X1.1S750
G1Y0.1S0
G1X-1.2S750
G1X-27.2S0
G1X-1.1S750
G1X-13.1S0
G1X-0.9S750
G1X-18.4S0
G1X-1S750
G1X-0.1Y0.1S0
G1X1S750
G1X18.5S0
G1X1S750
G1X12.9S0
G1X1.2S750
G1X27.2S0
G1X1.2S750
G1X-0.2Y0.1S0
G1X-1.1S750
G1X-27.2S0
G1X-4.6S750
G1X-9.4S0
G1X-1S750
G1X-18.5S0
G1X-1S750
G1Y0.1S0
G1X0.9S750
G1X18.6S0
G1X1S750
G1X6.8S0
G1X7.1S750
G1X27.2S0
G1X1.1S750
G1Y0.1S0
G1X-1.2S750
G1X-27.2S0
G1X-8.2S750
G1X-5.6S0
G1X-0.9S750
G1X-18.7S0
G1X-1S750
G1Y0.1S0
G1X1S750
G1X18.7S0
G1X0.9S750
G1X4.4S0
G1X9.4S750
G1X27.1S0
G1X1.1S750
G1Y0.1S0
G1X-1.2S750
G1X-27.1S0
G1X-10.1S750
G1X-3.6S0
G1X-0.8S750
G1X-18.9S0
G1X-0.9S750
G1X-0.1Y0.1S0
G1X1S750
G1X18.9S0
G1X1S750
G1X2.7S0
G1X10.7S750
G1X27.1S0
G1X1.1S750
G1Y0.1S0
G1X-1.2S750
G1X-27.1S0
G1X-11.4S750
G1X-1.9S0
G1X-1S750
G1X-18.9S0
G1X-1S750
G1Y0.1S0
G1X0.9S750
G1X19.1S0
G1X0.9S750
G1X1.3S0
G1X11.9S750
G1X27.1S0
G1X1.2S750
G1Y0.1S0
G1X-1.3S750
G1X-27.1S0
G1X-12.3S750
G1X-0.7S0
G1X-1S750
G1X-19.1S0
G1X-1S750
G1Y0.1S0
G1X1S750
G1X19.1S0
G1X1S750
G1X0.1S0
G1X8.4S750
G1X0.1S0
G1X0.2S750
G1X0.1S0
G1X0.2S750
G1X0.2S0
G1X0.1S750
G1X0.2S0
G1X0.1S750
G1X0.2S0
G1X0.1S750
G1X1.8S0
G1X1.2S750
G1X27S0
G1X1.2S750
G1Y0.1S0
G1X-1.3S750
G1X-27S0
G1X-1.2S750
G1X-4.8S0
G1X-0.1S750
G1X-0.1S0
G1X-7.6S750
G1X-19.3S0
G1X-0.9S750
G1Y0.1S0
G1X0.9S750
G1X19.3S0
G1X6.2S750
G1X0.1S0
G1X0.1S750
G1X6.1S0
G1X1.2S750
G1X27S0
G1X1.2S750
G1X-0.1Y0.1S0
G1X-1.2S750
G1X-27S0
G1X-1.1S750
G1X-7.4S0
G1X-5.4S750
G1X-19S0
G1X-0.9S750
G1X-0.1Y0.1S0
G1X1S750
G1X18.7S0
G1X4.9S750
G1X8.4S0
G1X0.9S750
G1X26.9S0
G1X1.3S750
G1X-0.2Y0.1S0
G1X-1.2S750
G1X-26.9S0
G1X-0.7S750
G1X-9.3S0
G1X-4.5S750
G1X-18.4S0
G1X-0.9S750
G1Y0.1S0
G1X0.9S750
G1X18S0
G1X4.3S750
G1X10S0
G1X0.5S750
G1X26.9S0
G1X1.3S750
G1X-0.2Y0.1S0
G1X-1.2S750
G1X-26.9S0
G1X-0.2S750
G1X-10.8S0
G1X-4S750
G1X-17.7S0
G1X-0.9S750
G1X-0.1Y0.1S0
G1X1S750
G1X17.4S0
G1X3.7S750
G1X38.4S0
G1X1.2S750
G1Y0.1S0
G1X-1.3S750
G1X-38.8S0
G1X-3.5S750
G1X-17.1S0
G1X-1S750
G1Y0.1S0
G1X0.9S750
G1X16.9S0
G1X3.4S750
G1X39.1S0
G1X1.2S750
G1Y0.1S0
G1X-1.3S750
G1X-39.5S0
G1X-3.2S750
G1X-16.6S0
G1X-0.9S750
G1Y0.1S0
G1X0.9S750
G1X16.3S0
G1X3.1S750
G1X39.8S0
G1X1.2S750
G1X-0.1Y0.1S0
G1X-1.3S750
G1X-40S0
G1X-2.9S750
G1X-16.1S0
G1X-1S750
G1Y0.1S0
G1X1S750
G1X15.8S0
G1X2.8S750
G1X40.4S0
G1X1.3S750
G1X-0.2Y0.1S0
G1X-1.3S750
G1X-40.5S0
G1X-2.7S750
G1X-15.7S0
G1X-0.9S750
G1Y0.1S0
G1X0.9S750
G1X15.4S0
G1X2.7S750
G1X40.7S0
G1X1.4S750
G1X-0.2Y0.1S0
G1X-1.3S750
G1X-41S0
G1X-2.5S750
G1X-15.2S0
G1X-0.9S750
G1Y0.1S0
G1X0.9S750
G1X15S0
G1X2.4S750
G1X41.2S0
G1X1.3S750
G1Y0.1S0
G1X-1.4S750
G1X-41.4S0
G1X-2.3S750
G1X-14.8S0
G1X-0.9S750
G1Y0.1S0
G1X0.9S750
G1X14.6S0
G1X2.3S750
G1X41.5S0
G1X1.3S750
G1X-0.2Y0.1S0
G1X-1.3S750
G1X-41.6S0
G1X-2.2S750
G1X-14.4S0
G1X-0.9S750
G1X-0.1Y0.1S0
G1X0.9S750
G1X14.3S0
G1X2.1S750
G1X41.8S0
G1X1.3S750
G1Y0.1S0
G1X-1.4S750
G1X-41.9S0
G1X-2.1S750
G1X-14.1S0
G1X-0.9S750
G1Y0.1S0
G1X1S750
G1X13.8S0
G1X2.1S750
G1X42S0
G1X1.3S750
G1Y0.1S0
G1X-1.4S750
G1X-42.2S0
G1X-2S750
G1X-13.7S0
G1X-0.9S750
G1Y0.1S0
G1X0.9S750
G1X13.5S0
G1X2S750
G1X42.3S0
G1X2.7S750
G1X1.6Y0.1S0
G1X-4.5S750
G1X-42.3S0
G1X-1.9S750
G1X-13.4S0
G1X-0.9S750
G1Y0.1S0
G1X0.9S750
G1X13.2S0
G1X1.9S750
G1X42.4S0
G1X5.8S750
G1X1Y0.1S0
G1X-6.9S750
G1X-42.5S0
G1X-1.9S750
G1X-13S0
G1X-0.9S750
G1Y0.1S0
G1X0.9S750
G1X12.9S0
G1X1.8S750
G1X42.6S0
G1X8S750
G1X0.8Y0.1S0
G1X-9S750
G1X-42.6S0
G1X-1.8S750
G1X-12.7S0
G1X-0.9S750
G1Y0.1S0
G1X0.9S750
G1X12.6S0
G1X1.8S750
G1X42.6S0
G1X9.8S750
G1X0.8Y0.1S0
G1X-10.7S750
G1X-42.8S0
G1X-1.7S750
G1X-12.4S0
G1X-0.9S750
G1Y0.1S0
G1X0.9S750
G1X12.3S0
G1X1.7S750
G1X42.7S0
G1X11.6S750
G1X0.7Y0.1S0
G1X-9.1S750
G1X-0.1S0
G1X-0.2S750
G1X-0.2S0
G1X-0.1S750
G1X-0.2S0
G1X-0.1S750
G1X-0.2S0
G1X-0.1S750
G1X-0.3S0
G1X-0.1S750
G1X-0.2S0
G1X-1.5S750
G1X-42.8S0
G1X-1.6S750
G1X-12.2S0
G1X-0.9S750
G1Y0.1S0
G1X0.9S750
G1X12S0
G1X1.6S750
G1X42.9S0
G1X1.5S750
G1X0.1S0
G1X0.1S750
G1X0.2S0
G1X0.1S750
G1X0.1S0
G1X0.1S750
G1X0.2S0
G1X0.1S750
G1X0.2S0
G1X0.1S750
G1X0.1S0
G1X0.1S750
G1X1.8S0
G1X0.1S750
G1X0.1S0
G1X0.2S750
G1X0.1S0
G1X7.8S750
G1X0.5Y0.1S0
G1X-7S750
G1X-0.1S0
G1X-0.1S750
G1X-0.1S0
G1X-0.1S750
G1X-1.4S0
G1X-0.1S750
G1X-0.1S0
G1X-0.1S750
G1X-0.1S0
G1X-0.2S750
G1X-0.1S0
G1X-0.1S750
G1X-0.1S0
G1X-0.1S750
G1X-0.1S0
G1X-0.1S750
G1X-0.1S0
G1X-0.2S750
G1X-0.1S0
G1X-0.2S750
G1X-0.1S0
G1X-0.1S750
G1X-0.1S0
G1X-0.1S750
G1X-0.1S0
G1X-0.1S750
G1X-0.1S0
G1X-0.1S750
G1X-0.1S0
G1X-0.2S750
G1X-0.1S0
G1X-0.2S750
G1X-0.2S0
G1X-1.5S750
G1X-42.9S0
G1X-1.6S750
G1X-11.9S0
G1X-0.9S750
G1Y0.1S0
G1X0.9S750
G1X11.8S0
G1X1.5S750
G1X42.9S0
G1X1.5S750
G1X0.2S0
G1X0.1S750
G1X0.2S0
G1X0.1S750
G1X0.4S0
G1X0.1S750
G1X0.2S0
G1X0.1S750
G1X0.2S0
G1X0.1S750
G1X0.2S0
G1X0.1S750
G1X0.1S0
G1X0.1S750
G1X0.1S0
G1X0.1S750
G1X0.1S0
G1X0.1S750
G1X0.1S0
G1X0.1S750
G1X0.1S0
G1X0.1S750
G1X0.2S0
G1X0.1S750
G1X0.1S0
G1X0.1S750
G1X0.1S0
G1X0.2S750
G1X0.1S0
G1X0.2S750
G1X0.1S0
G1X0.1S750
G1X0.2S0
G1X0.1S750
G1X0.1S0
G1X0.2S750
G1X0.2S0
G1X0.1S750
G1X0.8S0
G1X0.1S750
G1X0.2S0
G1X6.8S750
G1X0.5Y0.1S0
G1X-6S750
G1X-0.1S0
G1X-0.2S750
G1X-0.1S0
G1X-0.1S750
G1X-0.9S0
G1X-0.1S750
G1X-0.2S0
G1X-0.1S750
G1X-0.1S0
G1X-0.2S750
G1X-0.1S0
G1X-0.2S750
G1X-0.1S0
G1X-0.1S750
G1X-0.1S0
G1X-0.1S750
G1X-0.2S0
G1X-0.2S750
G1X-0.1S0
G1X-0.2S750
G1X-0.2S0
G1X-0.1S750
G1X-0.2S0
G1X-0.1S750
G1X-0.2S0
G1X-0.1S750
G1X-0.2S0
G1X-0.1S750
G1X-0.2S0
G1X-0.1S750
G1X-0.3S0
G1X-0.1S750
G1X-0.3S0
G1X-0.1S750
G1X-0.2S0
G1X-0.1S750
G1X-0.1S0
G1X-0.1S750
G1X-0.1S0
G1X-0.1S750
G1X-0.1S0
G1X-0.1S750
G1X-0.1S0
G1X-0.1S750
G1X-0.1S0
G1X-0.1S750
G1X-0.2S0
G1X-0.1S750
G1X-0.1S0
G1X-0.1S750
G1X-0.1S0
G1X-1.5S750
G1X-42.9S0
G1X-1.6S750
G1X-11.6S0
G1X-0.9S750
G1Y0.1S0
G1X0.9S750
G1X11.5S0
G1X1.5S750
G1X43S0
G1X1.5S750
G1X0.1S0
G1X0.1S750
G1X0.1S0
G1X0.1S750
G1X0.1S0
G1X0.2S750
G1X0.2S0
G1X0.2S750
G1X0.2S0
G1X0.1S750
G1X0.2S0
G1X0.1S750
G1X0.1S0
G1X0.2S750
G1X0.1S0
G1X0.1S750
G1X0.1S0
G1X0.1S750
G1X0.1S0
G1X0.1S750
G1X0.1S0
G1X0.1S750
G1X0.2S0
G1X0.1S750
G1X0.1S0
G1X0.2S750
G1X0.1S0
G1X0.1S750
G1X0.2S0
G1X0.1S750
G1X0.2S0
G1X0.1S750
G1X0.4S0
G1X0.1S750
G1X0.2S0
G1X0.1S750
G1X0.2S0
G1X0.1S750
G1X0.2S0
G1X0.1S750
G1X0.2S0
G1X0.1S750
G1X0.1S0
G1X0.2S750
G1X0.1S0
G1X0.2S750
G1X0.1S0
G1X0.1S750
G1X0.2S0
G1X0.2S750
G1X0.2S0
G1X0.1S750
G1X0.5S0
G1X0.1S750
G1X0.2S0
G1X0.1S750
G1X0.1S0
G1X5.9S750
G1X0.5Y0.1S0
G1X-5.7S750
G1X-0.1S0
G1X-0.1S750
G1X-0.5S0
G1X-0.1S750
G1X-0.2S0
G1X-0.1S750
G1X-0.2S0
G1X-0.2S750
G1X-0.1S0
G1X-0.1S750
G1X-0.1S0
G1X-0.1S750
G1X-0.1S0
G1X-0.1S750
G1X-0.1S0
G1X-0.1S750
G1X-0.1S0
G1X-0.2S750
G1X-0.3S0
G1X-0.1S750
G1X-0.3S0
G1X-0.1S750
G1X-0.2S0
G1X-0.1S750
G1X-0.2S0
G1X-0.1S750
G1X-0.1S0
G1X-0.1S750
G1X-0.1S0
G1X-0.1S750
G1X-0.2S0
G1X-0.1S750
G1X-0.1S0
G1X-0.2S750
G1X-0.1S0
G1X-0.2S750
G1X-0.1S0
G1X-0.2S750
G1X-0.2S0
G1X-0.1S750
G1X-0.2S0
G1X-0.2S750
G1X-0.1S0
G1X-0.2S750
G1X-0.2S0
G1X-0.1S750
G1X-0.1S0
G1X-0.1S750
G1X-0.2S0
G1X-0.1S750
G1X-0.2S0
G1X-0.1S750
G1X-0.1S0
G1X-0.1S750
G1X-0.1S0
G1X-0.1S750
G1X-0.2S0
G1X-0.1S750
G1X-0.2S0
G1X-0.1S750
G1X-0.2S0
G1X-0.1S750
G1X-0.2S0
G1X-1.6S750
G1X-42.9S0
G1X-1.5S750
G1X-11.4S0
G1X-0.9S750
G1Y0.1S0
G1X0.9S750
G1X11.3S0
G1X1.5S750
G1X42.9S0
G1X1.5S750
G1X0.2S0
G1X0.1S750
G1X0.2S0
G1X0.1S750
G1X0.2S0
G1X0.1S750
G1X0.1S0
G1X0.1S750
G1X0.2S0
G1X0.1S750
G1X0.2S0
G1X0.1S750
G1X0.1S0
G1X0.1S750
G1X0.1S0
G1X0.1S750
G1X0.2S0
G1X0.1S750
G1X0.2S0
G1X0.1S750
G1X0.4S0
G1X0.1S750
G1X0.2S0
G1X0.1S750
G1X0.3S0
G1X0.1S750
G1X0.6S0
G1X0.1S750
G1X0.1S0
G1X0.2S750
G1X0.1S0
G1X0.1S750
G1X0.2S0
G1X0.1S750
G1X0.1S0
G1X0.2S750
G1X0.1S0
G1X0.2S750
G1X0.1S0
G1X0.1S750
G1X0.1S0
G1X0.1S750
G1X0.1S0
G1X0.1S750
G1X0.2S0
G1X0.1S750
G1X0.2S0
G1X0.1S750
G1X0.2S0
G1X0.1S750
G1X0.2S0
G1X0.1S750
G1X0.2S0
G1X0.1S750
G1X0.1S0
G1X0.2S750
G1X0.2S0
G1X0.1S750
G1X0.2S0
G1X0.2S750
G1X1S0
G1X0.1S750
G1X0.1S0
G1X5.3S750
G1X0.5Y0.1S0
G1X-5.3S750
G1X-0.1S0
G1X-0.1S750
G1X-0.5S0
G1X-0.1S750
G1X-0.1S0
G1X-0.1S750
G1X-0.1S0
G1X-0.1S750
G1X-0.1S0
G1X-0.1S750
G1X-0.1S0
G1X-0.2S750
G1X-0.1S0
G1X-0.1S750
G1X-0.1S0
G1X-0.1S750
G1X-0.1S0
G1X-0.2S750
G1X-0.2S0
G1X-0.1S750
G1X-0.2S0
G1X-0.1S750
G1X-0.1S0
G1X-0.1S750
G1X-0.1S0
G1X-0.1S750
G1X-0.1S0
G1X-0.1S750
G1X-0.2S0
G1X-0.1S750
G1X-0.2S0
G1X-0.2S750
G1X-0.2S0
G1X-0.1S750
G1X-0.2S0
G1X-0.1S750
G1X-0.4S0
G1X-0.1S750
G1X-0.2S0
G1X-0.1S750
G1X-0.1S0
G1X-0.1S750
G1X-0.2S0
G1X-0.1S750
G1X-0.2S0
G1X-0.1S750
G1X-0.1S0
G1X-0.2S750
G1X-0.2S0
G1X-0.1S750
G1X-0.1S0
G1X-0.2S750
G1X-0.1S0
G1X-0.1S750
G1X-0.2S0
G1X-0.2S750
G1X-0.1S0
G1X-0.2S750
G1X-0.1S0
G1X-0.1S750
G1X-0.1S0
G1X-0.1S750
G1X-0.1S0
G1X-0.1S750
G1X-0.2S0
G1X-0.1S750
G1X-0.2S0
G1X-0.1S750
G1X-0.1S0
G1X-0.1S750
G1X-0.1S0
G1X-0.1S750
G1X-0.2S0
G1X-0.2S750
G1X-0.1S0
G1X-0.1S750
G1X-0.1S0
G1X-0.1S750
G1X-0.2S0
G1X-1.6S750
G1X-42.9S0
G1X-1.5S750
G1X-11.1S0
G1X-0.9S750
G1Y0.1S0
G1X0.9S750
G1X11S0
G1X1.5S750
G1X42.9S0
G1X1.6S750
G1X0.2S0
G1X0.1S750
G1X0.1S0
G1X0.1S750
G1X0.3S0
G1X0.1S750
G1X0.1S0
G1X0.1S750
G1X0.2S0
G1X0.1S750
G1X0.2S0
G1X0.2S750
G1X0.1S0
G1X0.1S750
G1X0.2S0
G1X0.1S750
G1X0.1S0
G1X0.1S750
G1X0.4S0
G1X0.1S750
G1X0.1S0
G1X0.1S750
G1X0.1S0
G1X0.1S750
G1X0.3S0
G1X0.1S750
G1X0.1S0
G1X0.1S750
G1X0.1S0
G1X0.2S750
G1X0.1S0
G1X0.2S750
G1X0.1S0
G1X0.1S750
G1X0.2S0
G1X0.1S750
G1X0.2S0
G1X0.2S750
G1X0.2S0
G1X0.2S750
G1X0.2S0
G1X0.1S750
G1X0.2S0
G1X0.1S750
G1X0.2S0
G1X0.1S750
G1X0.2S0
G1X0.2S750
G1X0.1S0
G1X0.1S750
G1X0.1S0
G1X0.1S750
G1X0.2S0
G1X0.1S750
G1X0.1S0
G1X0.2S750
G1X0.1S0
G1X0.1S750
G1X0.2S0
G1X0.1S750
G1X0.2S0
G1X0.1S750
G1X0.3S0
G1X0.1S750
G1X0.1S0
G1X0.1S750
G1X0.1S0
G1X0.1S750
G1X0.1S0
G1X0.1S750
G1X0.1S0
G1X0.1S750
G1X0.1S0
G1X0.2S750
G1X0.1S0
G1X0.1S750
G1X0.9S0
G1X5.2S750
G1X0.5Y0.1S0
G1X-5S750
G1X-0.9S0
G1X-0.2S750
G1X-0.1S0
G1X-0.2S750
G1X-0.1S0
G1X-0.3S750
G1X-0.2S0
G1X-0.1S750
G1X-0.2S0
G1X-0.1S750
G1X-0.2S0
G1X-0.1S750
G1X-0.3S0
G1X-0.1S750
G1X-0.1S0
G1X-0.2S750
G1X-0.1S0
G1X-0.1S750
G1X-0.2S0
G1X-0.1S750
G1X-0.1S0
G1X-0.1S750
G1X-0.4S0
G1X-0.1S750
G1X-0.1S0
G1X-0.1S750
G1X-0.2S0
G1X-0.1S750
G1X-0.3S0
G1X-0.1S750
G1X-0.2S0
G1X-0.2S750
G1X-0.1S0
G1X-0.2S750
G1X-0.1S0
G1X-0.2S750
G1X-0.1S0
G1X-0.1S750
G1X-0.2S0
G1X-0.1S750
G1X-0.2S0
G1X-0.1S750
G1X-0.1S0
G1X-0.1S750
G1X-0.1S0
G1X-0.1S750
G1X-0.7S0
G1X-0.1S750
G1X-0.2S0
G1X-0.2S750
G1X-0.1S0
G1X-0.1S750
G1X-0.3S0
G1X-0.1S750
G1X-0.1S0
G1X-0.2S750
G1X-0.1S0
G1X-0.1S750
G1X-0.2S0
G1X-0.2S750
G1X-0.1S0
G1X-0.1S750
G1X-0.2S0
G1X-0.1S750
G1X-0.1S0
G1X-0.1S750
G1X-0.1S0
G1X-0.1S750
G1X-0.2S0
G1X-0.1S750
G1X-0.1S0
G1X-0.2S750
G1X-0.2S0
G1X-0.2S750
G1X-0.2S0
G1X-1.5S750
G1X-43S0
G1X-1.4S750
G1X-10.9S0
G1X-0.9S750
G1Y0.1S0
G1X0.9S750
G1X10.8S0
G1X1.4S750
G1X42.9S0
G1X1.6S750
G1X0.2S0
G1X0.1S750
G1X0.2S0
G1X0.1S750
G1X0.2S0
G1X0.1S750
G1X0.1S0
G1X0.1S750
G1X0.1S0
G1X0.1S750
G1X0.1S0
G1X0.1S750
G1X0.2S0
G1X0.2S750
G1X0.4S0
G1X0.1S750
G1X0.1S0
G1X0.1S750
G1X0.2S0
G1X0.1S750
G1X0.2S0
G1X0.2S750
G1X0.1S0
G1X0.1S750
G1X0.2S0
G1X0.1S750
G1X0.2S0
G1X0.1S750
G1X0.1S0
G1X0.2S750
G1X0.1S0
G1X0.2S750
G1X0.1S0
G1X0.1S750
G1X0.2S0
G1X0.1S750
G1X0.2S0
G1X0.2S750
G1X0.2S0
G1X0.1S750
G1X0.6S0
G1X0.1S750
G1X0.2S0
G1X0.1S750
G1X0.1S0
G1X0.2S750
G1X0.1S0
G1X0.1S750
G1X0.1S0
G1X0.1S750
G1X0.1S0
G1X0.1S750
G1X0.2S0
G1X0.2S750
G1X0.1S0
G1X0.1S750
G1X0.2S0
G1X0.1S750
G1X0.1S0
G1X0.1S750
G1X0.2S0
G1X0.1S750
G1X0.2S0
G1X0.1S750
G1X0.1S0
G1X0.1S750
G1X0.1S0
G1X0.2S750
G1X0.2S0
G1X0.1S750
G1X0.2S0
G1X0.1S750
G1X0.5S0
G1X0.1S750
G1X0.1S0
G1X0.1S750
G1X0.2S0
G1X0.3S750
G1X0.1S0
G1X0.1S750
G1X0.2S0
G1X0.1S750
G1X0.7S0
G1X4.8S750
G1X0.5Y0.1S0
G1X-4.7S750
G1X-0.8S0
G1X-0.2S750
G1X-0.1S0
G1X-0.3S750
G1X-0.1S0
G1X-0.2S750
G1X-0.1S0
G1X-0.1S750
G1X-0.5S0
G1X-0.1S750
G1X-0.2S0
G1X-0.1S750
G1X-0.1S0
G1X-0.2S750
G1X-0.1S0
G1X-0.2S750
G1X-0.1S0
G1X-0.2S750
G1X-0.2S0
G1X-0.1S750
G1X-0.2S0
G1X-0.1S750
G1X-0.2S0
G1X-0.1S750
G1X-0.1S0
G1X-0.1S750
G1X-0.1S0
G1X-0.1S750
G1X-0.2S0
G1X-0.2S750
G1X-0.2S0
G1X-0.1S750
G1X-0.2S0
G1X-0.1S750
G1X-0.2S0
G1X-0.1S750
G1X-0.1S0
G1X-0.1S750
G1X-0.2S0
G1X-0.1S750
G1X-0.2S0
G1X-0.1S750
G1X-0.2S0
G1X-0.1S750
G1X-0.1S0
G1X-0.2S750
G1X-0.1S0
G1X-0.2S750
G1X-0.2S0
G1X-0.1S750
G1X-0.2S0
G1X-0.1S750
G1X-0.1S0
G1X-0.1S750
G1X-0.1S0
G1X-0.1S750
G1X-0.1S0
G1X-0.1S750
G1X-0.2S0
G1X-0.1S750
G1X-0.2S0
G1X-0.1S750
G1X-0.1S0
G1X-0.1S750
G1X-0.2S0
G1X-0.1S750
G1X-0.1S0
G1X-0.1S750
G1X-0.2S0
G1X-0.1S750
G1X-0.2S0
G1X-0.1S750
G1X-0.1S0
G1X-0.1S750
G1X-0.2S0
G1X-0.1S750
G1X-0.1S0
G1X-0.2S750
G1X-0.2S0
G1X-0.1S750
G1X-0.2S0
G1X-0.1S750
G1X-0.2S0
G1X-0.1S750
G1X-0.3S0
G1X-0.2S750
G1X-0.2S0
G1X-0.2S750
G1X-0.1S0
G1X-1.6S750
G1X-42.9S0
G1X-1.4S750
G1X-10.7S0
G1X-0.9S750
G1X-6.8S0
G1X-0.4S750
G1X0.1Y0.1S0
G1X0.7S750
G1X6.4S0
G1X0.9S750
G1X10.6S0
G1X1.4S750
G1X42.8S0
G1X1.6S750
G1X0.3S0
G1X0.1S750
G1X0.2S0
G1X0.1S750
G1X0.2S0
G1X0.2S750
G1X0.1S0
G1X0.1S750
G1X0.1S0
G1X0.1S750
G1X0.1S0
G1X0.1S750
G1X0.1S0
G1X0.2S750
G1X0.3S0
G1X0.2S750
G1X0.1S0
G1X0.1S750
G1X0.2S0
G1X0.2S750
G1X0.1S0
G1X0.1S750
G1X0.3S0
G1X0.1S750
G1X0.1S0
G1X0.2S750
G1X0.2S0
G1X0.2S750
G1X0.2S0
G1X0.1S750
G1X0.2S0
G1X0.1S750
G1X0.2S0
G1X0.1S750
G1X0.2S0
G1X0.2S750
G1X0.2S0
G1X0.1S750
G1X0.2S0
G1X0.1S750
G1X0.2S0
G1X0.2S750
G1X0.1S0
G1X0.2S750
G1X0.2S0
G1X0.1S750
G1X0.2S0
G1X0.1S750
G1X0.2S0
G1X0.1S750
G1X0.1S0
G1X0.2S750
G1X0.2S0
G1X0.1S750
G1X0.2S0
G1X0.1S750
G1X0.1S0
G1X0.1S750
G1X0.2S0
G1X0.1S750
G1X0.2S0
G1X0.1S750
G1X0.1S0
G1X0.1S750
G1X0.2S0
G1X0.1S750
G1X0.2S0
G1X0.1S750
G1X0.3S0
G1X0.1S750
G1X0.2S0
G1X0.2S750
G1X0.1S0
G1X0.1S750
G1X0.1S0
G1X0.2S750
G1X0.1S0
G1X0.2S750
G1X0.4S0
G1X0.1S750
G1X0.2S0
G1X0.1S750
G1X0.2S0
G1X0.2S750
G1X0.1S0
G1X0.2S750
G1X0.1S0
G1X0.1S750
G1X0.2S0
G1X0.1S750
G1X0.6S0
G1X4.5S750
G1X0.5Y0.1S0
G1X-4.4S750
G1X-0.1S0
G1X-0.1S750
G1X-0.5S0
G1X-0.1S750
G1X-0.1S0
G1X-0.1S750
G1X-0.2S0
G1X-0.2S750
G1X-0.1S0
G1X-0.2S750
G1X-0.1S0
G1X-0.1S750
G1X-0.3S0
G1X-0.1S750
G1X-0.2S0
G1X-0.1S750
G1X-0.2S0
G1X-0.1S750
G1X-0.1S0
G1X-0.2S750
G1X-0.1S0
G1X-0.1S750
G1X-0.1S0
G1X-0.1S750
G1X-0.3S0
G1X-0.1S750
G1X-0.4S0
G1X-0.1S750
G1X-0.2S0
G1X-0.1S750
G1X-0.2S0
G1X-0.1S750
G1X-0.1S0
G1X-0.2S750
G1X-0.2S0
G1X-0.1S750
G1X-0.1S0
G1X-0.1S750
G1X-0.1S0
G1X-0.1S750
G1X-0.1S0
G1X-0.1S750
G1X-0.1S0
G1X-0.1S750
G1X-0.2S0
G1X-0.2S750
G1X-0.1S0
G1X-0.1S750
G1X-0.2S0
G1X-0.1S750
G1X-0.1S0
G1X-0.1S750
G1X-0.1S0
G1X-0.1S750
G1X-0.1S0
G1X-0.2S750
G1X-0.1S0
G1X-0.1S750
G1X-0.3S0
G1X-0.1S750
G1X-0.2S0
G1X-0.1S750
G1X-0.2S0
G1X-0.2S750
G1X-0.2S0
G1X-0.1S750
G1X-0.2S0
G1X-0.1S750
G1X-0.2S0
G1X-0.1S750
G1X-0.1S0
G1X-0.2S750
G1X-0.1S0
G1X-0.1S750
G1X-0.2S0
G1X-0.1S750
G1X-0.2S0
G1X-0.1S750
G1X-0.3S0
G1X-0.2S750
G1X-0.1S0
G1X-0.1S750
G1X-0.3S0
G1X-0.1S750
G1X-0.1S0
G1X-0.1S750
G1X-0.2S0
G1X-0.1S750
G1X-0.2S0
G1X-0.1S750
G1X-0.3S0
G1X-0.1S750
G1X-0.2S0
G1X-0.1S750
G1X-0.2S0
G1X-0.1S750
G1X-0.2S0
G1X-0.2S750
G1X-0.2S0
G1X-0.1S750
G1X-0.1S0
G1X-0.1S750
G1X-0.1S0
G1X-1.6S750
G1X-42.8S0
G1X-1.4S750
G1X-10.5S0
G1X-0.9S750
G1X-5.8S0
G1X-1.3S750
G1Y0.1S0
G1X1.8S750
G1X5.3S0
G1X0.9S750
G1X10.4S0
G1X1.3S750
G1X42.8S0
G1X1.7S750
G1X0.2S0
G1X0.2S750
G1X0.1S0
G1X0.1S750
G1X0.2S0
G1X0.1S750
G1X0.1S0
G1X0.1S750
G1X0.2S0
G1X0.1S750
G1X0.1S0
G1X0.1S750
G1X0.1S0
G1X0.2S750
G1X0.1S0
G1X0.1S750
G1X0.1S0
G1X0.2S750
G1X0.2S0
G1X0.1S750
G1X0.2S0
G1X0.2S750
G1X0.2S0
G1X0.1S750
G1X0.2S0
G1X0.2S750
G1X0.1S0
G1X0.1S750
G1X0.2S0
G1X0.2S750
G1X0.2S0
G1X0.1S750
G1X0.3S0
G1X0.1S750
G1X0.1S0
G1X0.2S750
G1X0.1S0
G1X0.2S750
G1X0.2S0
G1X0.1S750
G1X0.2S0
G1X0.2S750
G1X0.1S0
G1X0.1S750
G1X0.2S0
G1X0.1S750
G1X0.1S0
G1X0.1S750
G1X0.4S0
G1X0.1S750
G1X0.2S0
G1X0.1S750
G1X0.2S0
G1X0.1S750
G1X0.2S0
G1X0.1S750
G1X0.2S0
G1X0.2S750
G1X0.3S0
G1X0.1S750
G1X0.1S0
G1X0.1S750
G1X0.1S0
G1X0.1S750
G1X0.1S0
G1X0.1S750
G1X0.1S0
G1X0.1S750
G1X0.2S0
G1X0.2S750
G1X0.1S0
G1X0.2S750
G1X0.1S0
G1X0.2S750
G1X0.1S0
G1X0.1S750
G1X0.1S0
G1X0.2S750
G1X0.2S0
G1X0.1S750
G1X0.3S0
G1X0.1S750
G1X0.2S0
G1X0.1S750
G1X0.1S0
G1X0.2S750
G1X0.1S0
G1X0.1S750
G1X0.2S0
G1X0.1S750
G1X0.5S0
G1X0.1S750
G1X0.2S0
G1X0.1S750
G1X0.1S0
G1X0.2S750
G1X0.1S0
G1X0.1S750
G1X0.1S0
G1X0.1S750
G1X0.2S0
G1X0.1S750
G1X0.5S0
G1X0.1S750
G1X0.1S0
G1X3.8S750
G1X-0.2Y0.1S0
G1X-3.3S750
G1X-0.5S0
G1X-0.1S750
G1X-0.1S0
G1X-0.1S750
G1X-0.1S0
G1X-0.1S750
G1X-0.1S0
G1X-0.2S750
G1X-0.1S0
G1X-0.2S750
G1X-0.3S0
G1X-0.1S750
G1X-0.2S0
G1X-0.1S750
G1X-0.2S0
G1X-0.2S750
G1X-0.1S0
G1X-0.3S750
G1X-0.1S0
G1X-0.1S750
G1X-0.2S0
G1X-0.1S750
G1X-0.2S0
G1X-0.1S750
G1X-0.2S0
G1X-0.1S750
G1X-0.1S0
G1X-0.1S750
G1X-0.1S0
G1X-0.1S750
G1X-0.1S0
G1X-0.1S750
G1X-0.2S0
G1X-0.1S750
G1X-0.2S0
G1X-0.1S750
G1X-0.4S0
G1X-0.1S750
G1X-0.2S0
G1X-0.1S750
G1X-0.2S0
G1X-0.1S750
G1X-0.2S0
G1X-0.1S750
G1X-0.3S0
G1X-0.2S750
G1X-0.1S0
G1X-0.1S750
G1X-0.2S0
G1X-0.1S750
G1X-0.2S0
G1X-0.2S750
G1X-0.1S0
G1X-0.1S750
G1X-0.1S0
G1X-0.1S750
G1X-0.2S0
G1X-0.1S750
G1X-0.1S0
G1X-0.2S750
G1X-0.1S0
G1X-0.2S750
G1X-0.1S0
G1X-0.2S750
G1X-0.2S0
G1X-0.1S750
G1X-0.2S0
G1X-0.2S750
G1X-0.2S0
G1X-0.1S750
G1X-0.4S0
G1X-0.1S750
G1X-0.2S0
G1X-0.1S750
G1X-0.1S0
G1X-0.2S750
G1X-0.2S0
G1X-0.1S750
G1X-0.1S0
G1X-0.1S750
G1X-0.2S0
G1X-0.1S750
G1X-0.3S0
G1X-0.2S750
G1X-0.1S0
G1X-0.1S750
G1X-0.2S0
G1X-0.1S750
G1X-0.1S0
G1X-0.1S750
G1X-0.2S0
G1X-0.1S750
G1X-0.2S0
G1X-0.1S750
G1X-0.2S0
G1X-0.1S750
G1X-0.2S0
G1X-0.2S750
G1X-0.1S0
G1X-0.1S750
G1X-0.2S0
G1X-0.1S750
G1X-0.1S0
G1X-0.1S750
G1X-0.3S0
G1X-0.1S750
G1X-0.2S0
G1X-1.6S750
G1X-42.8S0
G1X-1.3S750
G1X-10.3S0
G1X-0.9S750
G1X-4.9S0
G1X-2.2S750
G1Y0.1S0
G1X2.8S750
G1X4.3S0
G1X0.9S750
G1X10.2S0
G1X1.3S750
G1X42.7S0
G1X1.7S750
G1X0.2S0
G1X0.2S750
G1X0.1S0
G1X0.1S750
G1X0.2S0
G1X0.1S750
G1X0.1S0
G1X0.1S750
G1X0.2S0
G1X0.1S750
G1X0.2S0
G1X0.1S750
G1X0.1S0
G1X0.1S750
G1X0.2S0
G1X0.1S750
G1X0.2S0
G1X0.1S750
G1X0.2S0
G1X0.1S750
G1X0.1S0
G1X0.2S750
G1X0.4S0
G1X0.1S750
G1X0.1S0
G1X0.2S750
G1X0.2S0
G1X0.1S750
G1X0.1S0
G1X0.1S750
G1X0.3S0
G1X0.1S750
G1X0.2S0
G1X0.2S750
G1X0.1S0
G1X0.1S750
G1X0.1S0
G1X0.1S750
G1X0.1S0
G1X0.1S750
G1X0.2S0
G1X0.1S750
G1X0.2S0
G1X0.1S750
G1X0.2S0
G1X0.1S750
G1X0.7S0
G1X0.1S750
G1X0.2S0
G1X0.2S750
G1X0.1S0
G1X0.1S750
G1X0.2S0
G1X0.1S750
G1X0.2S0
G1X0.1S750
G1X0.1S0
G1X0.1S750
G1X0.2S0
G1X0.1S750
G1X0.2S0
G1X0.1S750
G1X0.1S0
G1X0.1S750
G1X0.1S0
G1X0.1S750
G1X0.2S0
G1X0.1S750
G1X0.1S0
G1X0.2S750
G1X0.2S0
G1X0.1S750
G1X0.1S0
G1X0.2S750
G1X0.2S0
G1X0.1S750
G1X0.1S0
G1X0.1S750
G1X0.2S0
G1X0.1S750
G1X0.2S0
G1X0.1S750
G1X0.1S0
G1X0.1S750
G1X0.1S0
G1X0.2S750
G1X0.1S0
G1X0.1S750
G1X0.2S0
G1X0.1S750
G1X0.2S0
G1X0.1S750
G1X0.3S0
G1X0.1S750
G1X0.1S0
G1X0.1S750
G1X0.1S0
G1X0.2S750
G1X0.2S0
G1X0.1S750
G1X0.2S0
G1X0.1S750
G1X0.3S0
G1X0.1S750
G1X0.2S0
G1X0.1S750
G1X0.1S0
G1X0.2S750
G1X0.1S0
G1X0.2S750
G1X0.1S0
G1X0.1S750
G1X0.6S0
G1X2.8S750
G1Y0.1S0
G1X-2.1S750
G1X-0.1S0
G1X-0.1S750
G1X-0.7S0
G1X-0.1S750
G1X-0.1S0
G1X-0.1S750
G1X-0.1S0
G1X-0.2S750
G1X-0.1S0
G1X-0.1S750
G1X-0.5S0
G1X-0.1S750
G1X-0.2S0
G1X-0.1S750
G1X-0.2S0
G1X-0.2S750
G1X-0.1S0
G1X-0.2S750
G1X-0.1S0
G1X-0.1S750
G1X-0.3S0
G1X-0.1S750
G1X-0.2S0
G1X-0.1S750
G1X-0.2S0
G1X-0.1S750
G1X-0.1S0
G1X-0.1S750
G1X-0.1S0
G1X-0.2S750
G1X-0.2S0
G1X-0.1S750
G1X-0.2S0
G1X-0.1S750
G1X-0.2S0
G1X-0.1S750
G1X-0.1S0
G1X-0.2S750
G1X-0.2S0
G1X-0.1S750
G1X-0.1S0
G1X-0.1S750
G1X-0.1S0
G1X-0.1S750
G1X-0.2S0
G1X-0.1S750
G1X-0.1S0
G1X-0.1S750
G1X-0.3S0
G1X-0.2S750
G1X-0.1S0
G1X-0.2S750
G1X-0.2S0
G1X-0.1S750
G1X-0.2S0
G1X-0.2S750
G1X-0.2S0
G1X-0.1S750
G1X-0.2S0
G1X-0.1S750
G1X-0.1S0
G1X-0.1S750
G1X-0.2S0
G1X-0.1S750
G1X-0.2S0
G1X-0.1S750
G1X-0.2S0
G1X-0.1S750
G1X-0.1S0
G1X-0.3S750
G1X-0.1S0
G1X-0.2S750
G1X-0.1S0
G1X-0.2S750
G1X-0.2S0
G1X-0.2S750
G1X-0.1S0
G1X-0.1S750
G1X-0.1S0
G1X-0.1S750
G1X-0.1S0
G1X-0.1S750
G1X-0.2S0
G1X-0.1S750
G1X-0.2S0
G1X-0.1S750
G1X-0.1S0
G1X-0.2S750
G1X-0.2S0
G1X-0.2S750
G1X-0.2S0
G1X-0.1S750
G1X-0.2S0
G1X-0.2S750
G1X-0.1S0
G1X-0.1S750
G1X-0.3S0
G1X-0.1S750
G1X-0.1S0
G1X-0.1S750
G1X-0.1S0
G1X-0.2S750
G1X-0.1S0
G1X-0.1S750
G1X-0.1S0
G1X-0.1S750
G1X-0.2S0
G1X-0.1S750
G1X-0.2S0
G1X-0.2S750
G1X-0.2S0
G1X-0.1S750
G1X-0.1S0
G1X-0.2S750
G1X-0.3S0
G1X-0.1S750
G1X-0.2S0
G1X-1.6S750
G1X-42.7S0
G1X-1.3S750
G1X-10.1S0
G1X-0.9S750
G1X-3.6S0
G1X-3.4S750
G1Y0.1S0
G1X3.9S750
G1X3.1S0
G1X0.9S750
G1X10S0
G1X1.3S750
G1X42.6S0
G1X1.7S750
G1X0.1S0
G1X0.1S750
G1X0.1S0
G1X0.2S750
G1X0.2S0
G1X0.1S750
G1X0.2S0
G1X0.1S750
G1X0.2S0
G1X0.1S750
G1X0.2S0
G1X0.2S750
G1X0.1S0
G1X0.1S750
G1X0.2S0
G1X0.1S750
G1X0.3S0
G1X0.1S750
G1X0.1S0
G1X0.1S750
G1X0.1S0
G1X0.1S750
G1X0.1S0
G1X0.1S750
G1X0.2S0
G1X0.1S750
G1X0.1S0
G1X0.1S750
G1X0.1S0
G1X0.1S750
G1X0.2S0
G1X0.1S750
G1X0.2S0
G1X0.1S750
G1X0.2S0
G1X0.2S750
G1X0.1S0
G1X0.1S750
G1X0.2S0
G1X0.1S750
G1X0.3S0
G1X0.1S750
G1X0.2S0
G1X0.1S750
G1X0.2S0
G1X0.1S750
G1X0.3S0
G1X0.1S750
G1X0.3S0
G1X0.1S750
G1X0.1S0
G1X0.2S750
G1X0.1S0
G1X0.2S750
G1X0.2S0
G1X0.1S750
G1X0.1S0
G1X0.1S750
G1X0.1S0
G1X0.1S750
G1X0.1S0
G1X0.2S750
G1X0.1S0
G1X0.1S750
G1X0.2S0
G1X0.1S750
G1X0.1S0
G1X0.2S750
G1X0.2S0
G1X0.1S750
G1X0.3S0
G1X0.1S750
G1X0.1S0
G1X0.1S750
G1X0.2S0
G1X0.1S750
G1X0.1S0
G1X0.1S750
G1X0.2S0
G1X0.1S750
G1X0.2S0
G1X0.1S750
G1X0.2S0
G1X0.1S750
G1X0.2S0
G1X0.2S750
G1X0.1S0
G1X0.1S750
G1X0.2S0
G1X0.1S750
G1X0.2S0
G1X0.1S750
G1X0.2S0
G1X0.1S750
G1X0.1S0
G1X0.1S750
G1X0.1S0
G1X0.2S750
G1X0.2S0
G1X0.2S750
G1X0.2S0
G1X0.1S750
G1X0.4S0
G1X0.1S750
G1X0.2S0
G1X0.2S750
G1X0.1S0
G1X0.2S750
G1X0.1S0
G1X0.2S750
G1X0.1S0
G1X0.1S750
G1X0.4S0
G1X0.1S750
G1X0.1S0
G1X0.4S750
G1X0.1S0
G1X0.1S750
G1X0.2S0
G1X0.1S750
G1X0.3S0
G1X0.1S750
G1X0.1S0
G1X1.8S750
G1X-0.2Y0.1S0
G1X-1.2S750
G1X-0.6S0
G1X-0.2S750
G1X-0.1S0
G1X-0.2S750
G1X-0.1S0
G1X-0.2S750
G1X-0.6S0
G1X-0.1S750
G1X-0.1S0
G1X-0.1S750
G1X-0.1S0
G1X-0.1S750
G1X-0.2S0
G1X-0.1S750
G1X-0.4S0
G1X-0.1S750
G1X-0.2S0
G1X-0.1S750
G1X-0.2S0
G1X-0.1S750
G1X-0.1S0
G1X-0.1S750
G1X-0.1S0
G1X-0.2S750
G1X-0.1S0
G1X-0.1S750
G1X-0.2S0
G1X-0.1S750
G1X-0.2S0
G1X-0.1S750
G1X-0.2S0
G1X-0.1S750
G1X-0.2S0
G1X-0.1S750
G1X-0.1S0
G1X-0.1S750
G1X-0.1S0
G1X-0.1S750
G1X-0.1S0
G1X-0.1S750
G1X-0.2S0
G1X-0.1S750
G1X-0.2S0
G1X-0.2S750
G1X-0.1S0
G1X-0.1S750
G1X-0.1S0
G1X-0.1S750
G1X-0.1S0
G1X-0.1S750
G1X-0.1S0
G1X-0.1S750
G1X-0.2S0
G1X-0.2S750
G1X-0.1S0
G1X-0.1S750
G1X-0.2S0
G1X-0.1S750
G1X-0.2S0
G1X-0.1S750
G1X-0.2S0
G1X-0.1S750
G1X-0.2S0
G1X-0.1S750
G1X-0.1S0
G1X-0.1S750
G1X-0.3S0
G1X-0.1S750
G1X-0.2S0
G1X-0.1S750
G1X-0.1S0
G1X-0.1S750
G1X-0.2S0
G1X-0.1S750
G1X-0.6S0
G1X-0.1S750
G1X-0.2S0
G1X-0.1S750
G1X-0.2S0
G1X-0.2S750
G1X-0.2S0
G1X-0.1S750
G1X-0.2S0
G1X-0.1S750
G1X-0.1S0
G1X-0.2S750
G1X-0.1S0
G1X-0.1S750
G1X-0.1S0
G1X-0.1S750
G1X-0.4S0
G1X-0.1S750
G1X-0.1S0
G1X-0.1S750
G1X-0.2S0
G1X-0.2S750
G1X-0.2S0
G1X-0.1S750
G1X-0.2S0
G1X-0.1S750
G1X-0.1S0
G1X-0.1S750
G1X-0.1S0
G1X-0.1S750
G1X-0.2S0
G1X-0.1S750
G1X-0.2S0
G1X-0.2S750
G1X-0.1S0
G1X-0.1S750
G1X-0.1S0
G1X-0.1S750
G1X-0.2S0
G1X-0.1S750
G1X-0.2S0
G1X-0.2S750
G1X-0.1S0
G1X-0.1S750
G1X-0.2S0
G1X-0.1S750
G1X-0.1S0
G1X-0.1S750
G1X-0.2S0
G1X-0.1S750
G1X-0.2S0
G1X-1.7S750
G1X-42.6S0
G1X-1.3S750
G1X-9.9S0
G1X-0.9S750
G1X-2.5S0
G1X-4.5S750
G1X0.1Y0.1S0
G1X4.9S750
G1X2S0
G1X1S750
G1X9.8S0
G1X1.2S750
G1X42.5S0
G1X1.7S750
G1X0.2S0
G1X0.1S750
G1X0.2S0
G1X0.1S750
G1X0.2S0
G1X0.1S750
G1X0.1S0
G1X0.1S750
G1X0.1S0
G1X0.1S750
G1X0.2S0
G1X0.1S750
G1X0.1S0
G1X0.2S750
G1X0.2S0
G1X0.1S750
G1X0.2S0
G1X0.1S750
G1X0.2S0
G1X0.2S750
G1X0.2S0
G1X0.1S750
G1X0.2S0
G1X0.1S750
G1X0.1S0
G1X0.2S750
G1X0.1S0
G1X0.1S750
G1X0.2S0
G1X0.1S750
G1X0.2S0
G1X0.1S750
G1X0.1S0
G1X0.1S750
G1X0.1S0
G1X0.2S750
G1X0.1S0
G1X0.1S750
G1X0.2S0
G1X0.1S750
G1X0.2S0
G1X0.1S750
G1X0.1S0
G1X0.1S750
G1X0.1S0
G1X0.2S750
G1X0.2S0
G1X0.1S750
G1X0.1S0
G1X0.2S750
G1X0.1S0
G1X0.2S750
G1X0.1S0
G1X0.3S750
G1X0.1S0
G1X0.1S750
G1X0.2S0
G1X0.1S750
G1X0.1S0
G1X0.1S750
G1X0.2S0
G1X0.1S750
G1X0.2S0
G1X0.1S750
G1X0.1S0
G1X0.1S750
G1X0.2S0
G1X0.2S750
G1X0.2S0
G1X0.1S750
G1X0.1S0
G1X0.1S750
G1X0.1S0
G1X0.2S750
G1X0.1S0
G1X0.1S750
G1X0.3S0
G1X0.1S750
G1X0.1S0
G1X0.1S750
G1X0.2S0
G1X0.1S750
G1X0.2S0
G1X0.1S750
G1X0.2S0
G1X0.1S750
G1X0.2S0
G1X0.1S750
G1X0.2S0
G1X0.1S750
G1X0.2S0
G1X0.1S750
G1X0.2S0
G1X0.1S750
G1X0.1S0
G1X0.1S750
G1X0.1S0
G1X0.1S750
G1X0.2S0
G1X0.1S750
G1X0.2S0
G1X0.2S750
G1X0.5S0
G1X0.1S750
G1X0.1S0
G1X0.2S750
G1X0.1S0
G1X0.2S750
G1X0.2S0
G1X0.1S750
G1X0.1S0
G1X0.1S750
G1X0.1S0
G1X0.1S750
G1X0.2S0
G1X0.1S750
G1X0.1S0
G1X0.1S750
G1X0.1S0
G1X0.1S750
G1X0.1S0
G1X0.2S750
G1X0.1S0
G1X0.1S750
G1X0.2S0
G1X0.1S750
G1X0.2S0
G1X0.1S750
G1X0.2S0
G1X0.1S750
G1X0.2S0
G1X0.2S750
G1X0.1S0
G1X0.1S750
G1X0.3S0
G1X1S750
G1X-0.1Y0.1S0
G1X-1S750
G1X-0.2S0
G1X-0.2S750
G1X-0.2S0
G1X-0.1S750
G1X-0.2S0
G1X-0.1S750
G1X-0.2S0
G1X-0.1S750
G1X-0.2S0
G1X-0.1S750
G1X-0.1S0
G1X-0.2S750
G1X-0.2S0
G1X-0.1S750
G1X-0.2S0
G1X-0.1S750
G1X-0.2S0
G1X-0.2S750
G1X-0.1S0
G1X-0.1S750
G1X-0.1S0
G1X-0.1S750
G1X-0.1S0
G1X-0.2S750
G1X-0.2S0
G1X-0.1S750
G1X-0.5S0
G1X-0.2S750
G1X-0.1S0
G1X-0.2S750
G1X-0.2S0
G1X-0.1S750
G1X-0.1S0
G1X-0.2S750
G1X-0.2S0
G1X-0.1S750
G1X-0.2S0
G1X-0.1S750
G1X-0.1S0
G1X-0.1S750
G1X-0.2S0
G1X-0.2S750
G1X-0.1S0
G1X-0.2S750
G1X-0.2S0
G1X-0.1S750
G1X-0.1S0
G1X-0.1S750
G1X-0.2S0
G1X-0.1S750
G1X-0.1S0
G1X-0.1S750
G1X-0.2S0
G1X-0.1S750
G1X-0.2S0
G1X-0.2S750
G1X-0.2S0
G1X-0.1S750
G1X-0.2S0
G1X-0.1S750
G1X-0.1S0
G1X-0.1S750
G1X-0.2S0
G1X-0.1S750
G1X-0.2S0
G1X-0.1S750
G1X-0.1S0
G1X-0.1S750
G1X-0.1S0
G1X-0.2S750
G1X-0.1S0
G1X-0.1S750
G1X-0.1S0
G1X-0.1S750
G1X-0.1S0
G1X-0.1S750
G1X-0.1S0
G1X-0.2S750
G1X-0.1S0
G1X-0.1S750
G1X-0.5S0
G1X-0.1S750
G1X-0.3S0
G1X-0.1S750
G1X-0.2S0
G1X-0.1S750
G1X-0.2S0
G1X-0.1S750
G1X-0.3S0
G1X-0.1S750
G1X-0.1S0
G1X-0.1S750
G1X-0.1S0
G1X-0.1S750
G1X-0.2S0
G1X-0.1S750
G1X-0.2S0
G1X-0.1S750
G1X-0.1S0
G1X-0.1S750
G1X-0.2S0
G1X-0.1S750
G1X-0.1S0
G1X-0.1S750
G1X-0.3S0
G1X-0.1S750
G1X-0.2S0
G1X-0.2S750
G1X-0.2S0
G1X-0.1S750
G1X-0.3S0
G1X-0.1S750
G1X-0.2S0
G1X-0.1S750
G1X-0.1S0
G1X-0.1S750
G1X-0.3S0
G1X-0.1S750
G1X-0.2S0
G1X-0.1S750
G1X-0.1S0
G1X-0.1S750
G1X-0.2S0
G1X-0.2S750
G1X-0.1S0
G1X-0.2S750
G1X-0.2S0
G1X-1.8S750
G1X-42.5S0
G1X-1.2S750
G1X-9.8S0
G1X-0.9S750
G1X-1.4S0
G1X-5.5S750
G1Y0.1S0
G1X6S750
G1X0.9S0
G1X1S750
G1X9.6S0
G1X1.2S750
G1X42.4S0
G1X2.1S750
G1X0.2S0
G1X0.1S750
G1X0.2S0
G1X0.1S750
G1X0.1S0
G1X0.1S750
G1X0.2S0
G1X0.1S750
G1X0.1S0
G1X0.2S750
G1X0.1S0
G1X0.1S750
G1X0.2S0
G1X0.1S750
G1X0.1S0
G1X0.2S750
G1X0.1S0
G1X0.2S750
G1X0.2S0
G1X0.1S750
G1X0.2S0
G1X0.1S750
G1X0.1S0
G1X0.1S750
G1X0.1S0
G1X0.1S750
G1X0.2S0
G1X0.1S750
G1X0.2S0
G1X0.2S750
G1X0.1S0
G1X0.1S750
G1X0.1S0
G1X0.1S750
G1X0.2S0
G1X0.1S750
G1X0.2S0
G1X0.1S750
G1X0.1S0
G1X0.1S750
G1X0.1S0
G1X0.2S750
G1X0.1S0
G1X0.1S750
G1X0.2S0
G1X0.1S750
G1X0.1S0
G1X0.2S750
G1X0.1S0
G1X0.1S750
G1X0.2S0
G1X0.2S750
G1X0.1S0
G1X0.1S750
G1X0.5S0
G1X0.1S750
G1X0.2S0
G1X0.1S750
G1X0.2S0
G1X0.1S750
G1X0.2S0
G1X0.1S750
G1X0.2S0
G1X0.2S750
G1X0.2S0
G1X0.1S750
G1X0.1S0
G1X0.1S750
G1X0.2S0
G1X0.1S750
G1X0.2S0
G1X0.1S750
G1X0.2S0
G1X0.1S750
G1X0.1S0
G1X0.2S750
G1X0.1S0
G1X0.1S750
G1X0.1S0
G1X0.1S750
G1X0.1S0
G1X0.2S750
G1X0.1S0
G1X0.1S750
G1X0.1S0
G1X0.1S750
G1X0.2S0
G1X0.1S750
G1X0.2S0
G1X0.1S750
G1X0.1S0
G1X0.1S750
G1X0.1S0
G1X0.1S750
G1X0.1S0
G1X0.1S750
G1X0.1S0
G1X0.1S750
G1X0.2S0
G1X0.1S750
G1X0.2S0
G1X0.2S750
G1X0.3S0
G1X0.1S750
G1X0.1S0
G1X0.2S750
G1X0.1S0
G1X0.2S750
G1X0.2S0
G1X0.1S750
G1X0.4S0
G1X0.1S750
G1X0.2S0
G1X0.1S750
G1X0.2S0
G1X0.1S750
G1X0.1S0
G1X0.1S750
G1X0.2S0
G1X0.1S750
G1X0.2S0
G1X0.1S750
G1X0.2S0
G1X0.1S750
G1X0.1S0
G1X0.2S750
G1X0.1S0
G1X0.1S750
G1X0.1S0
G1X0.2S750
G1X0.2S0
G1X0.1S750
G1X0.2S0
G1X1.2S750
G1Y0.1S0
G1X-1.1S750
G1X-0.3S0
G1X-0.2S750
G1X-0.1S0
G1X-0.1S750
G1X-0.3S0
G1X-0.1S750
G1X-0.2S0
G1X-0.1S750
G1X-0.2S0
G1X-0.1S750
G1X-0.2S0
G1X-0.1S750
G1X-0.1S0
G1X-0.2S750
G1X-0.2S0
G1X-0.1S750
G1X-0.2S0
G1X-0.1S750
G1X-0.1S0
G1X-0.1S750
G1X-0.2S0
G1X-0.2S750
G1X-0.1S0
G1X-0.2S750
G1X-0.1S0
G1X-0.1S750
G1X-0.1S0
G1X-0.1S750
G1X-0.4S0
G1X-0.1S750
G1X-0.1S0
G1X-0.1S750
G1X-0.2S0
G1X-0.1S750
G1X-0.2S0
G1X-0.2S750
G1X-0.1S0
G1X-0.1S750
G1X-0.2S0
G1X-0.1S750
G1X-0.2S0
G1X-0.1S750
G1X-0.2S0
G1X-0.1S750
G1X-0.2S0
G1X-0.1S750
G1X-0.1S0
G1X-0.1S750
G1X-0.2S0
G1X-0.1S750
G1X-0.2S0
G1X-0.1S750
G1X-0.2S0
G1X-0.1S750
G1X-0.3S0
G1X-0.1S750
G1X-0.2S0
G1X-0.1S750
G1X-0.1S0
G1X-0.2S750
G1X-0.1S0
G1X-0.1S750
G1X-0.1S0
G1X-0.1S750
G1X-0.1S0
G1X-0.1S750
G1X-0.1S0
G1X-0.1S750
G1X-0.2S0
G1X-0.1S750
G1X-0.2S0
G1X-0.1S750
G1X-0.2S0
G1X-0.1S750
G1X-0.1S0
G1X-0.1S750
G1X-0.1S0
G1X-0.1S750
G1X-0.2S0
G1X-0.3S750
G1X-0.1S0
G1X-0.2S750
G1X-0.2S0
G1X-0.1S750
G1X-0.1S0
G1X-0.1S750
G1X-0.2S0
G1X-0.1S750
G1X-0.2S0
G1X-0.2S750
G1X-0.2S0
G1X-0.1S750
G1X-0.2S0
G1X-0.1S750
G1X-0.2S0
G1X-0.2S750
G1X-0.1S0
G1X-0.1S750
G1X-0.1S0
G1X-0.1S750
G1X-0.3S0
G1X-0.1S750
G1X-0.2S0
G1X-0.1S750
G1X-0.1S0
G1X-0.2S750
G1X-0.2S0
G1X-0.1S750
G1X-0.2S0
G1X-0.1S750
G1X-0.1S0
G1X-0.2S750
G1X-0.1S0
G1X-0.1S750
G1X-0.3S0
G1X-0.1S750
G1X-0.2S0
G1X-0.1S750
G1X-0.1S0
G1X-0.1S750
G1X-0.2S0
G1X-0.1S750
G1X-0.2S0
G1X-0.1S750
G1X-0.1S0
G1X-0.1S750
G1X-0.2S0
G1X-0.1S750
G1X-0.2S0
G1X-2.2S750
G1X-42.5S0
G1X-1.2S750
G1X-9.5S0
G1X-0.9S750
G1X-0.4S0
G1X-5.3S750
G1X-0.3S0
G1X-1S750
G1X0.1Y0.1S0
G1X0.9S750
G1X0.2S0
G1X0.1S750
G1X0.5S0
G1X6.1S750
G1X9.4S0
G1X1.2S750
G1X42.7S0
G1X1.3S750
G1X0.1S0
G1X0.8S750
G1X0.1S0
G1X0.1S750
G1X0.2S0
G1X0.1S750
G1X0.1S0
G1X0.1S750
G1X0.1S0
G1X0.1S750
G1X0.2S0
G1X0.1S750
G1X0.2S0
G1X0.2S750
G1X0.2S0
G1X0.1S750
G1X0.1S0
G1X0.1S750
G1X0.3S0
G1X0.1S750
G1X0.2S0
G1X0.1S750
G1X0.1S0
G1X0.1S750
G1X0.2S0
G1X0.1S750
G1X0.2S0
G1X0.2S750
G1X0.2S0
G1X0.1S750
G1X0.1S0
G1X0.1S750
G1X0.2S0
G1X0.1S750
G1X0.2S0
G1X0.1S750
G1X0.1S0
G1X0.1S750
G1X0.2S0
G1X0.1S750
G1X0.2S0
G1X0.1S750
G1X0.2S0
G1X0.1S750
G1X0.1S0
G1X0.1S750
G1X0.2S0
G1X0.1S750
G1X0.1S0
G1X0.1S750
G1X0.6S0
G1X0.1S750
G1X0.1S0
G1X0.2S750
G1X0.1S0
G1X0.1S750
G1X0.2S0
G1X0.2S750
G1X0.1S0
G1X0.1S750
G1X0.1S0
G1X0.2S750
G1X0.2S0
G1X0.1S750
G1X0.2S0
G1X0.1S750
G1X0.2S0
G1X0.1S750
G1X0.3S0
G1X0.1S750
G1X0.1S0
G1X0.2S750
G1X0.1S0
G1X0.1S750
G1X0.2S0
G1X0.1S750
G1X0.1S0
G1X0.1S750
G1X0.2S0
G1X0.1S750
G1X0.2S0
G1X0.1S750
G1X0.2S0
G1X0.2S750
G1X0.1S0
G1X0.1S750
G1X0.2S0
G1X0.1S750
G1X0.1S0
G1X0.1S750
G1X0.1S0
G1X0.1S750
G1X0.2S0
G1X0.1S750
G1X0.2S0
G1X0.2S750
G1X0.2S0
G1X0.1S750
G1X0.1S0
G1X0.1S750
G1X0.1S0
G1X0.2S750
G1X0.1S0
G1X0.1S750
G1X0.3S0
G1X0.1S750
G1X0.3S0
G1X0.1S750
G1X0.1S0
G1X0.1S750
G1X0.1S0
G1X0.1S750
G1X0.2S0
G1X0.2S750
G1X0.1S0
G1X0.1S750
G1X0.2S0
G1X0.1S750
G1X0.2S0
G1X0.1S750
G1X0.1S0
G1X0.2S750
G1X0.2S0
G1X0.1S750
G1X0.2S0
G1X0.1S750
G1X0.1S0
G1X0.1S750
G1X0.3S0
G1X0.1S750
G1X0.1S0
G1X0.1S750
G1X0.1S0
G1X1.1S750
G1X-0.2Y0.1S0
G1X-1.1S750
G1X-0.2S0
G1X-0.1S750
G1X-0.1S0
G1X-0.1S750
G1X-0.1S0
G1X-0.1S750
G1X-0.1S0
G1X-0.1S750
G1X-0.1S0
G1X-0.2S750
G1X-0.1S0
G1X-0.1S750
G1X-0.2S0
G1X-0.1S750
G1X-0.1S0
G1X-0.1S750
G1X-0.2S0
G1X-0.1S750
G1X-0.2S0
G1X-0.1S750
G1X-0.2S0
G1X-0.1S750
G1X-0.1S0
G1X-0.1S750
G1X-0.1S0
G1X-0.1S750
G1X-0.2S0
G1X-0.1S750
G1X-0.2S0
G1X-0.1S750
G1X-0.1S0
G1X-0.2S750
G1X-0.1S0
G1X-0.1S750
G1X-0.2S0
G1X-0.1S750
G1X-0.2S0
G1X-0.1S750
G1X-0.2S0
G1X-0.1S750
G1X-0.2S0
G1X-0.1S750
G1X-0.1S0
G1X-0.2S750
G1X-0.2S0
G1X-0.1S750
G1X-0.2S0
G1X-0.2S750
G1X-0.2S0
G1X-0.1S750
G1X-0.2S0
G1X-0.2S750
G1X-0.1S0
G1X-0.1S750
G1X-0.1S0
G1X-0.1S750
G1X-0.1S0
G1X-0.1S750
G1X-0.1S0
G1X-0.2S750
G1X-0.1S0
G1X-0.1S750
G1X-0.3S0
G1X-0.1S750
G1X-0.2S0
G1X-0.2S750
G1X-0.2S0
G1X-0.1S750
G1X-0.1S0
G1X-0.1S750
G1X-0.1S0
G1X-0.1S750
G1X-0.2S0
G1X-0.1S750
G1X-0.2S0
G1X-0.1S750
G1X-0.3S0
G1X-0.1S750
G1X-0.2S0
G1X-0.1S750
G1X-0.4S0
G1X-0.2S750
G1X-0.1S0
G1X-0.3S750
G1X-0.2S0
G1X-0.2S750
G1X-0.2S0
G1X-0.1S750
G1X-0.2S0
G1X-0.1S750
G1X-0.1S0
G1X-0.1S750
G1X-0.1S0
G1X-0.2S750
G1X-0.2S0
G1X-0.1S750
G1X-0.2S0
G1X-0.1S750
G1X-0.1S0
G1X-0.1S750
G1X-0.1S0
G1X-0.1S750
G1X-0.1S0
G1X-0.2S750
G1X-0.2S0
G1X-0.1S750
G1X-0.2S0
G1X-0.2S750
G1X-0.1S0
G1X-0.1S750
G1X-0.1S0
G1X-0.1S750
G1X-0.1S0
G1X-0.1S750
G1X-0.2S0
G1X-0.1S750
G1X-0.1S0
G1X-0.1S750
G1X-0.1S0
G1X-0.1S750
G1X-0.2S0
G1X-0.1S750
G1X-0.2S0
G1X-0.2S750
G1X-0.1S0
G1X-0.1S750
G1X-0.1S0
G1X-0.1S750
G1X-0.2S0
G1X-0.1S750
G1X-0.1S0
G1X-0.1S750
G1X-0.1S0
G1X-1S750
G1X-0.1S0
G1X-1.1S750
G1X-42.8S0
G1X-1.2S750
G1X-9.3S0
G1X-5.4S750
G1X-0.1S0
G1X-0.1S750
G1X-0.7S0
G1X-0.1S750
G1X-0.2S0
G1X-0.1S750
G1X-0.1S0
G1X-1S750
G1Y0.1S0
G1X1S750
G1X0.2S0
G1X0.2S750
G1X0.1S0
G1X0.2S750
G1X0.1S0
G1X0.1S750
G1X0.2S0
G1X0.1S750
G1X0.5S0
G1X0.1S750
G1X0.1S0
G1X4.9S750
G1X9.2S0
G1X1.2S750
G1X43S0
G1X0.9S750
G1X0.1S0
G1X1.2S750
G1X0.1S0
G1X0.1S750
G1X0.1S0
G1X0.1S750
G1X0.2S0
G1X0.1S750
G1X0.3S0
G1X0.1S750
G1X0.1S0
G1X0.1S750
G1X0.2S0
G1X0.2S750
G1X0.2S0
G1X0.1S750
G1X0.1S0
G1X0.2S750
G1X0.1S0
G1X0.1S750
G1X0.2S0
G1X0.1S750
G1X0.2S0
G1X0.1S750
G1X0.1S0
G1X0.1S750
G1X0.2S0
G1X0.1S750
G1X0.2S0
G1X0.1S750
G1X0.2S0
G1X0.1S750
G1X0.2S0
G1X0.2S750
G1X0.1S0
G1X0.1S750
G1X0.2S0
G1X0.1S750
G1X0.2S0
G1X0.1S750
G1X0.1S0
G1X0.2S750
G1X0.1S0
G1X0.1S750
G1X0.2S0
G1X0.1S750
G1X0.3S0
G1X0.1S750
G1X0.2S0
G1X0.2S750
G1X0.1S0
G1X0.2S750
G1X0.2S0
G1X0.1S750
G1X0.1S0
G1X0.2S750
G1X0.2S0
G1X0.1S750
G1X0.2S0
G1X0.1S750
G1X0.1S0
G1X0.1S750
G1X0.1S0
G1X0.1S750
G1X0.1S0
G1X0.1S750
G1X0.1S0
G1X0.1S750
G1X0.2S0
G1X0.1S750
G1X0.1S0
G1X0.1S750
G1X0.1S0
G1X0.1S750
G1X0.2S0
G1X0.1S750
G1X0.3S0
G1X0.1S750
G1X0.2S0
G1X0.1S750
G1X0.2S0
G1X0.1S750
G1X0.2S0
G1X0.1S750
G1X0.2S0
G1X0.1S750
G1X0.2S0
G1X0.1S750
G1X0.1S0
G1X0.2S750
G1X0.2S0
G1X0.1S750
G1X0.2S0
G1X0.1S750
G1X0.1S0
G1X0.1S750
G1X0.2S0
G1X0.2S750
G1X0.1S0
G1X0.1S750
G1X0.2S0
G1X0.1S750
G1X0.4S0
G1X0.1S750
G1X0.1S0
G1X0.2S750
G1X0.1S0
G1X0.1S750
G1X0.2S0
G1X0.1S750
G1X0.2S0
G1X0.1S750
G1X0.2S0
G1X0.1S750
G1X0.1S0
G1X0.2S750
G1X0.1S0
G1X0.1S750
G1X0.1S0
G1X0.1S750
G1X0.1S0
G1X0.1S750
G1X0.2S0
G1X0.1S750
G1X0.2S0
G1X0.1S750
G1X0.2S0
G1X0.1S750
G1X0.2S0
G1X0.2S750
G1X0.3S0
G1X1S750
G1Y0.1S0
G1X-1S750
G1X-0.1S0
G1X-0.2S750
G1X-0.1S0
G1X-0.1S750
G1X-0.2S0
G1X-0.1S750
G1X-0.1S0
G1X-0.1S750
G1X-0.2S0
G1X-0.1S750
G1X-0.2S0
G1X-0.1S750
G1X-0.2S0
G1X-0.1S750
G1X-0.2S0
G1X-0.1S750
G1X-0.2S0
G1X-0.1S750
G1X-0.2S0
G1X-0.2S750
G1X-0.2S0
G1X-0.1S750
G1X-0.1S0
G1X-0.1S750
G1X-0.1S0
G1X-0.1S750
G1X-0.2S0
G1X-0.1S750
G1X-0.2S0
G1X-0.1S750
G1X-0.1S0
G1X-0.2S750
G1X-0.1S0
G1X-0.1S750
G1X-0.1S0
G1X-0.1S750
G1X-0.2S0
G1X-0.1S750
G1X-0.1S0
G1X-0.1S750
G1X-0.2S0
G1X-0.1S750
G1X-0.2S0
G1X-0.1S750
G1X-0.1S0
G1X-0.1S750
G1X-0.2S0
G1X-0.1S750
G1X-0.2S0
G1X-0.1S750
G1X-0.1S0
G1X-0.2S750
G1X-0.2S0
G1X-0.1S750
G1X-0.1S0
G1X-0.1S750
G1X-0.1S0
G1X-0.1S750
G1X-0.2S0
G1X-0.1S750
G1X-0.2S0
G1X-0.1S750
G1X-0.1S0
G1X-0.2S750
G1X-0.2S0
G1X-0.1S750
G1X-0.2S0
G1X-0.1S750
G1X-0.1S0
G1X-0.1S750
G1X-0.2S0
G1X-0.1S750
G1X-0.2S0
G1X-0.1S750
G1X-0.1S0
G1X-0.1S750
G1X-0.1S0
G1X-0.2S750
G1X-0.1S0
G1X-0.1S750
G1X-0.3S0
G1X-0.1S750
G1X-0.2S0
G1X-0.1S750
G1X-0.4S0
G1X-0.1S750
G1X-0.2S0
G1X-0.2S750
G1X-0.2S0
G1X-0.1S750
G1X-0.1S0
G1X-0.1S750
G1X-0.2S0
G1X-0.1S750
G1X-0.2S0
G1X-0.1S750
G1X-0.2S0
G1X-0.1S750
G1X-0.2S0
G1X-0.1S750
G1X-0.2S0
G1X-0.1S750
G1X-0.1S0
G1X-0.1S750
G1X-0.2S0
G1X-0.1S750
G1X-0.2S0
G1X-0.2S750
G1X-0.2S0
G1X-0.1S750
G1X-0.2S0
G1X-0.1S750
G1X-0.1S0
G1X-0.1S750
G1X-0.2S0
G1X-0.1S750
G1X-0.2S0
G1X-0.1S750
G1X-0.2S0
G1X-0.1S750
G1X-0.2S0
G1X-0.1S750
G1X-0.1S0
G1X-0.1S750
G1X-0.2S0
G1X-0.1S750
G1X-0.1S0
G1X-0.1S750
G1X-0.1S0
G1X-0.1S750
G1X-0.1S0
G1X-0.1S750
G1X-0.2S0
G1X-1.1S750
G1X-0.4S0
G1X-0.7S750
G1X-43.1S0
G1X-1.1S750
G1X-9.2S0
G1X-4.4S750
G1X-0.1S0
G1X-0.1S750
G1X-0.5S0
G1X-0.1S750
G1X-0.1S0
G1X-0.2S750
G1X-0.1S0
G1X-0.2S750
G1X-0.1S0
G1X-0.2S750
G1X-0.1S0
G1X-0.1S750
G1X-0.3S0
G1X-0.1S750
G1X-0.1S0
G1X-1S750
G1X0.1Y0.1S0
G1X1S750
G1X0.1S0
G1X0.1S750
G1X0.1S0
G1X0.1S750
G1X0.4S0
G1X0.1S750
G1X0.3S0
G1X0.1S750
G1X0.2S0
G1X0.2S750
G1X0.1S0
G1X0.2S750
G1X0.8S0
G1X3.9S750
G1X9.1S0
G1X1.2S750
G1X43.2S0
G1X0.5S750
G1X0.6S0
G1X1.1S750
G1X0.2S0
G1X0.1S750
G1X0.1S0
G1X0.1S750
G1X0.1S0
G1X0.1S750
G1X0.1S0
G1X0.1S750
G1X0.2S0
G1X0.1S750
G1X0.1S0
G1X0.1S750
G1X0.2S0
G1X0.2S750
G1X0.2S0
G1X0.1S750
G1X0.2S0
G1X0.1S750
G1X0.1S0
G1X0.1S750
G1X0.1S0
G1X0.1S750
G1X0.1S0
G1X0.1S750
G1X0.2S0
G1X0.1S750
G1X0.2S0
G1X0.2S750
G1X0.1S0
G1X0.1S750
G1X0.1S0
G1X0.1S750
G1X0.1S0
G1X0.1S750
G1X0.2S0
G1X0.1S750
G1X0.1S0
G1X0.2S750
G1X0.1S0
G1X0.2S750
G1X0.2S0
G1X0.1S750
G1X0.2S0
G1X0.1S750
G1X0.1S0
G1X0.1S750
G1X0.1S0
G1X0.1S750
G1X0.2S0
G1X0.2S750
G1X0.1S0
G1X0.1S750
G1X0.1S0
G1X0.1S750
G1X0.2S0
G1X0.2S750
G1X0.1S0
G1X0.1S750
G1X0.2S0
G1X0.1S750
G1X0.2S0
G1X0.1S750
G1X0.2S0
G1X0.1S750
G1X0.2S0
G1X0.1S750
G1X0.2S0
G1X0.1S750
G1X0.1S0
G1X0.2S750
G1X0.1S0
G1X0.1S750
G1X0.2S0
G1X0.1S750
G1X0.2S0
G1X0.2S750
G1X0.1S0
G1X0.2S750
G1X0.1S0
G1X0.1S750
G1X0.2S0
G1X0.1S750
G1X0.1S0
G1X0.1S750
G1X0.2S0
G1X0.1S750
G1X0.2S0
G1X0.2S750
G1X0.2S0
G1X0.1S750
G1X0.2S0
G1X0.1S750
G1X0.1S0
G1X0.2S750
G1X0.1S0
G1X0.1S750
G1X0.1S0
G1X0.1S750
G1X0.2S0
G1X0.1S750
G1X0.2S0
G1X0.1S750
G1X0.3S0
G1X0.2S750
G1X0.1S0
G1X0.1S750
G1X0.2S0
G1X0.1S750
G1X0.2S0
G1X0.1S750
G1X0.2S0
G1X0.1S750
G1X0.2S0
G1X0.1S750
G1X0.1S0
G1X0.1S750
G1X0.2S0
G1X0.1S750
G1X0.2S0
G1X0.1S750
G1X0.1S0
G1X0.1S750
G1X0.1S0
G1X0.2S750
G1X0.1S0
G1X0.1S750
G1X0.1S0
G1X0.1S750
G1X0.1S0
G1X0.1S750
G1X0.1S0
G1X0.1S750
G1X0.4S0
G1X1S750
G1Y0.1S0
G1X-1S750
G1X-0.1S0
G1X-0.1S750
G1X-0.1S0
G1X-0.2S750
G1X-0.1S0
G1X-0.1S750
G1X-0.2S0
G1X-0.1S750
G1X-0.2S0
G1X-0.1S750
G1X-0.2S0
G1X-0.1S750
G1X-0.2S0
G1X-0.2S750
G1X-0.1S0
G1X-0.2S750
G1X-0.1S0
G1X-0.1S750
G1X-0.2S0
G1X-0.2S750
G1X-0.1S0
G1X-0.2S750
G1X-0.2S0
G1X-0.2S750
G1X-0.1S0
G1X-0.1S750
G1X-0.2S0
G1X-0.1S750
G1X-0.2S0
G1X-0.1S750
G1X-0.1S0
G1X-0.1S750
G1X-0.2S0
G1X-0.2S750
G1X-0.2S0
G1X-0.1S750
G1X-0.2S0
G1X-0.1S750
G1X-0.2S0
G1X-0.1S750
G1X-0.2S0
G1X-0.1S750
G1X-0.1S0
G1X-0.1S750
G1X-0.2S0
G1X-0.1S750
G1X-0.2S0
G1X-0.1S750
G1X-0.1S0
G1X-0.1S750
G1X-0.2S0
G1X-0.1S750
G1X-0.2S0
G1X-0.1S750
G1X-0.3S0
G1X-0.1S750
G1X-0.2S0
G1X-0.1S750
G1X-0.1S0
G1X-0.1S750
G1X-0.1S0
G1X-0.1S750
G1X-0.4S0
G1X-0.2S750
G1X-0.1S0
G1X-0.2S750
G1X-0.1S0
G1X-0.1S750
G1X-0.1S0
G1X-0.1S750
G1X-0.2S0
G1X-0.1S750
G1X-0.1S0
G1X-0.2S750
G1X-0.2S0
G1X-0.1S750
G1X-0.1S0
G1X-0.1S750
G1X-0.1S0
G1X-0.2S750
G1X-0.2S0
G1X-0.1S750
G1X-0.2S0
G1X-0.1S750
G1X-0.2S0
G1X-0.1S750
G1X-0.2S0
G1X-0.1S750
G1X-0.1S0
G1X-0.1S750
G1X-0.1S0
G1X-0.1S750
G1X-0.2S0
G1X-0.1S750
G1X-0.2S0
G1X-0.1S750
G1X-0.1S0
G1X-0.2S750
G1X-0.1S0
G1X-0.1S750
G1X-0.2S0
G1X-0.1S750
G1X-0.2S0
G1X-0.1S750
G1X-0.2S0
G1X-0.2S750
G1X-0.1S0
G1X-0.1S750
G1X-0.2S0
G1X-0.1S750
G1X-0.2S0
G1X-0.1S750
G1X-0.1S0
G1X-0.2S750
G1X-0.1S0
G1X-0.1S750
G1X-0.2S0
G1X-0.1S750
G1X-0.1S0
G1X-0.1S750
G1X-0.2S0
G1X-0.2S750
G1X-0.2S0
G1X-0.1S750
G1X-0.2S0
G1X-0.1S750
G1X-0.1S0
G1X-1.2S750
G1X-0.8S0
G1X-0.2S750
G1X-43.4S0
G1X-1.2S750
G1X-8.9S0
G1X-3.5S750
G1X-0.7S0
G1X-0.1S750
G1X-0.1S0
G1X-0.2S750
G1X-0.1S0
G1X-0.2S750
G1X-0.1S0
G1X-0.1S750
G1X-0.2S0
G1X-0.1S750
G1X-0.2S0
G1X-0.1S750
G1X-0.1S0
G1X-0.1S750
G1X-0.2S0
G1X-0.2S750
G1X-0.1S0
G1X-0.2S750
G1X-0.2S0
G1X-1S750
G1Y0.1S0
G1X1S750
G1X0.2S0
G1X0.1S750
G1X0.2S0
G1X0.1S750
G1X0.1S0
G1X0.1S750
G1X0.1S0
G1X0.2S750
G1X0.1S0
G1X0.1S750
G1X0.1S0
G1X0.1S750
G1X0.2S0
G1X0.1S750
G1X0.3S0
G1X0.1S750
G1X0.2S0
G1X0.4S750
G1X0.1S0
G1X0.1S750
G1X0.1S0
G1X0.1S750
G1X0.7S0
G1X2.9S750
G1X8.9S0
G1X1.1S750
G1X44.6S0
G1X1.2S750
G1X0.2S0
G1X0.1S750
G1X0.2S0
G1X0.1S750
G1X0.2S0
G1X0.1S750
G1X0.2S0
G1X0.2S750
G1X0.2S0
G1X0.1S750
G1X0.3S0
G1X0.1S750
G1X0.1S0
G1X0.1S750
G1X0.1S0
G1X0.1S750
G1X0.2S0
G1X0.1S750
G1X0.2S0
G1X0.1S750
G1X0.1S0
G1X0.2S750
G1X0.2S0
G1X0.1S750
G1X0.1S0
G1X0.1S750
G1X0.4S0
G1X0.1S750
G1X0.2S0
G1X0.1S750
G1X0.2S0
G1X0.1S750
G1X0.2S0
G1X0.1S750
G1X0.1S0
G1X0.2S750
G1X0.1S0
G1X0.1S750
G1X0.1S0
G1X0.1S750
G1X0.1S0
G1X0.2S750
G1X0.2S0
G1X0.1S750
G1X0.3S0
G1X0.1S750
G1X0.2S0
G1X0.1S750
G1X0.2S0
G1X0.1S750
G1X0.2S0
G1X0.2S750
G1X0.2S0
G1X0.1S750
G1X0.2S0
G1X0.1S750
G1X0.2S0
G1X0.1S750
G1X0.1S0
G1X0.1S750
G1X0.1S0
G1X0.1S750
G1X0.2S0
G1X0.1S750
G1X0.2S0
G1X0.1S750
G1X0.2S0
G1X0.1S750
G1X0.1S0
G1X0.1S750
G1X0.2S0
G1X0.2S750
G1X0.1S0
G1X0.1S750
G1X0.2S0
G1X0.2S750
G1X0.1S0
G1X0.1S750
G1X0.2S0
G1X0.1S750
G1X0.1S0
G1X0.1S750
G1X0.1S0
G1X0.2S750
G1X0.2S0
G1X0.1S750
G1X0.2S0
G1X0.1S750
G1X0.2S0
G1X0.1S750
G1X0.2S0
G1X0.2S750
G1X0.1S0
G1X0.2S750
G1X0.2S0
G1X0.1S750
G1X0.2S0
G1X0.1S750
G1X0.2S0
G1X0.1S750
G1X0.2S0
G1X0.1S750
G1X0.2S0
G1X0.1S750
G1X0.1S0
G1X0.1S750
G1X0.2S0
G1X0.1S750
G1X0.3S0
G1X0.1S750
G1X0.1S0
G1X0.1S750
G1X0.2S0
G1X0.1S750
G1X0.2S0
G1X0.1S750
G1X0.2S0
G1X0.1S750
G1X0.3S0
G1X0.1S750
G1X0.1S0
G1X0.1S750
G1X0.1S0
G1X1S750
G1X-0.1Y0.1S0
G1X-1S750
G1X-0.1S0
G1X-0.1S750
G1X-0.2S0
G1X-0.1S750
G1X-0.1S0
G1X-0.2S750
G1X-0.1S0
G1X-0.2S750
G1X-0.1S0
G1X-0.2S750
G1X-0.1S0
G1X-0.1S750
G1X-0.1S0
G1X-0.1S750
G1X-0.2S0
G1X-0.1S750
G1X-0.2S0
G1X-0.1S750
G1X-0.1S0
G1X-0.1S750
G1X-0.2S0
G1X-0.1S750
G1X-0.2S0
G1X-0.2S750
G1X-0.2S0
G1X-0.1S750
G1X-0.2S0
G1X-0.2S750
G1X-0.1S0
G1X-0.1S750
G1X-0.4S0
G1X-0.1S750
G1X-0.2S0
G1X-0.2S750
G1X-0.1S0
G1X-0.1S750
G1X-0.1S0
G1X-0.2S750
G1X-0.2S0
G1X-0.1S750
G1X-0.2S0
G1X-0.1S750
G1X-0.2S0
G1X-0.2S750
G1X-0.2S0
G1X-0.1S750
G1X-0.2S0
G1X-0.1S750
G1X-0.1S0
G1X-0.1S750
G1X-0.2S0
G1X-0.1S750
G1X-0.1S0
G1X-0.2S750
G1X-0.1S0
G1X-0.2S750
G1X-0.1S0
G1X-0.1S750
G1X-0.1S0
G1X-0.1S750
G1X-0.2S0
G1X-0.2S750
G1X-0.2S0
G1X-0.1S750
G1X-0.2S0
G1X-0.1S750
G1X-0.2S0
G1X-0.1S750
G1X-0.2S0
G1X-0.1S750
G1X-0.2S0
G1X-0.1S750
G1X-0.2S0
G1X-0.1S750
G1X-0.1S0
G1X-0.1S750
G1X-0.1S0
G1X-0.1S750
G1X-0.1S0
G1X-0.1S750
G1X-0.1S0
G1X-0.1S750
G1X-0.1S0
G1X-0.1S750
G1X-0.2S0
G1X-0.1S750
G1X-0.2S0
G1X-0.1S750
G1X-0.4S0
G1X-0.1S750
G1X-0.1S0
G1X-0.1S750
G1X-0.2S0
G1X-0.2S750
G1X-0.1S0
G1X-0.1S750
G1X-0.1S0
G1X-0.1S750
G1X-0.1S0
G1X-0.2S750
G1X-0.2S0
G1X-0.1S750
G1X-0.1S0
G1X-0.1S750
G1X-0.3S0
G1X-0.1S750
G1X-0.2S0
G1X-0.2S750
G1X-0.1S0
G1X-0.1S750
G1X-0.2S0
G1X-0.1S750
G1X-0.2S0
G1X-0.1S750
G1X-0.1S0
G1X-0.1S750
G1X-0.1S0
G1X-0.1S750
G1X-0.2S0
G1X-0.2S750
G1X-0.2S0
G1X-0.2S750
G1X-0.1S0
G1X-0.2S750
G1X-0.1S0
G1X-1.1S750
G1X-44.8S0
G1X-1.1S750
G1X-8.8S0
G1X-2.2S750
G1X-0.8S0
G1X-0.1S750
G1X-0.1S0
G1X-0.1S750
G1X-0.1S0
G1X-0.1S750
G1X-0.1S0
G1X-0.2S750
G1X-0.1S0
G1X-0.1S750
G1X-0.5S0
G1X-0.1S750
G1X-0.2S0
G1X-0.1S750
G1X-0.2S0
G1X-0.2S750
G1X-0.2S0
G1X-0.1S750
G1X-0.5S0
G1X-0.1S750
G1X-0.2S0
G1X-0.1S750
G1X-0.2S0
G1X-1S750
G1Y0.1S0
G1X1S750
G1X0.1S0
G1X0.2S750
G1X0.2S0
G1X0.2S750
G1X0.1S0
G1X0.2S750
G1X0.1S0
G1X0.1S750
G1X0.2S0
G1X0.1S750
G1X0.2S0
G1X0.2S750
G1X0.1S0
G1X0.2S750
G1X0.1S0
G1X0.1S750
G1X0.2S0
G1X0.1S750
G1X0.4S0
G1X0.1S750
G1X0.1S0
G1X0.1S750
G1X0.1S0
G1X0.2S750
G1X0.1S0
G1X0.1S750
G1X0.2S0
G1X0.1S750
G1X0.1S0
G1X0.1S750
G1X0.5S0
G1X0.1S750
G1X0.1S0
G1X1.6S750
G1X8.7S0
G1X1.1S750
G1X45S0
G1X1S750
G1X0.4S0
G1X0.1S750
G1X0.2S0
G1X0.1S750
G1X0.2S0
G1X0.1S750
G1X0.2S0
G1X0.1S750
G1X0.2S0
G1X0.2S750
G1X0.1S0
G1X0.1S750
G1X0.2S0
G1X0.1S750
G1X0.2S0
G1X0.1S750
G1X0.1S0
G1X0.2S750
G1X0.1S0
G1X0.1S750
G1X0.2S0
G1X0.1S750
G1X0.1S0
G1X0.1S750
G1X0.2S0
G1X0.1S750
G1X0.1S0
G1X0.1S750
G1X0.2S0
G1X0.1S750
G1X0.2S0
G1X0.2S750
G1X0.2S0
G1X0.2S750
G1X0.1S0
G1X0.1S750
G1X0.2S0
G1X0.1S750
G1X0.1S0
G1X0.1S750
G1X0.2S0
G1X0.1S750
G1X0.2S0
G1X0.1S750
G1X0.1S0
G1X0.1S750
G1X0.2S0
G1X0.1S750
G1X0.1S0
G1X0.2S750
G1X0.1S0
G1X0.2S750
G1X0.2S0
G1X0.1S750
G1X0.1S0
G1X0.2S750
G1X0.1S0
G1X0.1S750
G1X0.1S0
G1X0.1S750
G1X0.2S0
G1X0.1S750
G1X0.2S0
G1X0.2S750
G1X0.2S0
G1X0.1S750
G1X0.2S0
G1X0.1S750
G1X0.4S0
G1X0.2S750
G1X0.2S0
G1X0.1S750
G1X0.1S0
G1X0.1S750
G1X0.2S0
G1X0.1S750
G1X0.2S0
G1X0.1S750
G1X0.1S0
G1X0.1S750
G1X0.2S0
G1X0.1S750
G1X0.2S0
G1X0.1S750
G1X0.2S0
G1X0.1S750
G1X0.2S0
G1X0.1S750
G1X0.2S0
G1X0.2S750
G1X0.1S0
G1X0.2S750
G1X0.2S0
G1X0.1S750
G1X0.2S0
G1X0.2S750
G1X0.1S0
G1X0.1S750
G1X0.2S0
G1X0.1S750
G1X0.1S0
G1X0.1S750
G1X0.1S0
G1X0.1S750
G1X0.2S0
G1X0.1S750
G1X0.1S0
G1X0.1S750
G1X0.1S0
G1X0.2S750
G1X0.2S0
G1X0.1S750
G1X0.2S0
G1X0.1S750
G1X0.4S0
G1X0.1S750
G1X0.2S0
G1X0.1S750
G1X0.1S0
G1X0.1S750
G1X0.2S0
G1X1.1S750
G1Y0.1S0
G1X-1.1S750
G1X-0.1S0
G1X-0.1S750
G1X-0.1S0
G1X-0.1S750
G1X-0.2S0
G1X-0.1S750
G1X-0.2S0
G1X-0.2S750
G1X-0.2S0
G1X-0.1S750
G1X-0.2S0
G1X-0.1S750
G1X-0.1S0
G1X-0.1S750
G1X-0.3S0
G1X-0.1S750
G1X-0.2S0
G1X-0.1S750
G1X-0.1S0
G1X-0.1S750
G1X-0.2S0
G1X-0.1S750
G1X-0.2S0
G1X-0.1S750
G1X-0.2S0
G1X-0.1S750
G1X-0.3S0
G1X-0.1S750
G1X-0.2S0
G1X-0.1S750
G1X-0.2S0
G1X-0.1S750
G1X-0.2S0
G1X-0.1S750
G1X-0.2S0
G1X-0.1S750
G1X-0.2S0
G1X-0.2S750
G1X-0.1S0
G1X-0.2S750
G1X-0.1S0
G1X-0.1S750
G1X-0.1S0
G1X-0.1S750
G1X-0.2S0
G1X-0.1S750
G1X-0.1S0
G1X-0.2S750
G1X-0.1S0
G1X-0.1S750
G1X-0.2S0
G1X-0.1S750
G1X-0.2S0
G1X-0.1S750
G1X-0.1S0
G1X-0.1S750
G1X-0.2S0
G1X-0.1S750
G1X-0.1S0
G1X-0.1S750
G1X-0.2S0
G1X-0.1S750
G1X-0.2S0
G1X-0.2S750
G1X-0.1S0
G1X-0.1S750
G1X-0.1S0
G1X-0.1S750
G1X-0.2S0
G1X-0.1S750
G1X-0.2S0
G1X-0.1S750
G1X-0.1S0
G1X-0.1S750
G1X-0.4S0
G1X-0.1S750
G1X-0.2S0
G1X-0.1S750
G1X-0.2S0
G1X-0.1S750
G1X-0.2S0
G1X-0.1S750
G1X-0.1S0
G1X-0.1S750
G1X-0.1S0
G1X-0.1S750
G1X-0.1S0
G1X-0.1S750
G1X-0.1S0
G1X-0.2S750
G1X-0.2S0
G1X-0.1S750
G1X-0.2S0
G1X-0.1S750
G1X-0.3S0
G1X-0.1S750
G1X-0.2S0
G1X-0.1S750
G1X-0.2S0
G1X-0.1S750
G1X-0.1S0
G1X-0.1S750
G1X-0.2S0
G1X-0.1S750
G1X-0.1S0
G1X-0.1S750
G1X-0.3S0
G1X-0.1S750
G1X-0.2S0
G1X-0.1S750
G1X-0.1S0
G1X-0.2S750
G1X-0.2S0
G1X-0.1S750
G1X-0.2S0
G1X-0.1S750
G1X-0.1S0
G1X-0.2S750
G1X-0.2S0
G1X-0.2S750
G1X-0.2S0
G1X-0.1S750
G1X-0.1S0
G1X-1.2S750
G1X-45S0
G1X-1.2S750
G1X-8.6S0
G1X-0.9S750
G1X-0.1S0
G1X-0.1S750
G1X-0.6S0
G1X-0.1S750
G1X-0.2S0
G1X-0.2S750
G1X-0.1S0
G1X-0.2S750
G1X-0.1S0
G1X-0.2S750
G1X-0.1S0
G1X-0.1S750
G1X-0.3S0
G1X-0.1S750
G1X-0.2S0
G1X-0.1S750
G1X-0.1S0
G1X-0.2S750
G1X-0.1S0
G1X-0.3S750
G1X-0.2S0
G1X-0.1S750
G1X-0.2S0
G1X-0.1S750
G1X-0.2S0
G1X-0.1S750
G1X-0.1S0
G1X-0.2S750
G1X-0.2S0
G1X-0.1S750
G1X-0.2S0
G1X-0.1S750
G1X-0.2S0
G1X-0.1S750
G1X-0.2S0
G1X-1S750
G1Y0.1S0
G1X1S750
G1X0.2S0
G1X0.1S750
G1X0.1S0
G1X0.1S750
G1X0.2S0
G1X0.1S750
G1X0.2S0
G1X0.1S750
G1X0.2S0
G1X0.1S750
G1X0.1S0
G1X0.2S750
G1X0.2S0
G1X0.1S750
G1X0.2S0
G1X0.1S750
G1X0.4S0
G1X0.1S750
G1X0.1S0
G1X0.1S750
G1X0.1S0
G1X0.1S750
G1X0.2S0
G1X0.1S750
G1X0.2S0
G1X0.1S750
G1X0.2S0
G1X0.1S750
G1X0.4S0
G1X0.1S750
G1X0.1S0
G1X0.2S750
G1X0.1S0
G1X0.1S750
G1X0.1S0
G1X0.2S750
G1X0.2S0
G1X0.1S750
G1X0.1S0
G1X1S750
G1X8.5S0
G1X1.1S750
G1X45.2S0
G1X1.1S750
G1X0.1S0
G1X0.1S750
G1X0.2S0
G1X0.1S750
G1X0.2S0
G1X0.1S750
G1X0.2S0
G1X0.1S750
G1X0.1S0
G1X0.1S750
G1X0.1S0
G1X0.1S750
G1X0.2S0
G1X0.1S750
G1X0.2S0
G1X0.2S750
G1X0.1S0
G1X0.1S750
G1X0.2S0
G1X0.1S750
G1X0.2S0
G1X0.2S750
G1X0.2S0
G1X0.1S750
G1X0.1S0
G1X0.1S750
G1X0.1S0
G1X0.1S750
G1X0.1S0
G1X0.2S750
G1X0.1S0
G1X0.2S750
G1X0.2S0
G1X0.2S750
G1X0.4S0
G1X0.1S750
G1X0.2S0
G1X0.1S750
G1X0.2S0
G1X0.1S750
G1X0.1S0
G1X0.2S750
G1X0.2S0
G1X0.2S750
G1X0.1S0
G1X0.1S750
G1X0.2S0
G1X0.2S750
G1X0.2S0
G1X0.1S750
G1X0.1S0
G1X0.1S750
G1X0.2S0
G1X0.1S750
G1X0.2S0
G1X0.1S750
G1X0.3S0
G1X0.1S750
G1X0.2S0
G1X0.1S750
G1X0.1S0
G1X0.1S750
G1X0.1S0
G1X0.1S750
G1X0.1S0
G1X0.1S750
G1X0.1S0
G1X0.2S750
G1X0.1S0
G1X0.1S750
G1X0.2S0
G1X0.2S750
G1X0.4S0
G1X0.1S750
G1X0.1S0
G1X0.2S750
G1X0.2S0
G1X0.1S750
G1X0.4S0
G1X0.1S750
G1X0.2S0
G1X0.2S750
G1X0.1S0
G1X0.2S750
G1X0.1S0
G1X0.1S750
G1X0.2S0
G1X0.1S750
G1X0.2S0
G1X0.2S750
G1X0.1S0
G1X0.2S750
G1X0.2S0
G1X0.1S750
G1X0.1S0
G1X0.2S750
G1X0.1S0
G1X0.1S750
G1X0.2S0
G1X0.1S750
G1X0.1S0
G1X0.1S750
G1X0.1S0
G1X0.2S750
G1X0.1S0
G1X0.1S750
G1X0.2S0
G1X0.2S750
G1X0.1S0
G1X0.1S750
G1X0.1S0
G1X0.1S750
G1X0.1S0
G1X0.1S750
G1X0.1S0
G1X0.1S750
G1X0.1S0
G1X0.1S750
G1X0.2S0
G1X0.1S750
G1X0.1S0
G1X1S750
G1Y0.1S0
G1X-1.1S750
G1X-0.2S0
G1X-0.2S750
G1X-0.1S0
G1X-0.1S750
G1X-0.2S0
G1X-0.1S750
G1X-0.2S0
G1X-0.1S750
G1X-0.2S0
G1X-0.1S750
G1X-0.2S0
G1X-0.1S750
G1X-0.2S0
G1X-0.1S750
G1X-0.2S0
G1X-0.1S750
G1X-0.2S0
G1X-0.2S750
G1X-0.2S0
G1X-0.1S750
G1X-0.2S0
G1X-0.1S750
G1X-0.2S0
G1X-0.1S750
G1X-0.2S0
G1X-0.1S750
G1X-0.2S0
G1X-0.2S750
G1X-0.1S0
G1X-0.1S750
G1X-0.2S0
G1X-0.1S750
G1X-0.4S0
G1X-0.1S750
G1X-0.2S0
G1X-0.1S750
G1X-0.1S0
G1X-0.2S750
G1X-0.2S0
G1X-0.1S750
G1X-0.3S0
G1X-0.1S750
G1X-0.1S0
G1X-0.1S750
G1X-0.1S0
G1X-0.1S750
G1X-0.2S0
G1X-0.1S750
G1X-0.1S0
G1X-0.1S750
G1X-0.4S0
G1X-0.1S750
G1X-0.2S0
G1X-0.1S750
G1X-0.2S0
G1X-0.2S750
G1X-0.2S0
G1X-0.1S750
G1X-0.1S0
G1X-0.1S750
G1X-0.1S0
G1X-0.2S750
G1X-0.1S0
G1X-0.1S750
G1X-0.1S0
G1X-0.1S750
G1X-0.2S0
G1X-0.1S750
G1X-0.1S0
G1X-0.1S750
G1X-0.1S0
G1X-0.1S750
G1X-0.2S0
G1X-0.1S750
G1X-0.2S0
G1X-0.1S750
G1X-0.2S0
G1X-0.1S750
G1X-0.2S0
G1X-0.1S750
G1X-0.1S0
G1X-0.1S750
G1X-0.1S0
G1X-0.1S750
G1X-0.1S0
G1X-0.2S750
G1X-0.1S0
G1X-0.1S750
G1X-0.2S0
G1X-0.1S750
G1X-0.2S0
G1X-0.1S750
G1X-0.2S0
G1X-0.1S750
G1X-0.2S0
G1X-0.1S750
G1X-0.2S0
G1X-0.1S750
G1X-0.1S0
G1X-0.1S750
G1X-0.2S0
G1X-0.1S750
G1X-0.1S0
G1X-0.2S750
G1X-0.1S0
G1X-0.1S750
G1X-0.3S0
G1X-0.1S750
G1X-0.2S0
G1X-0.1S750
G1X-0.2S0
G1X-0.1S750
G1X-0.2S0
G1X-0.1S750
G1X-0.2S0
G1X-0.2S750
G1X-0.2S0
G1X-0.2S750
G1X-0.1S0
G1X-1.1S750
G1X-45.3S0
G1X-1.1S750
G1X-8.4S0
G1X-1S750
G1X-0.2S0
G1X-0.2S750
G1X-0.1S0
G1X-0.1S750
G1X-0.2S0
G1X-0.1S750
G1X-0.5S0
G1X-0.2S750
G1X-0.1S0
G1X-0.1S750
G1X-0.2S0
G1X-0.1S750
G1X-0.1S0
G1X-0.2S750
G1X-0.1S0
G1X-0.1S750
G1X-0.1S0
G1X-0.1S750
G1X-0.3S0
G1X-0.2S750
G1X-0.2S0
G1X-0.1S750
G1X-0.1S0
G1X-0.1S750
G1X-0.1S0
G1X-0.1S750
G1X-0.1S0
G1X-0.1S750
G1X-0.2S0
G1X-0.1S750
G1X-0.2S0
G1X-0.2S750
G1X-0.1S0
G1X-0.1S750
G1X-0.1S0
G1X-0.1S750
G1X-0.1S0
G1X-0.1S750
G1X-0.1S0
G1X-0.1S750
G1X-0.1S0
G1X-0.9S750
G1Y0.1S0
G1X1S750
G1X0.2S0
G1X0.1S750
G1X0.2S0
G1X0.1S750
G1X0.2S0
G1X0.1S750
G1X0.2S0
G1X0.1S750
G1X0.2S0
G1X0.1S750
G1X0.2S0
G1X0.1S750
G1X0.2S0
G1X0.1S750
G1X0.1S0
G1X0.2S750
G1X0.2S0
G1X0.1S750
G1X0.1S0
G1X0.1S750
G1X0.2S0
G1X0.1S750
G1X0.2S0
G1X0.1S750
G1X0.2S0
G1X0.2S750
G1X0.2S0
G1X0.1S750
G1X0.1S0
G1X0.3S750
G1X0.2S0
G1X0.1S750
G1X0.2S0
G1X0.1S750
G1X0.2S0
G1X0.1S750
G1X0.2S0
G1X1S750
G1X8.3S0
G1X1.1S750
G1X45.5S0
G1X1.1S750
G1X0.2S0
G1X0.1S750
G1X0.2S0
G1X0.1S750
G1X0.1S0
G1X0.2S750
G1X0.2S0
G1X0.2S750
G1X0.1S0
G1X0.2S750
G1X0.1S0
G1X0.2S750
G1X0.2S0
G1X0.1S750
G1X0.2S0
G1X0.1S750
G1X0.2S0
G1X0.1S750
G1X0.2S0
G1X0.1S750
G1X0.1S0
G1X0.1S750
G1X0.1S0
G1X0.1S750
G1X0.2S0
G1X0.1S750
G1X0.2S0
G1X0.1S750
G1X0.2S0
G1X0.2S750
G1X0.2S0
G1X0.1S750
G1X0.2S0
G1X0.1S750
G1X0.2S0
G1X0.1S750
G1X0.1S0
G1X0.2S750
G1X0.2S0
G1X0.1S750
G1X0.1S0
G1X0.1S750
G1X0.2S0
G1X0.1S750
G1X0.1S0
G1X0.1S750
G1X0.1S0
G1X0.1S750
G1X0.2S0
G1X0.2S750
G1X0.2S0
G1X0.1S750
G1X0.3S0
G1X0.1S750
G1X0.2S0
G1X0.2S750
G1X0.2S0
G1X0.1S750
G1X0.2S0
G1X0.1S750
G1X0.1S0
G1X0.1S750
G1X0.1S0
G1X0.2S750
G1X0.1S0
G1X0.1S750
G1X0.2S0
G1X0.1S750
G1X0.1S0
G1X0.1S750
G1X0.2S0
G1X0.1S750
G1X0.1S0
G1X0.1S750
G1X0.1S0
G1X0.1S750
G1X0.1S0
G1X0.1S750
G1X0.1S0
G1X0.1S750
G1X0.2S0
G1X0.1S750
G1X0.1S0
G1X0.2S750
G1X0.1S0
G1X0.2S750
G1X0.1S0
G1X0.1S750
G1X0.2S0
G1X0.1S750
G1X0.2S0
G1X0.1S750
G1X0.2S0
G1X0.1S750
G1X0.1S0
G1X0.1S750
G1X0.2S0
G1X0.1S750
G1X0.1S0
G1X0.2S750
G1X0.2S0
G1X0.1S750
G1X0.2S0
G1X0.1S750
G1X0.2S0
G1X0.2S750
G1X0.2S0
G1X0.1S750
G1X0.2S0
G1X0.2S750
G1X0.2S0
G1X0.1S750
G1X0.1S0
G1X0.1S750
G1X0.2S0
G1X0.1S750
G1X0.1S0
G1X0.1S750
G1X0.3S0
G1X0.1S750
G1X0.2S0
G1X1.1S750
G1Y0.1S0
G1X-1.1S750
G1X-0.2S0
G1X-0.1S750
G1X-0.2S0
G1X-0.2S750
G1X-0.2S0
G1X-0.2S750
G1X-0.2S0
G1X-0.1S750
G1X-0.1S0
G1X-0.1S750
G1X-0.1S0
G1X-0.1S750
G1X-0.2S0
G1X-0.2S750
G1X-0.1S0
G1X-0.1S750
G1X-0.2S0
G1X-0.1S750
G1X-0.2S0
G1X-0.1S750
G1X-0.1S0
G1X-0.2S750
G1X-0.2S0
G1X-0.1S750
G1X-0.2S0
G1X-0.1S750
G1X-0.1S0
G1X-0.1S750
G1X-0.1S0
G1X-0.1S750
G1X-0.2S0
G1X-0.1S750
G1X-0.1S0
G1X-0.2S750
G1X-0.1S0
G1X-0.2S750
G1X-0.1S0
G1X-0.1S750
G1X-0.4S0
G1X-0.1S750
G1X-0.2S0
G1X-0.1S750
G1X-0.2S0
G1X-0.2S750
G1X-0.2S0
G1X-0.1S750
G1X-0.2S0
G1X-0.1S750
G1X-0.1S0
G1X-0.1S750
G1X-0.2S0
G1X-0.2S750
G1X-0.1S0
G1X-0.1S750
G1X-0.3S0
G1X-0.1S750
G1X-0.1S0
G1X-0.1S750
G1X-0.2S0
G1X-0.1S750
G1X-0.1S0
G1X-0.1S750
G1X-0.2S0
G1X-0.1S750
G1X-0.2S0
G1X-0.1S750
G1X-0.1S0
G1X-0.2S750
G1X-0.2S0
G1X-0.1S750
G1X-0.2S0
G1X-0.1S750
G1X-0.2S0
G1X-0.1S750
G1X-0.1S0
G1X-0.2S750
G1X-0.1S0
G1X-0.1S750
G1X-0.1S0
G1X-0.1S750
G1X-0.1S0
G1X-0.1S750
G1X-0.3S0
G1X-0.1S750
G1X-0.1S0
G1X-0.1S750
G1X-0.2S0
G1X-0.1S750
G1X-0.2S0
G1X-0.1S750
G1X-0.2S0
G1X-0.2S750
G1X-0.1S0
G1X-0.1S750
G1X-0.1S0
G1X-0.2S750
G1X-0.2S0
G1X-0.1S750
G1X-0.2S0
G1X-0.1S750
G1X-0.1S0
G1X-0.2S750
G1X-0.2S0
G1X-0.1S750
G1X-0.2S0
G1X-0.1S750
G1X-0.1S0
G1X-0.1S750
G1X-0.2S0
G1X-0.1S750
G1X-0.2S0
G1X-0.1S750
G1X-0.2S0
G1X-0.1S750
G1X-0.2S0
G1X-0.1S750
G1X-0.2S0
G1X-0.2S750
G1X-0.2S0
G1X-1S750
G1X-45.6S0
G1X-1.1S750
G1X-8.3S0
G1X-0.9S750
G1X-0.2S0
G1X-0.1S750
G1X-0.1S0
G1X-0.1S750
G1X-0.2S0
G1X-0.2S750
G1X-0.1S0
G1X-0.2S750
G1X-0.1S0
G1X-0.1S750
G1X-0.4S0
G1X-0.1S750
G1X-0.2S0
G1X-0.1S750
G1X-0.2S0
G1X-0.1S750
G1X-0.2S0
G1X-0.1S750
G1X-0.1S0
G1X-0.2S750
G1X-0.2S0
G1X-0.1S750
G1X-0.2S0
G1X-0.1S750
G1X-0.2S0
G1X-0.1S750
G1X-0.1S0
G1X-0.1S750
G1X-0.2S0
G1X-0.1S750
G1X-0.1S0
G1X-0.2S750
G1X-0.1S0
G1X-0.1S750
G1X-0.2S0
G1X-0.1S750
G1X-0.1S0
G1X-0.1S750
G1X-0.1S0
G1X-0.1S750
G1X-0.1S0
G1X-1S750
G1Y0.1S0
G1X1.1S750
G1X0.2S0
G1X0.1S750
G1X0.1S0
G1X0.2S750
G1X0.2S0
G1X0.1S750
G1X0.2S0
G1X0.1S750
G1X0.1S0
G1X0.2S750
G1X0.2S0
G1X0.2S750
G1X0.2S0
G1X0.1S750
G1X0.1S0
G1X0.2S750
G1X0.3S0
G1X0.1S750
G1X0.1S0
G1X0.2S750
G1X0.1S0
G1X0.2S750
G1X0.2S0
G1X0.1S750
G1X0.1S0
G1X0.2S750
G1X0.5S0
G1X0.1S750
G1X0.2S0
G1X0.1S750
G1X0.1S0
G1X0.1S750
G1X0.2S0
G1X0.2S750
G1X0.1S0
G1X1S750
G1X8.1S0
G1X1.1S750
G1X45.7S0
G1X1.1S750
G1X0.2S0
G1X0.1S750
G1X0.2S0
G1X0.1S750
G1X0.2S0
G1X0.2S750
G1X0.2S0
G1X0.1S750
G1X0.2S0
G1X0.1S750
G1X0.2S0
G1X0.1S750
G1X0.1S0
G1X0.2S750
G1X0.1S0
G1X0.1S750
G1X0.2S0
G1X0.1S750
G1X0.1S0
G1X0.1S750
G1X0.1S0
G1X0.1S750
G1X0.1S0
G1X0.1S750
G1X0.2S0
G1X0.1S750
G1X0.2S0
G1X0.1S750
G1X0.2S0
G1X0.1S750
G1X0.2S0
G1X0.2S750
G1X0.1S0
G1X0.2S750
G1X0.2S0
G1X0.2S750
G1X0.2S0
G1X0.1S750
G1X0.2S0
G1X0.1S750
G1X0.3S0
G1X0.1S750
G1X0.2S0
G1X0.1S750
G1X0.1S0
G1X0.2S750
G1X0.2S0
G1X0.1S750
G1X0.2S0
G1X0.1S750
G1X0.1S0
G1X0.2S750
G1X0.1S0
G1X0.1S750
G1X0.2S0
G1X0.1S750
G1X0.1S0
G1X0.2S750
G1X0.1S0
G1X0.1S750
G1X0.2S0
G1X0.1S750
G1X0.1S0
G1X0.1S750
G1X0.3S0
G1X0.1S750
G1X0.1S0
G1X0.1S750
G1X0.2S0
G1X0.2S750
G1X0.1S0
G1X0.1S750
G1X0.2S0
G1X0.1S750
G1X0.2S0
G1X0.1S750
G1X0.1S0
G1X0.2S750
G1X0.1S0
G1X0.1S750
G1X0.1S0
G1X0.1S750
G1X0.6S0
G1X0.1S750
G1X0.2S0
G1X0.1S750
G1X0.1S0
G1X0.1S750
G1X0.2S0
G1X0.1S750
G1X0.1S0
G1X0.2S750
G1X0.2S0
G1X0.1S750
G1X0.3S0
G1X0.1S750
G1X0.1S0
G1X0.1S750
G1X0.1S0
G1X0.2S750
G1X0.2S0
G1X0.1S750
G1X0.2S0
G1X0.2S750
G1X0.2S0
G1X0.1S750
G1X0.2S0
G1X0.1S750
G1X0.1S0
G1X0.1S750
G1X0.2S0
G1X0.1S750
G1X0.2S0
G1X0.2S750
G1X0.1S0
G1X1.1S750
G1Y0.1S0
G1X-1S750
G1X-0.3S0
G1X-0.1S750
G1X-0.2S0
G1X-0.2S750
G1X-0.2S0
G1X-0.1S750
G1X-0.1S0
G1X-0.1S750
G1X-0.1S0
G1X-0.1S750
G1X-0.2S0
G1X-0.1S750
G1X-0.2S0
G1X-0.1S750
G1X-0.2S0
G1X-0.1S750
G1X-0.2S0
G1X-0.1S750
G1X-0.2S0
G1X-0.1S750
G1X-0.2S0
G1X-0.2S750
G1X-0.1S0
G1X-0.1S750
G1X-0.2S0
G1X-0.1S750
G1X-0.2S0
G1X-0.1S750
G1X-0.1S0
G1X-0.1S750
G1X-0.1S0
G1X-0.1S750
G1X-0.2S0
G1X-0.1S750
G1X-0.1S0
G1X-0.2S750
G1X-0.1S0
G1X-0.3S750
G1X-0.2S0
G1X-0.1S750
G1X-0.2S0
G1X-0.1S750
G1X-0.1S0
G1X-0.1S750
G1X-0.2S0
G1X-0.2S750
G1X-0.2S0
G1X-0.1S750
G1X-0.2S0
G1X-0.1S750
G1X-0.2S0
G1X-0.1S750
G1X-0.1S0
G1X-0.1S750
G1X-0.1S0
G1X-0.2S750
G1X-0.1S0
G1X-0.1S750
G1X-0.1S0
G1X-0.1S750
G1X-0.4S0
G1X-0.2S750
G1X-0.1S0
G1X-0.1S750
G1X-0.3S0
G1X-0.1S750
G1X-0.2S0
G1X-0.2S750
G1X-0.1S0
G1X-0.1S750
G1X-0.3S0
G1X-0.1S750
G1X-0.2S0
G1X-0.1S750
G1X-0.1S0
G1X-0.1S750
G1X-0.1S0
G1X-0.1S750
G1X-0.2S0
G1X-0.2S750
G1X-0.1S0
G1X-0.1S750
G1X-0.2S0
G1X-0.1S750
G1X-0.2S0
G1X-0.1S750
G1X-0.2S0
G1X-0.2S750
G1X-0.2S0
G1X-0.1S750
G1X-0.1S0
G1X-0.1S750
G1X-0.2S0
G1X-0.2S750
G1X-0.1S0
G1X-0.1S750
G1X-0.2S0
G1X-0.1S750
G1X-0.2S0
G1X-0.1S750
G1X-0.1S0
G1X-0.1S750
G1X-0.2S0
G1X-0.1S750
G1X-0.2S0
G1X-0.1S750
G1X-0.1S0
G1X-0.1S750
G1X-0.1S0
G1X-0.1S750
G1X-0.2S0
G1X-0.1S750
G1X-0.2S0
G1X-0.1S750
G1X-0.1S0
G1X-0.2S750
G1X-0.1S0
G1X-0.1S750
G1X-0.1S0
G1X-1S750
G1X-45.9S0
G1X-1.1S750
G1X-8S0
G1X-1S750
G1X-0.2S0
G1X-0.1S750
G1X-0.2S0
G1X-0.1S750
G1X-0.2S0
G1X-0.1S750
G1X-0.2S0
G1X-0.1S750
G1X-0.1S0
G1X-0.3S750
G1X-0.1S0
G1X-0.1S750
G1X-0.2S0
G1X-0.1S750
G1X-0.1S0
G1X-0.1S750
G1X-0.4S0
G1X-0.1S750
G1X-0.2S0
G1X-0.1S750
G1X-0.1S0
G1X-0.1S750
G1X-0.3S0
G1X-0.1S750
G1X-0.2S0
G1X-0.1S750
G1X-0.2S0
G1X-0.1S750
G1X-0.3S0
G1X-0.1S750
G1X-0.2S0
G1X-0.1S750
G1X-0.1S0
G1X-0.1S750
G1X-0.2S0
G1X-0.1S750
G1X-0.2S0
G1X-1S750
G1Y0.1S0
G1X1S750
G1X0.1S0
G1X0.1S750
G1X0.2S0
G1X0.1S750
G1X0.2S0
G1X0.1S750
G1X0.1S0
G1X0.1S750
G1X0.1S0
G1X0.1S750
G1X0.1S0
G1X0.1S750
G1X0.1S0
G1X0.1S750
G1X0.2S0
G1X0.2S750
G1X0.1S0
G1X0.2S750
G1X0.2S0
G1X0.1S750
G1X0.1S0
G1X0.1S750
G1X0.1S0
G1X0.1S750
G1X0.1S0
G1X0.2S750
G1X0.2S0
G1X0.1S750
G1X0.1S0
G1X0.1S750
G1X0.2S0
G1X0.1S750
G1X0.2S0
G1X0.1S750
G1X0.1S0
G1X0.1S750
G1X0.1S0
G1X0.1S750
G1X0.2S0
G1X0.1S750
G1X0.1S0
G1X0.1S750
G1X0.1S0
G1X0.1S750
G1X0.1S0
G1X1.1S750
G1X8S0
G1X1.1S750
G1X45.9S0
G1X1.1S750
G1X0.3S0
G1X0.1S750
G1X0.2S0
G1X0.1S750
G1X0.2S0
G1X0.2S750
G1X0.1S0
G1X0.1S750
G1X0.2S0
G1X0.2S750
G1X0.2S0
G1X0.1S750
G1X0.2S0
G1X0.1S750
G1X0.1S0
G1X0.1S750
G1X0.1S0
G1X0.1S750
G1X0.2S0
G1X0.1S750
G1X0.2S0
G1X0.1S750
G1X0.1S0
G1X0.1S750
G1X0.1S0
G1X0.1S750
G1X0.1S0
G1X0.1S750
G1X0.2S0
G1X0.1S750
G1X0.2S0
G1X0.1S750
G1X0.2S0
G1X0.1S750
G1X0.1S0
G1X0.1S750
G1X0.3S0
G1X0.1S750
G1X0.1S0
G1X0.1S750
G1X0.1S0
G1X0.1S750
G1X0.1S0
G1X0.1S750
G1X0.1S0
G1X0.2S750
G1X0.1S0
G1X0.2S750
G1X0.2S0
G1X0.1S750
G1X0.2S0
G1X0.2S750
G1X0.1S0
G1X0.1S750
G1X0.2S0
G1X0.1S750
G1X0.2S0
G1X0.1S750
G1X0.1S0
G1X0.1S750
G1X0.1S0
G1X0.1S750
G1X0.2S0
G1X0.1S750
G1X0.4S0
G1X0.1S750
G1X0.1S0
G1X0.1S750
G1X0.1S0
G1X0.2S750
G1X0.1S0
G1X0.1S750
G1X0.2S0
G1X0.1S750
G1X0.2S0
G1X0.1S750
G1X0.1S0
G1X0.1S750
G1X0.2S0
G1X0.1S750
G1X0.2S0
G1X0.1S750
G1X0.4S0
G1X0.1S750
G1X0.1S0
G1X0.1S750
G1X0.1S0
G1X0.1S750
G1X0.1S0
G1X0.1S750
G1X0.2S0
G1X0.1S750
G1X0.1S0
G1X0.2S750
G1X0.2S0
G1X0.1S750
G1X0.2S0
G1X0.1S750
G1X0.2S0
G1X0.2S750
G1X0.1S0
G1X0.1S750
G1X0.1S0
G1X0.1S750
G1X0.2S0
G1X0.2S750
G1X0.1S0
G1X0.1S750
G1X0.2S0
G1X0.1S750
G1X0.1S0
G1X0.1S750
G1X0.1S0
G1X0.1S750
G1X0.2S0
G1X0.1S750
G1X0.2S0
G1X0.1S750
G1X0.2S0
G1X0.1S750
G1X0.2S0
G1X1.1S750
G1Y0.1S0
G1X-1S750
G1X-0.2S0
G1X-0.2S750
G1X-0.1S0
G1X-0.1S750
G1X-0.2S0
G1X-0.2S750
G1X-0.1S0
G1X-0.1S750
G1X-0.2S0
G1X-0.1S750
G1X-0.2S0
G1X-0.2S750
G1X-0.1S0
G1X-0.1S750
G1X-0.3S0
G1X-0.2S750
G1X-0.2S0
G1X-0.1S750
G1X-0.3S0
G1X-0.1S750
G1X-0.2S0
G1X-0.2S750
G1X-0.2S0
G1X-0.1S750
G1X-0.3S0
G1X-0.1S750
G1X-0.1S0
G1X-0.1S750
G1X-0.2S0
G1X-0.1S750
G1X-0.3S0
G1X-0.1S750
G1X-0.2S0
G1X-0.2S750
G1X-0.1S0
G1X-0.2S750
G1X-0.1S0
G1X-0.1S750
G1X-0.1S0
G1X-0.1S750
G1X-0.1S0
G1X-0.1S750
G1X-0.2S0
G1X-0.2S750
G1X-0.1S0
G1X-0.1S750
G1X-0.2S0
G1X-0.1S750
G1X-0.3S0
G1X-0.2S750
G1X-0.1S0
G1X-0.2S750
G1X-0.2S0
G1X-0.2S750
G1X-0.1S0
G1X-0.1S750
G1X-0.3S0
G1X-0.1S750
G1X-0.1S0
G1X-0.2S750
G1X-0.4S0
G1X-0.1S750
G1X-0.2S0
G1X-0.1S750
G1X-0.1S0
G1X-0.1S750
G1X-0.3S0
G1X-0.1S750
G1X-0.3S0
G1X-0.1S750
G1X-0.2S0
G1X-0.1S750
G1X-0.2S0
G1X-0.1S750
G1X-0.1S0
G1X-0.1S750
G1X-0.2S0
G1X-0.1S750
G1X-0.1S0
G1X-0.2S750
G1X-0.2S0
G1X-0.1S750
G1X-0.1S0
G1X-0.1S750
G1X-0.2S0
G1X-0.1S750
G1X-0.2S0
G1X-0.1S750
G1X-0.2S0
G1X-0.2S750
G1X-0.1S0
G1X-0.1S750
G1X-0.2S0
G1X-0.1S750
G1X-0.2S0
G1X-0.2S750
G1X-0.1S0
G1X-0.1S750
G1X-0.2S0
G1X-0.1S750
G1X-0.2S0
G1X-0.1S750
G1X-0.2S0
G1X-0.2S750
G1X-0.1S0
G1X-0.1S750
G1X-0.2S0
G1X-0.1S750
G1X-0.1S0
G1X-1S750
G1X-46.1S0
G1X-1.1S750
G1X-7.9S0
G1X-1S750
G1X-0.3S0
G1X-0.1S750
G1X-0.2S0
G1X-0.1S750
G1X-0.1S0
G1X-0.2S750
G1X-0.2S0
G1X-0.1S750
G1X-0.2S0
G1X-0.1S750
G1X-0.2S0
G1X-0.2S750
G1X-0.2S0
G1X-0.1S750
G1X-0.1S0
G1X-0.1S750
G1X-0.1S0
G1X-0.1S750
G1X-0.2S0
G1X-0.1S750
G1X-0.2S0
G1X-0.1S750
G1X-0.1S0
G1X-0.1S750
G1X-0.2S0
G1X-0.1S750
G1X-0.2S0
G1X-0.2S750
G1X-0.2S0
G1X-0.2S750
G1X-0.2S0
G1X-0.1S750
G1X-0.1S0
G1X-0.1S750
G1X-0.1S0
G1X-0.1S750
G1X-0.1S0
G1X-0.2S750
G1X-0.1S0
G1X-1S750
G1X0.1Y0.1S0
G1X1S750
G1X0.2S0
G1X0.1S750
G1X0.2S0
G1X0.1S750
G1X0.2S0
G1X0.1S750
G1X0.2S0
G1X0.1S750
G1X0.2S0
G1X0.1S750
G1X0.2S0
G1X0.1S750
G1X0.2S0
G1X0.1S750
G1X0.2S0
G1X0.1S750
G1X0.1S0
G1X0.1S750
G1X0.1S0
G1X0.1S750
G1X0.4S0
G1X0.1S750
G1X0.1S0
G1X0.1S750
G1X0.2S0
G1X0.1S750
G1X0.1S0
G1X0.2S750
G1X0.2S0
G1X0.1S750
G1X0.2S0
G1X0.1S750
G1X0.2S0
G1X0.1S750
G1X0.1S0
G1X0.2S750
G1X0.1S0
G1X0.1S750
G1X0.2S0
G1X0.9S750
G1X7.9S0
G1X1S750
G1X46.2S0
G1X1S750
G1X0.1S0
G1X0.2S750
G1X0.1S0
G1X0.1S750
G1X0.2S0
G1X0.1S750
G1X0.2S0
G1X0.1S750
G1X0.2S0
G1X0.2S750
G1X0.2S0
G1X0.1S750
G1X0.2S0
G1X0.1S750
G1X0.1S0
G1X0.1S750
G1X0.2S0
G1X0.1S750
G1X0.2S0
G1X0.1S750
G1X0.1S0
G1X0.1S750
G1X0.2S0
G1X0.1S750
G1X0.1S0
G1X0.1S750
G1X0.2S0
G1X0.1S750
G1X0.1S0
G1X0.1S750
G1X0.2S0
G1X0.1S750
G1X0.2S0
G1X0.1S750
G1X0.1S0
G1X0.1S750
G1X0.1S0
G1X0.2S750
G1X0.1S0
G1X0.1S750
G1X0.2S0
G1X0.2S750
G1X0.1S0
G1X0.1S750
G1X0.2S0
G1X0.1S750
G1X0.2S0
G1X0.1S750
G1X0.1S0
G1X0.1S750
G1X0.1S0
G1X0.2S750
G1X0.1S0
G1X0.1S750
G1X0.2S0
G1X0.1S750
G1X0.2S0
G1X0.2S750
G1X0.2S0
G1X0.1S750
G1X0.2S0
G1X0.1S750
G1X0.2S0
G1X0.1S750
G1X0.2S0
G1X0.1S750
G1X0.1S0
G1X0.2S750
G1X0.2S0
G1X0.1S750
G1X0.3S0
G1X0.1S750
G1X0.1S0
G1X0.1S750
G1X0.2S0
G1X0.1S750
G1X0.2S0
G1X0.1S750
G1X0.4S0
G1X0.2S750
G1X0.1S0
G1X0.2S750
G1X0.1S0
G1X0.1S750
G1X0.2S0
G1X0.1S750
G1X0.1S0
G1X0.1S750
G1X0.1S0
G1X0.1S750
G1X0.2S0
G1X0.1S750
G1X0.1S0
G1X0.1S750
G1X0.2S0
G1X0.1S750
G1X0.1S0
G1X0.2S750
G1X0.2S0
G1X0.1S750
G1X0.2S0
G1X0.1S750
G1X0.1S0
G1X0.1S750
G1X0.1S0
G1X0.1S750
G1X0.3S0
G1X0.1S750
G1X0.1S0
G1X0.1S750
G1X0.1S0
G1X0.1S750
G1X0.1S0
G1X0.1S750
G1X0.2S0
G1X0.1S750
G1X0.1S0
G1X0.1S750
G1X0.2S0
G1X0.1S750
G1X0.2S0
G1X1.1S750
G1Y0.1S0
G1X-1.1S750
G1X-0.1S0
G1X-0.1S750
G1X-0.2S0
G1X-0.2S750
G1X-0.2S0
G1X-0.1S750
G1X-0.2S0
G1X-0.1S750
G1X-0.1S0
G1X-0.1S750
G1X-0.2S0
G1X-0.1S750
G1X-0.2S0
G1X-0.2S750
G1X-0.1S0
G1X-0.1S750
G1X-0.2S0
G1X-0.1S750
G1X-0.1S0
G1X-0.2S750
G1X-0.1S0
G1X-0.1S750
G1X-0.2S0
G1X-0.1S750
G1X-0.1S0
G1X-0.1S750
G1X-0.2S0
G1X-0.1S750
G1X-0.1S0
G1X-0.2S750
G1X-0.1S0
G1X-0.1S750
G1X-0.2S0
G1X-0.2S750
G1X-0.1S0
G1X-0.1S750
G1X-0.2S0
G1X-0.1S750
G1X-0.4S0
G1X-0.2S750
G1X-0.2S0
G1X-0.1S750
G1X-0.1S0
G1X-0.1S750
G1X-0.1S0
G1X-0.1S750
G1X-0.1S0
G1X-0.1S750
G1X-0.2S0
G1X-0.2S750
G1X-0.1S0
G1X-0.1S750
G1X-0.2S0
G1X-0.1S750
G1X-0.2S0
G1X-0.1S750
G1X-0.2S0
G1X-0.2S750
G1X-0.2S0
G1X-0.1S750
G1X-0.1S0
G1X-0.1S750
G1X-0.1S0
G1X-0.1S750
G1X-0.1S0
G1X-0.1S750
G1X-0.2S0
G1X-0.2S750
G1X-0.1S0
G1X-0.1S750
G1X-0.2S0
G1X-0.1S750
G1X-0.2S0
G1X-0.1S750
G1X-0.1S0
G1X-0.2S750
G1X-0.1S0
G1X-0.1S750
G1X-0.1S0
G1X-0.1S750
G1X-0.2S0
G1X-0.1S750
G1X-0.1S0
G1X-0.1S750
G1X-0.2S0
G1X-0.1S750
G1X-0.2S0
G1X-0.1S750
G1X-0.1S0
G1X-0.1S750
G1X-0.2S0
G1X-0.1S750
G1X-0.1S0
G1X-0.1S750
G1X-0.2S0
G1X-0.2S750
G1X-0.2S0
G1X-0.2S750
G1X-0.2S0
G1X-0.1S750
G1X-0.2S0
G1X-0.1S750
G1X-0.1S0
G1X-0.2S750
G1X-0.1S0
G1X-0.1S750
G1X-0.2S0
G1X-0.1S750
G1X-0.2S0
G1X-0.1S750
G1X-0.2S0
G1X-0.1S750
G1X-0.1S0
G1X-0.2S750
G1X-0.1S0
G1X-0.1S750
G1X-0.2S0
G1X-0.1S750
G1X-0.2S0
G1X-1S750
G1X-46.3S0
G1X-1.1S750
G1X-7.7S0
G1X-1S750
G1X-0.1S0
G1X-0.1S750
G1X-0.1S0
G1X-0.1S750
G1X-0.2S0
G1X-0.1S750
G1X-0.2S0
G1X-0.1S750
G1X-0.2S0
G1X-0.2S750
G1X-0.1S0
G1X-0.1S750
G1X-0.2S0
G1X-0.1S750
G1X-0.2S0
G1X-0.2S750
G1X-0.2S0
G1X-0.1S750
G1X-0.1S0
G1X-0.2S750
G1X-0.1S0
G1X-0.1S750
G1X-0.2S0
G1X-0.1S750
G1X-0.2S0
G1X-0.2S750
G1X-0.1S0
G1X-0.2S750
G1X-0.2S0
G1X-0.1S750
G1X-0.1S0
G1X-0.1S750
G1X-0.2S0
G1X-0.2S750
G1X-0.1S0
G1X-0.1S750
G1X-0.2S0
G1X-0.1S750
G1X-0.2S0
G1X-1S750
G1Y0.1S0
G1X1S750
G1X0.1S0
G1X0.1S750
G1X0.1S0
G1X0.2S750
G1X0.2S0
G1X0.1S750
G1X0.2S0
G1X0.1S750
G1X0.1S0
G1X0.1S750
G1X0.1S0
G1X0.1S750
G1X0.5S0
G1X0.1S750
G1X0.1S0
G1X0.2S750
G1X0.1S0
G1X0.1S750
G1X0.2S0
G1X0.1S750
G1X0.1S0
G1X0.2S750
G1X0.2S0
G1X0.1S750
G1X0.2S0
G1X0.1S750
G1X0.2S0
G1X0.1S750
G1X0.2S0
G1X0.1S750
G1X0.2S0
G1X0.2S750
G1X0.1S0
G1X0.1S750
G1X0.2S0
G1X0.1S750
G1X0.2S0
G1X0.1S750
G1X0.1S0
G1X1S750
G1X7.6S0
G1X1.1S750
G1X46.4S0
G1X1S750
G1X0.2S0
G1X0.1S750
G1X0.1S0
G1X0.1S750
G1X0.2S0
G1X0.1S750
G1X0.2S0
G1X0.2S750
G1X0.2S0
G1X0.2S750
G1X0.1S0
G1X0.1S750
G1X0.2S0
G1X0.1S750
G1X0.2S0
G1X0.1S750
G1X0.1S0
G1X0.1S750
G1X0.1S0
G1X0.1S750
G1X0.2S0
G1X0.1S750
G1X0.2S0
G1X0.1S750
G1X0.2S0
G1X0.1S750
G1X0.2S0
G1X0.1S750
G1X0.1S0
G1X0.1S750
G1X0.1S0
G1X0.1S750
G1X0.2S0
G1X0.1S750
G1X0.2S0
G1X0.1S750
G1X0.2S0
G1X0.1S750
G1X0.1S0
G1X0.1S750
G1X0.2S0
G1X0.1S750
G1X0.2S0
G1X0.1S750
G1X0.2S0
G1X0.1S750
G1X0.1S0
G1X0.1S750
G1X0.2S0
G1X0.1S750
G1X0.3S0
G1X0.1S750
G1X0.1S0
G1X0.1S750
G1X0.3S0
G1X0.1S750
G1X0.1S0
G1X0.1S750
G1X0.1S0
G1X0.1S750
G1X0.2S0
G1X0.1S750
G1X0.1S0
G1X0.2S750
G1X0.2S0
G1X0.1S750
G1X0.2S0
G1X0.1S750
G1X0.2S0
G1X0.1S750
G1X0.1S0
G1X0.1S750
G1X0.2S0
G1X0.1S750
G1X0.2S0
G1X0.1S750
G1X0.1S0
G1X0.1S750
G1X0.2S0
G1X0.3S750
G1X0.1S0
G1X0.1S750
G1X0.2S0
G1X0.1S750
G1X0.2S0
G1X0.1S750
G1X0.2S0
G1X0.1S750
G1X0.3S0
G1X0.1S750
G1X0.2S0
G1X0.1S750
G1X0.1S0
G1X0.1S750
G1X0.2S0
G1X0.1S750
G1X0.2S0
G1X0.1S750
G1X0.2S0
G1X0.1S750
G1X0.2S0
G1X0.1S750
G1X0.3S0
G1X0.1S750
G1X0.1S0
G1X0.1S750
G1X0.1S0
G1X0.1S750
G1X0.2S0
G1X0.1S750
G1X0.1S0
G1X0.1S750
G1X0.1S0
G1X0.1S750
G1X0.2S0
G1X0.1S750
G1X0.2S0
G1X0.2S750
G1X0.1S0
G1X0.9S750
G1Y0.1S0
G1X-1S750
G1X-0.2S0
G1X-0.1S750
G1X-0.2S0
G1X-0.2S750
G1X-0.1S0
G1X-0.1S750
G1X-0.1S0
G1X-0.1S750
G1X-0.2S0
G1X-0.2S750
G1X-0.1S0
G1X-0.1S750
G1X-0.2S0
G1X-0.1S750
G1X-0.1S0
G1X-0.1S750
G1X-0.1S0
G1X-0.2S750
G1X-0.2S0
G1X-0.1S750
G1X-0.2S0
G1X-0.2S750
G1X-0.1S0
G1X-0.1S750
G1X-0.1S0
G1X-0.2S750
G1X-0.1S0
G1X-0.1S750
G1X-0.2S0
G1X-0.1S750
G1X-0.1S0
G1X-0.2S750
G1X-0.1S0
G1X-0.1S750
G1X-0.2S0
G1X-0.1S750
G1X-0.1S0
G1X-0.1S750
G1X-0.1S0
G1X-0.1S750
G1X-0.4S0
G1X-0.1S750
G1X-0.1S0
G1X-0.1S750
G1X-0.2S0
G1X-0.1S750
G1X-0.1S0
G1X-0.1S750
G1X-0.1S0
G1X-0.1S750
G1X-0.2S0
G1X-0.1S750
G1X-0.2S0
G1X-0.1S750
G1X-0.1S0
G1X-0.2S750
G1X-0.1S0
G1X-0.1S750
G1X-0.2S0
G1X-0.1S750
G1X-0.2S0
G1X-0.1S750
G1X-0.2S0
G1X-0.1S750
G1X-0.2S0
G1X-0.2S750
G1X-0.2S0
G1X-0.1S750
G1X-0.2S0
G1X-0.1S750
G1X-0.1S0
G1X-0.2S750
G1X-0.1S0
G1X-0.1S750
G1X-0.2S0
G1X-0.1S750
G1X-0.2S0
G1X-0.1S750
G1X-0.2S0
G1X-0.2S750
G1X-0.1S0
G1X-0.1S750
G1X-0.2S0
G1X-0.1S750
G1X-0.1S0
G1X-0.2S750
G1X-0.1S0
G1X-0.1S750
G1X-0.1S0
G1X-0.1S750
G1X-0.1S0
G1X-0.1S750
G1X-0.2S0
G1X-0.2S750
G1X-0.2S0
G1X-0.2S750
G1X-0.2S0
G1X-0.2S750
G1X-0.1S0
G1X-0.1S750
G1X-0.1S0
G1X-0.1S750
G1X-0.2S0
G1X-0.1S750
G1X-0.2S0
G1X-0.2S750
G1X-0.2S0
G1X-0.1S750
G1X-0.2S0
G1X-0.1S750
G1X-0.2S0
G1X-0.1S750
G1X-0.2S0
G1X-0.1S750
G1X-0.1S0
G1X-0.1S750
G1X-0.1S0
G1X-0.1S750
G1X-0.1S0
G1X-1S750
G1X-46.5S0
G1X-1S750
G1X-7.5S0
G1X-1S750
G1X-0.2S0
G1X-0.1S750
G1X-0.2S0
G1X-0.2S750
G1X-0.1S0
G1X-0.1S750
G1X-0.2S0
G1X-0.1S750
G1X-0.2S0
G1X-0.1S750
G1X-0.2S0
G1X-0.2S750
G1X-0.1S0
G1X-0.2S750
G1X-0.2S0
G1X-0.1S750
G1X-0.1S0
G1X-0.1S750
G1X-0.4S0
G1X-0.1S750
G1X-0.1S0
G1X-0.1S750
G1X-0.4S0
G1X-0.1S750
G1X-0.1S0
G1X-0.3S750
G1X-0.2S0
G1X-0.1S750
G1X-0.2S0
G1X-0.1S750
G1X-0.1S0
G1X-0.1S750
G1X-0.2S0
G1X-0.1S750
G1X-0.3S0
G1X-1S750
G1Y0.1S0
G1X1S750
G1X0.1S0
G1X0.1S750
G1X0.2S0
G1X0.2S750
G1X0.2S0
G1X0.1S750
G1X0.1S0
G1X0.1S750
G1X0.1S0
G1X0.1S750
G1X0.2S0
G1X0.1S750
G1X0.1S0
G1X0.1S750
G1X0.1S0
G1X0.2S750
G1X0.1S0
G1X0.1S750
G1X0.2S0
G1X0.2S750
G1X0.1S0
G1X0.1S750
G1X0.2S0
G1X0.1S750
G1X0.1S0
G1X0.1S750
G1X0.5S0
G1X0.1S750
G1X0.1S0
G1X0.2S750
G1X0.1S0
G1X0.1S750
G1X0.2S0
G1X0.1S750
G1X0.2S0
G1X0.1S750
G1X0.2S0
G1X0.2S750
G1X0.2S0
G1X1S750
G1X7.4S0
G1X1.1S750
G1X46.6S0
G1X1S750
G1X0.2S0
G1X0.1S750
G1X0.2S0
G1X0.1S750
G1X0.1S0
G1X0.1S750
G1X0.2S0
G1X0.1S750
G1X0.1S0
G1X0.1S750
G1X0.2S0
G1X0.1S750
G1X0.2S0
G1X0.1S750
G1X0.1S0
G1X0.1S750
G1X0.2S0
G1X0.1S750
G1X0.3S0
G1X0.1S750
G1X0.2S0
G1X0.1S750
G1X0.2S0
G1X0.1S750
G1X0.2S0
G1X0.1S750
G1X0.1S0
G1X0.1S750
G1X0.2S0
G1X0.1S750
G1X0.2S0
G1X0.1S750
G1X0.2S0
G1X0.1S750
G1X0.1S0
G1X0.2S750
G1X0.3S0
G1X0.1S750
G1X0.1S0
G1X0.2S750
G1X0.1S0
G1X0.2S750
G1X0.1S0
G1X0.1S750
G1X0.2S0
G1X0.1S750
G1X0.2S0
G1X0.2S750
G1X0.1S0
G1X0.1S750
G1X0.2S0
G1X0.2S750
G1X0.2S0
G1X0.1S750
G1X0.1S0
G1X0.1S750
G1X0.1S0
G1X0.2S750
G1X0.2S0
G1X0.1S750
G1X0.4S0
G1X0.1S750
G1X0.1S0
G1X0.2S750
G1X0.1S0
G1X0.1S750
G1X0.2S0
G1X0.1S750
G1X0.2S0
G1X0.2S750
G1X0.2S0
G1X0.1S750
G1X0.1S0
G1X0.2S750
G1X0.2S0
G1X0.1S750
G1X0.2S0
G1X0.1S750
G1X0.1S0
G1X0.2S750
G1X0.4S0
G1X0.2S750
G1X0.1S0
G1X0.1S750
G1X0.5S0
G1X0.1S750
G1X0.2S0
G1X0.1S750
G1X0.1S0
G1X0.2S750
G1X0.2S0
G1X0.1S750
G1X0.2S0
G1X0.1S750
G1X0.1S0
G1X0.1S750
G1X0.1S0
G1X0.1S750
G1X0.3S0
G1X0.1S750
G1X0.2S0
G1X0.1S750
G1X0.2S0
G1X0.1S750
G1X0.2S0
G1X0.2S750
G1X0.1S0
G1X1.2S750
G1Y0.1S0
G1X-1.1S750
G1X-0.3S0
G1X-0.1S750
G1X-0.3S0
G1X-0.1S750
G1X-0.2S0
G1X-0.2S750
G1X-0.2S0
G1X-0.2S750
G1X-0.2S0
G1X-0.1S750
G1X-0.2S0
G1X-0.1S750
G1X-0.2S0
G1X-0.1S750
G1X-0.1S0
G1X-0.1S750
G1X-0.4S0
G1X-0.1S750
G1X-0.2S0
G1X-0.2S750
G1X-0.1S0
G1X-0.2S750
G1X-0.2S0
G1X-0.1S750
G1X-0.2S0
G1X-0.2S750
G1X-0.2S0
G1X-0.1S750
G1X-0.2S0
G1X-0.1S750
G1X-0.1S0
G1X-0.2S750
G1X-0.1S0
G1X-0.1S750
G1X-0.2S0
G1X-0.1S750
G1X-0.2S0
G1X-0.1S750
G1X-0.2S0
G1X-0.1S750
G1X-0.1S0
G1X-0.2S750
G1X-0.2S0
G1X-0.1S750
G1X-0.2S0
G1X-0.1S750
G1X-0.1S0
G1X-0.2S750
G1X-0.1S0
G1X-0.1S750
G1X-0.1S0
G1X-0.1S750
G1X-0.2S0
G1X-0.1S750
G1X-0.2S0
G1X-0.2S750
G1X-0.3S0
G1X-0.1S750
G1X-0.1S0
G1X-0.1S750
G1X-0.3S0
G1X-0.1S750
G1X-0.2S0
G1X-0.1S750
G1X-0.1S0
G1X-0.1S750
G1X-0.5S0
G1X-0.1S750
G1X-0.2S0
G1X-0.1S750
G1X-0.1S0
G1X-0.1S750
G1X-0.2S0
G1X-0.1S750
G1X-0.2S0
G1X-0.1S750
G1X-0.2S0
G1X-0.1S750
G1X-0.1S0
G1X-0.1S750
G1X-0.1S0
G1X-0.1S750
G1X-0.2S0
G1X-0.2S750
G1X-0.2S0
G1X-0.2S750
G1X-0.2S0
G1X-0.1S750
G1X-0.1S0
G1X-0.2S750
G1X-0.1S0
G1X-0.2S750
G1X-0.1S0
G1X-0.1S750
G1X-0.2S0
G1X-0.1S750
G1X-0.1S0
G1X-0.1S750
G1X-0.1S0
G1X-0.1S750
G1X-0.1S0
G1X-0.2S750
G1X-0.2S0
G1X-0.1S750
G1X-0.1S0
G1X-0.1S750
G1X-0.1S0
G1X-0.1S750
G1X-0.1S0
G1X-1S750
G1X-46.7S0
G1X-1S750
G1X-7.4S0
G1X-1.1S750
G1X-0.1S0
G1X-0.1S750
G1X-0.2S0
G1X-0.1S750
G1X-0.2S0
G1X-0.1S750
G1X-0.1S0
G1X-0.2S750
G1X-0.1S0
G1X-0.1S750
G1X-0.2S0
G1X-0.1S750
G1X-0.2S0
G1X-0.1S750
G1X-0.1S0
G1X-0.2S750
G1X-0.1S0
G1X-0.1S750
G1X-0.2S0
G1X-0.2S750
G1X-0.1S0
G1X-0.1S750
G1X-0.2S0
G1X-0.1S750
G1X-0.1S0
G1X-0.1S750
G1X-0.2S0
G1X-0.1S750
G1X-0.4S0
G1X-0.2S750
G1X-0.2S0
G1X-0.1S750
G1X-0.1S0
G1X-0.1S750
G1X-0.1S0
G1X-0.1S750
G1X-0.2S0
G1X-0.2S750
G1X-0.1S0
G1X-1S750
G1X0.1Y0.1S0
G1X0.9S750
G1X0.2S0
G1X0.1S750
G1X0.2S0
G1X0.1S750
G1X0.2S0
G1X0.1S750
G1X0.2S0
G1X0.1S750
G1X0.2S0
G1X0.2S750
G1X0.1S0
G1X0.1S750
G1X0.2S0
G1X0.1S750
G1X0.2S0
G1X0.1S750
G1X0.2S0
G1X0.1S750
G1X0.2S0
G1X0.1S750
G1X0.1S0
G1X0.1S750
G1X0.2S0
G1X0.1S750
G1X0.1S0
G1X0.2S750
G1X0.1S0
G1X0.1S750
G1X0.2S0
G1X0.1S750
G1X0.3S0
G1X0.1S750
G1X0.2S0
G1X0.1S750
G1X0.1S0
G1X0.2S750
G1X0.2S0
G1X0.1S750
G1X0.2S0
G1X0.9S750
G1X7.3S0
G1X1.1S750
G1X46.7S0
G1X1.1S750
G1X0.2S0
G1X0.1S750
G1X0.2S0
G1X0.1S750
G1X0.1S0
G1X0.1S750
G1X0.3S0
G1X0.1S750
G1X0.1S0
G1X0.1S750
G1X0.1S0
G1X0.2S750
G1X0.3S0
G1X0.1S750
G1X0.3S0
G1X0.1S750
G1X0.1S0
G1X0.1S750
G1X0.2S0
G1X0.1S750
G1X0.2S0
G1X0.1S750
G1X0.2S0
G1X0.1S750
G1X0.2S0
G1X0.1S750
G1X0.2S0
G1X0.2S750
G1X0.1S0
G1X0.1S750
G1X0.1S0
G1X0.1S750
G1X0.3S0
G1X0.1S750
G1X0.1S0
G1X0.1S750
G1X0.2S0
G1X0.1S750
G1X0.1S0
G1X0.2S750
G1X0.2S0
G1X0.1S750
G1X0.1S0
G1X0.1S750
G1X0.1S0
G1X0.2S750
G1X0.2S0
G1X0.1S750
G1X0.1S0
G1X0.2S750
G1X0.2S0
G1X0.1S750
G1X0.2S0
G1X0.1S750
G1X0.2S0
G1X0.1S750
G1X0.2S0
G1X0.1S750
G1X0.2S0
G1X0.1S750
G1X0.1S0
G1X0.1S750
G1X0.2S0
G1X0.1S750
G1X0.2S0
G1X0.1S750
G1X0.2S0
G1X0.2S750
G1X0.2S0
G1X0.2S750
G1X0.1S0
G1X0.1S750
G1X0.4S0
G1X0.1S750
G1X0.1S0
G1X0.2S750
G1X0.1S0
G1X0.1S750
G1X0.2S0
G1X0.1S750
G1X0.1S0
G1X0.2S750
G1X0.3S0
G1X0.1S750
G1X0.2S0
G1X0.2S750
G1X0.1S0
G1X0.2S750
G1X0.1S0
G1X0.2S750
G1X0.2S0
G1X0.1S750
G1X0.1S0
G1X0.2S750
G1X0.1S0
G1X0.1S750
G1X0.1S0
G1X0.1S750
G1X0.2S0
G1X0.1S750
G1X0.1S0
G1X0.1S750
G1X0.2S0
G1X0.1S750
G1X0.1S0
G1X0.2S750
G1X0.1S0
G1X0.2S750
G1X0.2S0
G1X1.1S750
G1X-0.1Y0.1S0
G1X-0.9S750
G1X-0.1S0
G1X-0.1S750
G1X-0.2S0
G1X-0.1S750
G1X-0.3S0
G1X-0.1S750
G1X-0.2S0
G1X-0.1S750
G1X-0.1S0
G1X-0.1S750
G1X-0.2S0
G1X-0.2S750
G1X-0.2S0
G1X-0.1S750
G1X-0.4S0
G1X-0.1S750
G1X-0.1S0
G1X-0.1S750
G1X-0.1S0
G1X-0.1S750
G1X-0.5S0
G1X-0.1S750
G1X-0.2S0
G1X-0.2S750
G1X-0.1S0
G1X-0.1S750
G1X-0.4S0
G1X-0.1S750
G1X-0.1S0
G1X-0.1S750
G1X-0.5S0
G1X-0.1S750
G1X-0.1S0
G1X-0.2S750
G1X-0.1S0
G1X-0.1S750
G1X-0.2S0
G1X-0.1S750
G1X-0.2S0
G1X-0.1S750
G1X-0.2S0
G1X-0.1S750
G1X-0.1S0
G1X-0.1S750
G1X-0.1S0
G1X-0.1S750
G1X-0.1S0
G1X-0.1S750
G1X-0.3S0
G1X-0.1S750
G1X-0.2S0
G1X-0.2S750
G1X-0.1S0
G1X-0.2S750
G1X-0.2S0
G1X-0.1S750
G1X-0.1S0
G1X-0.1S750
G1X-0.3S0
G1X-0.1S750
G1X-0.1S0
G1X-0.1S750
G1X-0.3S0
G1X-0.1S750
G1X-0.2S0
G1X-0.1S750
G1X-0.1S0
G1X-0.1S750
G1X-0.1S0
G1X-0.1S750
G1X-0.1S0
G1X-0.1S750
G1X-0.1S0
G1X-0.1S750
G1X-0.2S0
G1X-0.2S750
G1X-0.2S0
G1X-0.1S750
G1X-0.2S0
G1X-0.1S750
G1X-0.2S0
G1X-0.1S750
G1X-0.1S0
G1X-0.1S750
G1X-0.1S0
G1X-0.2S750
G1X-0.2S0
G1X-0.2S750
G1X-0.2S0
G1X-0.1S750
G1X-0.1S0
G1X-0.1S750
G1X-0.2S0
G1X-0.1S750
G1X-0.2S0
G1X-0.1S750
G1X-0.1S0
G1X-0.1S750
G1X-0.2S0
G1X-0.1S750
G1X-0.2S0
G1X-0.1S750
G1X-0.1S0
G1X-0.1S750
G1X-0.2S0
G1X-0.1S750
G1X-0.1S0
G1X-0.1S750
G1X-0.1S0
G1X-0.1S750
G1X-0.1S0
G1X-1S750
G1X-46.9S0
G1X-1S750
G1X-7.2S0
G1X-1.1S750
G1X-0.2S0
G1X-0.1S750
G1X-0.2S0
G1X-0.1S750
G1X-0.2S0
G1X-0.1S750
G1X-0.1S0
G1X-0.1S750
G1X-0.2S0
G1X-0.2S750
G1X-0.1S0
G1X-0.1S750
G1X-0.1S0
G1X-0.1S750
G1X-0.4S0
G1X-0.1S750
G1X-0.1S0
G1X-0.1S750
G1X-0.2S0
G1X-0.1S750
G1X-0.2S0
G1X-0.1S750
G1X-0.1S0
G1X-0.2S750
G1X-0.1S0
G1X-0.1S750
G1X-0.1S0
G1X-0.1S750
G1X-0.1S0
G1X-0.1S750
G1X-0.1S0
G1X-0.1S750
G1X-0.2S0
G1X-0.2S750
G1X-0.1S0
G1X-0.1S750
G1X-0.1S0
G1X-0.1S750
G1X-0.1S0
G1X-0.1S750
G1X-0.1S0
G1X-0.1S750
G1X-0.1S0
G1X-1S750
G1Y0.1S0
G1X1S750
G1X0.2S0
G1X0.1S750
G1X0.2S0
G1X0.1S750
G1X0.2S0
G1X0.1S750
G1X0.2S0
G1X0.1S750
G1X0.2S0
G1X0.1S750
G1X0.2S0
G1X0.1S750
G1X0.2S0
G1X0.1S750
G1X0.2S0
G1X0.1S750
G1X0.1S0
G1X0.2S750
G1X0.2S0
G1X0.1S750
G1X0.1S0
G1X0.1S750
G1X0.1S0
G1X0.2S750
G1X0.1S0
G1X0.1S750
G1X0.2S0
G1X0.1S750
G1X0.2S0
G1X0.1S750
G1X0.1S0
G1X0.1S750
G1X0.1S0
G1X0.1S750
G1X0.1S0
G1X0.1S750
G1X0.2S0
G1X0.1S750
G1X0.1S0
G1X0.1S750
G1X0.1S0
G1X0.1S750
G1X0.1S0
G1X1S750
G1X7.1S0
G1X1.1S750
G1X46.9S0
G1X1S750
G1X0.2S0
G1X0.1S750
G1X0.1S0
G1X0.1S750
G1X0.1S0
G1X0.1S750
G1X0.1S0
G1X0.2S750
G1X0.2S0
G1X0.1S750
G1X0.2S0
G1X0.1S750
G1X0.2S0
G1X0.2S750
G1X0.1S0
G1X0.2S750
G1X0.2S0
G1X0.1S750
G1X0.1S0
G1X0.1S750
G1X0.2S0
G1X0.1S750
G1X0.2S0
G1X0.1S750
G1X0.2S0
G1X0.1S750
G1X0.1S0
G1X0.2S750
G1X0.1S0
G1X0.1S750
G1X0.2S0
G1X0.2S750
G1X0.2S0
G1X0.2S750
G1X0.2S0
G1X0.1S750
G1X0.1S0
G1X0.1S750
G1X0.3S0
G1X0.1S750
G1X0.1S0
G1X0.1S750
G1X0.1S0
G1X0.2S750
G1X0.1S0
G1X0.1S750
G1X0.2S0
G1X0.2S750
G1X0.1S0
G1X0.1S750
G1X0.2S0
G1X0.2S750
G1X0.2S0
G1X0.1S750
G1X0.2S0
G1X0.1S750
G1X0.1S0
G1X0.2S750
G1X0.1S0
G1X0.2S750
G1X0.2S0
G1X0.1S750
G1X0.2S0
G1X0.1S750
G1X0.1S0
G1X0.1S750
G1X0.1S0
G1X0.1S750
G1X0.2S0
G1X0.2S750
G1X0.4S0
G1X0.1S750
G1X0.1S0
G1X0.2S750
G1X0.1S0
G1X0.2S750
G1X0.2S0
G1X0.1S750
G1X0.1S0
G1X0.2S750
G1X0.1S0
G1X0.1S750
G1X0.2S0
G1X0.1S750
G1X0.2S0
G1X0.1S750
G1X0.1S0
G1X0.1S750
G1X0.1S0
G1X0.2S750
G1X0.2S0
G1X0.1S750
G1X0.2S0
G1X0.2S750
G1X0.1S0
G1X0.1S750
G1X0.1S0
G1X0.1S750
G1X0.2S0
G1X0.1S750
G1X0.2S0
G1X0.1S750
G1X0.2S0
G1X0.2S750
G1X0.2S0
G1X0.1S750
G1X0.1S0
G1X0.1S750
G1X0.2S0
G1X1.2S750
G1Y0.1S0
G1X-1.1S750
G1X-0.2S0
G1X-0.1S750
G1X-0.1S0
G1X-0.1S750
G1X-0.1S0
G1X-0.1S750
G1X-0.2S0
G1X-0.1S750
G1X-0.2S0
G1X-0.2S750
G1X-0.1S0
G1X-0.1S750
G1X-0.1S0
G1X-0.1S750
G1X-0.1S0
G1X-0.2S750
G1X-0.2S0
G1X-0.1S750
G1X-0.2S0
G1X-0.1S750
G1X-0.2S0
G1X-0.1S750
G1X-0.2S0
G1X-0.1S750
G1X-0.2S0
G1X-0.1S750
G1X-0.1S0
G1X-0.1S750
G1X-0.2S0
G1X-0.1S750
G1X-0.1S0
G1X-0.1S750
G1X-0.2S0
G1X-0.1S750
G1X-0.2S0
G1X-0.1S750
G1X-0.1S0
G1X-0.1S750
G1X-0.2S0
G1X-0.1S750
G1X-0.2S0
G1X-0.1S750
G1X-0.1S0
G1X-0.2S750
G1X-0.2S0
G1X-0.1S750
G1X-0.1S0
G1X-0.1S750
G1X-0.2S0
G1X-0.1S750
G1X-0.2S0
G1X-0.1S750
G1X-0.1S0
G1X-0.1S750
G1X-0.2S0
G1X-0.1S750
G1X-0.4S0
G1X-0.1S750
G1X-0.2S0
G1X-0.1S750
G1X-0.2S0
G1X-0.1S750
G1X-0.2S0
G1X-0.1S750
G1X-0.2S0
G1X-0.1S750
G1X-0.2S0
G1X-0.1S750
G1X-0.1S0
G1X-0.1S750
G1X-0.2S0
G1X-0.1S750
G1X-0.2S0
G1X-0.1S750
G1X-0.1S0
G1X-0.2S750
G1X-0.2S0
G1X-0.1S750
G1X-0.2S0
G1X-0.1S750
G1X-0.2S0
G1X-0.1S750
G1X-0.2S0
G1X-0.1S750
G1X-0.2S0
G1X-0.1S750
G1X-0.3S0
G1X-0.1S750
G1X-0.2S0
G1X-0.2S750
G1X-0.2S0
G1X-0.2S750
G1X-0.2S0
G1X-0.1S750
G1X-0.1S0
G1X-0.1S750
G1X-0.3S0
G1X-0.1S750
G1X-0.2S0
G1X-0.1S750
G1X-0.1S0
G1X-0.1S750
G1X-0.1S0
G1X-0.2S750
G1X-0.2S0
G1X-0.1S750
G1X-0.2S0
G1X-0.1S750
G1X-0.2S0
G1X-0.1S750
G1X-0.1S0
G1X-0.9S750
G1X-47.1S0
G1X-1S750
G1X-7S0
G1X-1S750
G1X-0.3S0
G1X-0.1S750
G1X-0.1S0
G1X-0.1S750
G1X-0.1S0
G1X-0.2S750
G1X-0.1S0
G1X-0.1S750
G1X-0.2S0
G1X-0.1S750
G1X-0.2S0
G1X-0.1S750
G1X-0.2S0
G1X-0.1S750
G1X-0.1S0
G1X-0.1S750
G1X-0.1S0
G1X-0.1S750
G1X-0.2S0
G1X-0.1S750
G1X-0.2S0
G1X-0.1S750
G1X-0.1S0
G1X-0.1S750
G1X-0.2S0
G1X-0.1S750
G1X-0.2S0
G1X-0.1S750
G1X-0.1S0
G1X-0.1S750
G1X-0.1S0
G1X-0.1S750
G1X-0.1S0
G1X-0.1S750
G1X-0.2S0
G1X-0.1S750
G1X-0.1S0
G1X-0.1S750
G1X-0.2S0
G1X-0.1S750
G1X-0.1S0
G1X-0.1S750
G1X-0.1S0
G1X-0.1S750
G1X-0.1S0
G1X-1S750
G1Y0.1S0
G1X1S750
G1X0.2S0
G1X0.1S750
G1X0.2S0
G1X0.2S750
G1X0.2S0
G1X0.1S750
G1X0.1S0
G1X0.2S750
G1X0.2S0
G1X0.1S750
G1X0.2S0
G1X0.1S750
G1X0.1S0
G1X0.1S750
G1X0.1S0
G1X0.1S750
G1X0.2S0
G1X0.1S750
G1X0.1S0
G1X0.1S750
G1X0.1S0
G1X0.1S750
G1X0.2S0
G1X0.1S750
G1X0.3S0
G1X0.1S750
G1X0.1S0
G1X0.1S750
G1X0.1S0
G1X0.1S750
G1X0.1S0
G1X0.1S750
G1X0.1S0
G1X0.1S750
G1X0.2S0
G1X0.1S750
G1X0.4S0
G1X0.1S750
G1X0.1S0
G1X0.2S750
G1X0.1S0
G1X1S750
G1X6.9S0
G1X1S750
G1X47.2S0
G1X1S750
G1X0.1S0
G1X0.1S750
G1X0.2S0
G1X0.1S750
G1X0.1S0
G1X0.1S750
G1X0.2S0
G1X0.1S750
G1X0.2S0
G1X0.1S750
G1X0.2S0
G1X0.2S750
G1X0.2S0
G1X0.1S750
G1X0.2S0
G1X0.1S750
G1X0.1S0
G1X0.1S750
G1X0.2S0
G1X0.1S750
G1X0.2S0
G1X0.1S750
G1X0.2S0
G1X0.2S750
G1X0.1S0
G1X0.1S750
G1X0.2S0
G1X0.1S750
G1X0.1S0
G1X0.2S750
G1X0.2S0
G1X0.2S750
G1X0.2S0
G1X0.2S750
G1X0.2S0
G1X0.1S750
G1X0.2S0
G1X0.1S750
G1X0.1S0
G1X0.1S750
G1X0.2S0
G1X0.1S750
G1X0.2S0
G1X0.1S750
G1X0.1S0
G1X0.1S750
G1X0.2S0
G1X0.2S750
G1X0.1S0
G1X0.1S750
G1X0.2S0
G1X0.2S750
G1X0.1S0
G1X0.1S750
G1X0.1S0
G1X0.2S750
G1X0.1S0
G1X0.1S750
G1X0.2S0
G1X0.1S750
G1X0.1S0
G1X0.1S750
G1X0.1S0
G1X0.2S750
G1X0.1S0
G1X0.1S750
G1X0.2S0
G1X0.1S750
G1X0.1S0
G1X0.1S750
G1X0.3S0
G1X0.2S750
G1X0.1S0
G1X0.1S750
G1X0.2S0
G1X0.1S750
G1X0.2S0
G1X0.1S750
G1X0.1S0
G1X0.1S750
G1X0.2S0
G1X0.1S750
G1X0.2S0
G1X0.2S750
G1X0.2S0
G1X0.1S750
G1X0.1S0
G1X0.1S750
G1X0.1S0
G1X0.1S750
G1X0.2S0
G1X0.2S750
G1X0.1S0
G1X0.1S750
G1X0.1S0
G1X0.1S750
G1X0.2S0
G1X0.1S750
G1X0.3S0
G1X0.1S750
G1X0.2S0
G1X0.1S750
G1X0.2S0
G1X0.1S750
G1X0.2S0
G1X0.2S750
G1X0.2S0
G1X0.1S750
G1X0.1S0
G1X0.1S750
G1X0.2S0
G1X1.1S750
G1X-0.2Y0.1S0
G1X-0.9S750
G1X-0.1S0
G1X-0.2S750
G1X-0.2S0
G1X-0.1S750
G1X-0.1S0
G1X-0.1S750
G1X-0.2S0
G1X-0.2S750
G1X-0.1S0
G1X-0.1S750
G1X-0.2S0
G1X-0.1S750
G1X-0.1S0
G1X-0.1S750
G1X-0.1S0
G1X-0.1S750
G1X-0.1S0
G1X-0.2S750
G1X-0.1S0
G1X-0.1S750
G1X-0.2S0
G1X-0.1S750
G1X-0.2S0
G1X-0.2S750
G1X-0.1S0
G1X-0.1S750
G1X-0.2S0
G1X-0.1S750
G1X-0.2S0
G1X-0.1S750
G1X-0.2S0
G1X-0.1S750
G1X-0.1S0
G1X-0.2S750
G1X-0.1S0
G1X-0.1S750
G1X-0.2S0
G1X-0.2S750
G1X-0.1S0
G1X-0.1S750
G1X-0.2S0
G1X-0.1S750
G1X-0.2S0
G1X-0.1S750
G1X-0.1S0
G1X-0.1S750
G1X-0.2S0
G1X-0.1S750
G1X-0.1S0
G1X-0.1S750
G1X-0.3S0
G1X-0.1S750
G1X-0.2S0
G1X-0.1S750
G1X-0.1S0
G1X-0.1S750
G1X-0.2S0
G1X-0.1S750
G1X-0.2S0
G1X-0.1S750
G1X-0.2S0
G1X-0.1S750
G1X-0.1S0
G1X-0.1S750
G1X-0.1S0
G1X-0.1S750
G1X-0.2S0
G1X-0.1S750
G1X-0.1S0
G1X-0.1S750
G1X-0.1S0
G1X-0.1S750
G1X-0.2S0
G1X-0.2S750
G1X-0.1S0
G1X-0.1S750
G1X-0.1S0
G1X-0.1S750
G1X-0.2S0
G1X-0.2S750
G1X-0.2S0
G1X-0.1S750
G1X-0.2S0
G1X-0.1S750
G1X-0.2S0
G1X-0.1S750
G1X-0.2S0
G1X-0.1S750
G1X-0.1S0
G1X-0.1S750
G1X-0.1S0
G1X-0.1S750
G1X-0.2S0
G1X-0.1S750
G1X-0.2S0
G1X-0.2S750
G1X-0.2S0
G1X-0.2S750
G1X-0.2S0
G1X-0.1S750
G1X-0.1S0
G1X-0.2S750
G1X-0.2S0
G1X-0.1S750
G1X-0.2S0
G1X-0.1S750
G1X-0.1S0
G1X-0.1S750
G1X-0.2S0
G1X-0.1S750
G1X-0.2S0
G1X-0.1S750
G1X-0.1S0
G1X-0.2S750
G1X-0.2S0
G1X-0.9S750
G1X-47.2S0
G1X-1S750
G1X-6.8S0
G1X-1.1S750
G1X-0.1S0
G1X-0.1S750
G1X-0.3S0
G1X-0.1S750
G1X-0.1S0
G1X-0.2S750
G1X-0.2S0
G1X-0.2S750
G1X-0.2S0
G1X-0.1S750
G1X-0.2S0
G1X-0.1S750
G1X-0.2S0
G1X-0.2S750
G1X-0.1S0
G1X-0.2S750
G1X-0.1S0
G1X-0.1S750
G1X-0.1S0
G1X-0.1S750
G1X-0.2S0
G1X-0.1S750
G1X-0.1S0
G1X-0.1S750
G1X-0.2S0
G1X-0.1S750
G1X-0.2S0
G1X-0.1S750
G1X-0.1S0
G1X-0.1S750
G1X-0.2S0
G1X-0.1S750
G1X-0.2S0
G1X-0.1S750
G1X-0.1S0
G1X-0.1S750
G1X-0.2S0
G1X-0.1S750
G1X-0.1S0
G1X-0.1S750
G1X-0.1S0
G1X-1S750
G1Y0.1S0
G1X1.1S750
G1X0.2S0
G1X0.2S750
G1X0.2S0
G1X0.1S750
G1X0.1S0
G1X0.1S750
G1X0.2S0
G1X0.1S750
G1X0.1S0
G1X0.1S750
G1X0.1S0
G1X0.2S750
G1X0.1S0
G1X0.1S750
G1X0.1S0
G1X0.1S750
G1X0.1S0
G1X0.1S750
G1X0.2S0
G1X0.1S750
G1X0.2S0
G1X0.1S750
G1X0.4S0
G1X0.1S750
G1X0.2S0
G1X0.1S750
G1X0.1S0
G1X0.1S750
G1X0.1S0
G1X0.1S750
G1X0.2S0
G1X0.1S750
G1X0.2S0
G1X0.1S750
G1X0.2S0
G1X0.1S750
G1X0.1S0
G1X0.1S750
G1X0.1S0
G1X0.1S750
G1X0.3S0
G1X1S750
G1X6.7S0
G1X1S750
G1X47.3S0
G1X1S750
G1X0.2S0
G1X0.1S750
G1X0.2S0
G1X0.1S750
G1X0.1S0
G1X0.2S750
G1X0.2S0
G1X0.1S750
G1X0.1S0
G1X0.2S750
G1X0.2S0
G1X0.1S750
G1X0.2S0
G1X0.1S750
G1X0.1S0
G1X0.1S750
G1X0.2S0
G1X0.1S750
G1X0.2S0
G1X0.1S750
G1X0.2S0
G1X0.2S750
G1X0.2S0
G1X0.1S750
G1X0.2S0
G1X0.1S750
G1X0.1S0
G1X0.1S750
G1X0.2S0
G1X0.2S750
G1X0.2S0
G1X0.2S750
G1X0.2S0
G1X0.1S750
G1X0.2S0
G1X0.1S750
G1X0.2S0
G1X0.1S750
G1X0.2S0
G1X0.1S750
G1X0.1S0
G1X0.1S750
G1X0.2S0
G1X0.1S750
G1X0.1S0
G1X0.1S750
G1X0.2S0
G1X0.1S750
G1X0.2S0
G1X0.1S750
G1X0.2S0
G1X0.1S750
G1X0.2S0
G1X0.1S750
G1X0.2S0
G1X0.1S750
G1X0.1S0
G1X0.1S750
G1X0.1S0
G1X0.1S750
G1X0.2S0
G1X0.1S750
G1X0.1S0
G1X0.1S750
G1X0.2S0
G1X0.2S750
G1X0.2S0
G1X0.2S750
G1X0.1S0
G1X0.1S750
G1X0.2S0
G1X0.1S750
G1X0.2S0
G1X0.1S750
G1X0.2S0
G1X0.1S750
G1X0.3S0
G1X0.1S750
G1X0.2S0
G1X0.2S750
G1X0.2S0
G1X0.2S750
G1X0.1S0
G1X0.1S750
G1X0.3S0
G1X0.1S750
G1X0.2S0
G1X0.1S750
G1X0.2S0
G1X0.1S750
G1X0.3S0
G1X0.1S750
G1X0.1S0
G1X0.1S750
G1X0.2S0
G1X0.2S750
G1X0.2S0
G1X0.1S750
G1X0.2S0
G1X0.1S750
G1X0.2S0
G1X0.1S750
G1X0.1S0
G1X0.1S750
G1X0.2S0
G1X1.1S750
G1Y0.1S0
G1X-1.1S750
G1X-0.1S0
G1X-0.1S750
G1X-0.1S0
G1X-0.1S750
G1X-0.2S0
G1X-0.1S750
G1X-0.1S0
G1X-0.1S750
G1X-0.2S0
G1X-0.1S750
G1X-0.1S0
G1X-0.1S750
G1X-0.2S0
G1X-0.1S750
G1X-0.2S0
G1X-0.1S750
G1X-0.2S0
G1X-0.1S750
G1X-0.1S0
G1X-0.2S750
G1X-0.1S0
G1X-0.2S750
G1X-0.1S0
G1X-0.1S750
G1X-0.1S0
G1X-0.2S750
G1X-0.2S0
G1X-0.1S750
G1X-0.2S0
G1X-0.1S750
G1X-0.2S0
G1X-0.1S750
G1X-0.2S0
G1X-0.1S750
G1X-0.1S0
G1X-0.2S750
G1X-0.1S0
G1X-0.1S750
G1X-0.2S0
G1X-0.1S750
G1X-0.1S0
G1X-0.1S750
G1X-0.1S0
G1X-0.1S750
G1X-0.3S0
G1X-0.1S750
G1X-0.1S0
G1X-0.1S750
G1X-0.2S0
G1X-0.1S750
G1X-0.1S0
G1X-0.1S750
G1X-0.1S0
G1X-0.2S750
G1X-0.1S0
G1X-0.1S750
G1X-0.2S0
G1X-0.1S750
G1X-0.1S0
G1X-0.2S750
G1X-0.1S0
G1X-0.2S750
G1X-0.1S0
G1X-0.1S750
G1X-0.2S0
G1X-0.1S750
G1X-0.1S0
G1X-0.2S750
G1X-0.2S0
G1X-0.1S750
G1X-0.1S0
G1X-0.1S750
G1X-0.2S0
G1X-0.1S750
G1X-0.2S0
G1X-0.1S750
G1X-0.1S0
G1X-0.2S750
G1X-0.2S0
G1X-0.1S750
G1X-0.2S0
G1X-0.1S750
G1X-0.2S0
G1X-0.1S750
G1X-0.2S0
G1X-0.2S750
G1X-0.2S0
G1X-0.1S750
G1X-0.1S0
G1X-0.1S750
G1X-0.1S0
G1X-0.1S750
G1X-0.2S0
G1X-0.1S750
G1X-0.2S0
G1X-0.1S750
G1X-0.1S0
G1X-0.1S750
G1X-0.2S0
G1X-0.1S750
G1X-0.1S0
G1X-0.1S750
G1X-0.2S0
G1X-0.2S750
G1X-0.2S0
G1X-0.1S750
G1X-0.2S0
G1X-0.1S750
G1X-0.1S0
G1X-0.1S750
G1X-0.2S0
G1X-0.2S750
G1X-0.2S0
G1X-0.1S750
G1X-0.1S0
G1X-0.9S750
G1X-47.4S0
G1X-1S750
G1X-6.7S0
G1X-1S750
G1X-0.1S0
G1X-0.1S750
G1X-0.1S0
G1X-0.2S750
G1X-0.2S0
G1X-0.1S750
G1X-0.2S0
G1X-0.2S750
G1X-0.2S0
G1X-0.2S750
G1X-0.1S0
G1X-0.1S750
G1X-0.1S0
G1X-0.1S750
G1X-0.1S0
G1X-0.1S750
G1X-0.2S0
G1X-0.1S750
G1X-0.1S0
G1X-0.2S750
G1X-0.2S0
G1X-0.1S750
G1X-0.1S0
G1X-0.2S750
G1X-0.2S0
G1X-0.1S750
G1X-0.2S0
G1X-0.1S750
G1X-0.2S0
G1X-0.1S750
G1X-0.2S0
G1X-0.1S750
G1X-0.1S0
G1X-0.2S750
G1X-0.2S0
G1X-0.1S750
G1X-0.2S0
G1X-0.1S750
G1X-0.2S0
G1X-1S750
G1Y0.1S0
G1X1S750
G1X0.1S0
G1X0.1S750
G1X0.2S0
G1X0.2S750
G1X0.2S0
G1X0.1S750
G1X0.2S0
G1X0.1S750
G1X0.2S0
G1X0.1S750
G1X0.2S0
G1X0.1S750
G1X0.2S0
G1X0.1S750
G1X0.2S0
G1X0.1S750
G1X0.2S0
G1X0.2S750
G1X0.2S0
G1X0.1S750
G1X0.1S0
G1X0.1S750
G1X0.1S0
G1X0.1S750
G1X0.2S0
G1X0.1S750
G1X0.3S0
G1X0.1S750
G1X0.2S0
G1X0.1S750
G1X0.2S0
G1X0.2S750
G1X0.1S0
G1X0.1S750
G1X0.3S0
G1X0.1S750
G1X0.1S0
G1X0.1S750
G1X0.1S0
G1X1S750
G1X6.6S0
G1X1S750
G1X47.4S0
G1X1S750
G1X0.1S0
G1X0.1S750
G1X0.2S0
G1X0.1S750
G1X0.2S0
G1X0.1S750
G1X0.2S0
G1X0.1S750
G1X0.2S0
G1X0.1S750
G1X0.2S0
G1X0.1S750
G1X0.1S0
G1X0.1S750
G1X0.2S0
G1X0.2S750
G1X0.2S0
G1X0.2S750
G1X0.1S0
G1X0.2S750
G1X0.2S0
G1X0.1S750
G1X0.2S0
G1X0.1S750
G1X0.1S0
G1X0.1S750
G1X0.2S0
G1X0.1S750
G1X0.2S0
G1X0.2S750
G1X0.2S0
G1X0.2S750
G1X0.1S0
G1X0.1S750
G1X0.2S0
G1X0.1S750
G1X0.2S0
G1X0.2S750
G1X0.2S0
G1X0.1S750
G1X0.1S0
G1X0.1S750
G1X0.1S0
G1X0.1S750
G1X0.3S0
G1X0.1S750
G1X0.1S0
G1X0.2S750
G1X0.2S0
G1X0.1S750
G1X0.4S0
G1X0.1S750
G1X0.1S0
G1X0.1S750
G1X0.2S0
G1X0.1S750
G1X0.2S0
G1X0.1S750
G1X0.2S0
G1X0.2S750
G1X0.2S0
G1X0.1S750
G1X0.1S0
G1X0.1S750
G1X0.1S0
G1X0.1S750
G1X0.2S0
G1X0.1S750
G1X0.1S0
G1X0.2S750
G1X0.2S0
G1X0.1S750
G1X0.2S0
G1X0.2S750
G1X0.1S0
G1X0.2S750
G1X0.2S0
G1X0.2S750
G1X0.2S0
G1X0.1S750
G1X0.2S0
G1X0.1S750
G1X0.2S0
G1X0.1S750
G1X0.4S0
G1X0.1S750
G1X0.1S0
G1X0.2S750
G1X0.1S0
G1X0.1S750
G1X0.2S0
G1X0.2S750
G1X0.2S0
G1X0.1S750
G1X0.1S0
G1X0.2S750
G1X0.2S0
G1X0.2S750
G1X0.2S0
G1X0.1S750
G1X0.2S0
G1X1.1S750
G1X-0.2Y0.1S0
G1X-1S750
G1X-0.1S0
G1X-0.2S750
G1X-0.2S0
G1X-0.1S750
G1X-0.2S0
G1X-0.1S750
G1X-0.2S0
G1X-0.1S750
G1X-0.2S0
G1X-0.1S750
G1X-0.2S0
G1X-0.1S750
G1X-0.1S0
G1X-0.1S750
G1X-0.5S0
G1X-0.1S750
G1X-0.1S0
G1X-0.1S750
G1X-0.2S0
G1X-0.1S750
G1X-0.2S0
G1X-0.1S750
G1X-0.1S0
G1X-0.2S750
G1X-0.2S0
G1X-0.1S750
G1X-0.2S0
G1X-0.1S750
G1X-0.5S0
G1X-0.1S750
G1X-0.1S0
G1X-0.1S750
G1X-0.2S0
G1X-0.1S750
G1X-0.2S0
G1X-0.1S750
G1X-0.1S0
G1X-0.2S750
G1X-0.2S0
G1X-0.1S750
G1X-0.1S0
G1X-0.1S750
G1X-0.2S0
G1X-0.1S750
G1X-0.2S0
G1X-0.1S750
G1X-0.2S0
G1X-0.2S750
G1X-0.2S0
G1X-0.1S750
G1X-0.1S0
G1X-0.1S750
G1X-0.1S0
G1X-0.1S750
G1X-0.2S0
G1X-0.1S750
G1X-0.3S0
G1X-0.1S750
G1X-0.1S0
G1X-0.1S750
G1X-0.2S0
G1X-0.1S750
G1X-0.2S0
G1X-0.1S750
G1X-0.1S0
G1X-0.1S750
G1X-0.2S0
G1X-0.1S750
G1X-0.2S0
G1X-0.2S750
G1X-0.2S0
G1X-0.1S750
G1X-0.2S0
G1X-0.1S750
G1X-0.2S0
G1X-0.1S750
G1X-0.2S0
G1X-0.2S750
G1X-0.2S0
G1X-0.1S750
G1X-0.1S0
G1X-0.2S750
G1X-0.2S0
G1X-0.1S750
G1X-0.3S0
G1X-0.1S750
G1X-0.2S0
G1X-0.1S750
G1X-0.2S0
G1X-0.1S750
G1X-0.1S0
G1X-0.1S750
G1X-0.2S0
G1X-0.2S750
G1X-0.1S0
G1X-0.2S750
G1X-0.1S0
G1X-0.1S750
G1X-0.1S0
G1X-0.1S750
G1X-0.2S0
G1X-0.2S750
G1X-0.2S0
G1X-0.9S750
G1X-47.5S0
G1X-1S750
G1X-6.4S0
G1X-1.1S750
G1X-0.1S0
G1X-0.1S750
G1X-0.2S0
G1X-0.1S750
G1X-0.1S0
G1X-0.2S750
G1X-0.2S0
G1X-0.1S750
G1X-0.2S0
G1X-0.2S750
G1X-0.2S0
G1X-0.1S750
G1X-0.1S0
G1X-0.2S750
G1X-0.1S0
G1X-0.1S750
G1X-0.1S0
G1X-0.1S750
G1X-0.2S0
G1X-0.1S750
G1X-0.2S0
G1X-0.1S750
G1X-0.2S0
G1X-0.1S750
G1X-0.2S0
G1X-0.2S750
G1X-0.1S0
G1X-0.2S750
G1X-0.1S0
G1X-0.1S750
G1X-0.1S0
G1X-0.2S750
G1X-0.1S0
G1X-0.1S750
G1X-0.2S0
G1X-0.1S750
G1X-0.1S0
G1X-0.1S750
G1X-0.2S0
G1X-0.1S750
G1X-0.1S0
G1X-1S750
G1Y0.1S0
G1X1S750
G1X0.1S0
G1X0.1S750
G1X0.2S0
G1X0.1S750
G1X0.1S0
G1X0.1S750
G1X0.1S0
G1X0.1S750
G1X0.2S0
G1X0.1S750
G1X0.2S0
G1X0.1S750
G1X0.4S0
G1X0.1S750
G1X0.2S0
G1X0.2S750
G1X0.2S0
G1X0.1S750
G1X0.1S0
G1X0.1S750
G1X0.1S0
G1X0.1S750
G1X0.2S0
G1X0.1S750
G1X0.3S0
G1X0.1S750
G1X0.1S0
G1X0.1S750
G1X0.2S0
G1X0.1S750
G1X0.2S0
G1X0.1S750
G1X0.2S0
G1X0.1S750
G1X0.2S0
G1X0.1S750
G1X0.1S0
G1X0.1S750
G1X0.2S0
G1X0.1S750
G1X0.1S0
G1X1S750
G1X6.4S0
G1X0.9S750
G1X47.6S0
G1X1S750
G1X0.2S0
G1X0.1S750
G1X0.1S0
G1X0.1S750
G1X0.1S0
G1X0.1S750
G1X0.2S0
G1X0.1S750
G1X0.3S0
G1X0.1S750
G1X0.1S0
G1X0.1S750
G1X0.2S0
G1X0.2S750
G1X0.2S0
G1X0.2S750
G1X0.1S0
G1X0.1S750
G1X0.1S0
G1X0.1S750
G1X0.2S0
G1X0.1S750
G1X0.2S0
G1X0.1S750
G1X0.1S0
G1X0.1S750
G1X0.2S0
G1X0.1S750
G1X0.1S0
G1X0.2S750
G1X0.2S0
G1X0.2S750
G1X0.2S0
G1X0.1S750
G1X0.2S0
G1X0.1S750
G1X0.1S0
G1X0.2S750
G1X0.2S0
G1X0.1S750
G1X0.1S0
G1X0.1S750
G1X0.1S0
G1X0.1S750
G1X0.1S0
G1X0.1S750
G1X0.1S0
G1X0.2S750
G1X0.1S0
G1X0.1S750
G1X0.1S0
G1X0.1S750
G1X0.1S0
G1X0.2S750
G1X0.2S0
G1X0.2S750
G1X0.1S0
G1X0.1S750
G1X0.2S0
G1X0.1S750
G1X0.1S0
G1X0.1S750
G1X0.1S0
G1X0.1S750
G1X0.1S0
G1X0.1S750
G1X0.2S0
G1X0.1S750
G1X0.2S0
G1X0.1S750
G1X0.4S0
G1X0.2S750
G1X0.2S0
G1X0.1S750
G1X0.2S0
G1X0.1S750
G1X0.1S0
G1X0.2S750
G1X0.1S0
G1X0.1S750
G1X0.2S0
G1X0.2S750
G1X0.2S0
G1X0.1S750
G1X0.2S0
G1X0.1S750
G1X0.1S0
G1X0.1S750
G1X0.1S0
G1X0.2S750
G1X0.1S0
G1X0.2S750
G1X0.1S0
G1X0.3S750
G1X0.1S0
G1X0.1S750
G1X0.2S0
G1X0.2S750
G1X0.2S0
G1X0.2S750
G1X0.2S0
G1X0.1S750
G1X0.1S0
G1X0.1S750
G1X0.2S0
G1X0.1S750
G1X0.3S0
G1X1S750
G1Y0.1S0
G1X-1S750
G1X-0.2S0
G1X-0.2S750
G1X-0.1S0
G1X-0.2S750
G1X-0.2S0
G1X-0.2S750
G1X-0.2S0
G1X-0.1S750
G1X-0.2S0
G1X-0.1S750
G1X-0.2S0
G1X-0.1S750
G1X-0.2S0
G1X-0.1S750
G1X-0.7S0
G1X-0.1S750
G1X-0.2S0
G1X-0.1S750
G1X-0.2S0
G1X-0.2S750
G1X-0.2S0
G1X-0.1S750
G1X-0.2S0
G1X-0.2S750
G1X-0.1S0
G1X-0.1S750
G1X-0.2S0
G1X-0.1S750
G1X-0.1S0
G1X-0.2S750
G1X-0.1S0
G1X-0.1S750
G1X-0.2S0
G1X-0.1S750
G1X-0.1S0
G1X-0.2S750
G1X-0.1S0
G1X-0.1S750
G1X-0.1S0
G1X-0.2S750
G1X-0.1S0
G1X-0.1S750
G1X-0.1S0
G1X-0.1S750
G1X-0.2S0
G1X-0.1S750
G1X-0.2S0
G1X-0.1S750
G1X-0.2S0
G1X-0.1S750
G1X-0.2S0
G1X-0.1S750
G1X-0.3S0
G1X-0.1S750
G1X-0.1S0
G1X-0.1S750
G1X-0.4S0
G1X-0.1S750
G1X-0.2S0
G1X-0.1S750
G1X-0.2S0
G1X-0.1S750
G1X-0.1S0
G1X-0.1S750
G1X-0.2S0
G1X-0.1S750
G1X-0.2S0
G1X-0.2S750
G1X-0.2S0
G1X-0.1S750
G1X-0.2S0
G1X-0.1S750
G1X-0.2S0
G1X-0.1S750
G1X-0.2S0
G1X-0.1S750
G1X-0.2S0
G1X-0.1S750
G1X-0.2S0
G1X-0.2S750
G1X-0.1S0
G1X-0.1S750
G1X-0.1S0
G1X-0.1S750
G1X-0.2S0
G1X-0.1S750
G1X-0.2S0
G1X-0.1S750
G1X-0.2S0
G1X-0.1S750
G1X-0.1S0
G1X-0.1S750
G1X-0.2S0
G1X-0.1S750
G1X-0.2S0
G1X-0.1S750
G1X-0.2S0
G1X-0.1S750
G1X-0.2S0
G1X-0.1S750
G1X-0.1S0
G1X-1S750
G1X-47.6S0
G1X-1S750
G1X-6.3S0
G1X-1S750
G1X-0.1S0
G1X-0.1S750
G1X-0.1S0
G1X-0.2S750
G1X-0.2S0
G1X-0.1S750
G1X-0.2S0
G1X-0.1S750
G1X-0.1S0
G1X-0.2S750
G1X-0.2S0
G1X-0.2S750
G1X-0.2S0
G1X-0.1S750
G1X-0.2S0
G1X-0.2S750
G1X-0.1S0
G1X-0.2S750
G1X-0.2S0
G1X-0.1S750
G1X-0.1S0
G1X-0.2S750
G1X-0.2S0
G1X-0.1S750
G1X-0.2S0
G1X-0.1S750
G1X-0.1S0
G1X-0.2S750
G1X-0.2S0
G1X-0.1S750
G1X-0.2S0
G1X-0.1S750
G1X-0.1S0
G1X-0.1S750
G1X-0.3S0
G1X-0.2S750
G1X-0.2S0
G1X-1S750
G1X0.1Y0.1S0
G1X1S750
G1X0.2S0
G1X0.1S750
G1X0.1S0
G1X0.2S750
G1X0.2S0
G1X0.2S750
G1X0.1S0
G1X0.1S750
G1X0.2S0
G1X0.1S750
G1X0.1S0
G1X0.1S750
G1X0.1S0
G1X0.2S750
G1X0.2S0
G1X0.1S750
G1X0.3S0
G1X0.1S750
G1X0.2S0
G1X0.1S750
G1X0.3S0
G1X0.1S750
G1X0.1S0
G1X0.1S750
G1X0.1S0
G1X0.1S750
G1X0.2S0
G1X0.1S750
G1X0.2S0
G1X0.1S750
G1X0.2S0
G1X0.1S750
G1X0.1S0
G1X0.2S750
G1X0.2S0
G1X0.1S750
G1X0.2S0
G1X0.1S750
G1X0.2S0
G1X1S750
G1X6.2S0
G1X1S750
G1X47.6S0
G1X1S750
G1X0.1S0
G1X0.1S750
G1X0.1S0
G1X0.1S750
G1X0.1S0
G1X0.1S750
G1X0.1S0
G1X0.2S750
G1X0.1S0
G1X0.2S750
G1X0.2S0
G1X0.1S750
G1X0.1S0
G1X0.1S750
G1X0.2S0
G1X0.1S750
G1X0.1S0
G1X0.1S750
G1X0.2S0
G1X0.1S750
G1X0.4S0
G1X0.1S750
G1X0.1S0
G1X0.2S750
G1X0.1S0
G1X0.1S750
G1X0.1S0
G1X0.2S750
G1X0.2S0
G1X0.1S750
G1X0.1S0
G1X0.1S750
G1X0.1S0
G1X0.1S750
G1X0.2S0
G1X0.1S750
G1X0.2S0
G1X0.1S750
G1X0.2S0
G1X0.1S750
G1X0.2S0
G1X0.1S750
G1X0.1S0
G1X0.1S750
G1X0.1S0
G1X0.1S750
G1X0.1S0
G1X0.2S750
G1X0.1S0
G1X0.1S750
G1X0.2S0
G1X0.1S750
G1X0.1S0
G1X0.1S750
G1X0.1S0
G1X0.1S750
G1X0.1S0
G1X0.1S750
G1X0.2S0
G1X0.1S750
G1X0.1S0
G1X0.1S750
G1X0.1S0
G1X0.1S750
G1X0.1S0
G1X0.1S750
G1X0.2S0
G1X0.1S750
G1X0.3S0
G1X0.1S750
G1X0.2S0
G1X0.1S750
G1X0.2S0
G1X0.2S750
G1X0.2S0
G1X0.1S750
G1X0.3S0
G1X0.1S750
G1X0.1S0
G1X0.1S750
G1X0.4S0
G1X0.1S750
G1X0.1S0
G1X0.1S750
G1X0.2S0
G1X0.1S750
G1X0.2S0
G1X0.1S750
G1X0.1S0
G1X0.1S750
G1X0.2S0
G1X0.1S750
G1X0.1S0
G1X0.2S750
G1X0.1S0
G1X0.2S750
G1X0.2S0
G1X0.1S750
G1X0.1S0
G1X0.2S750
G1X0.2S0
G1X0.2S750
G1X0.2S0
G1X0.1S750
G1X0.2S0
G1X0.1S750
G1X0.2S0
G1X0.1S750
G1X0.2S0
G1X1.3S750
G1Y0.1S0
G1X-1.1S750
G1X-0.4S0
G1X-0.1S750
G1X-0.2S0
G1X-0.1S750
G1X-0.2S0
G1X-0.2S750
G1X-0.2S0
G1X-0.1S750
G1X-0.2S0
G1X-0.1S750
G1X-0.3S0
G1X-0.1S750
G1X-0.1S0
G1X-0.2S750
G1X-0.2S0
G1X-0.1S750
G1X-0.2S0
G1X-0.2S750
G1X-0.2S0
G1X-0.1S750
G1X-0.2S0
G1X-0.1S750
G1X-0.1S0
G1X-0.2S750
G1X-0.2S0
G1X-0.1S750
G1X-0.1S0
G1X-0.2S750
G1X-0.2S0
G1X-0.1S750
G1X-0.2S0
G1X-0.1S750
G1X-0.1S0
G1X-0.1S750
G1X-0.1S0
G1X-0.1S750
G1X-0.2S0
G1X-0.1S750
G1X-0.2S0
G1X-0.1S750
G1X-0.2S0
G1X-0.1S750
G1X-0.1S0
G1X-0.1S750
G1X-0.1S0
G1X-0.2S750
G1X-0.2S0
G1X-0.1S750
G1X-0.1S0
G1X-0.1S750
G1X-0.2S0
G1X-0.2S750
G1X-0.2S0
G1X-0.1S750
G1X-0.1S0
G1X-0.1S750
G1X-0.2S0
G1X-0.2S750
G1X-0.1S0
G1X-0.1S750
