; LightBurn 1.0.06
; GRBL device profile, absolute coords
; Bounds: X60.1 Y56.6 to X159.7 Y163.5
G00 G17 G40 G21 G54
G90
M4
; Image @ 1500 mm/min, 81% power
M9
G0X96.3Y56.599
; Layer C00
G91
G1X0.2F1500S810
G1X-0.1Y0.1S0
G1X-0.6S810
G1X-0.3Y0.1S0
G1X0.8S810
G1X-0.2Y0.1S0
G1X-0.9S810
G1X-0.3Y0.1S0
G1X1.1S810
G1X-0.1Y0.1S0
G1X-1.3S810
G1X-0.2Y0.1S0
G1X1.4S810
G1X1.9S0
G1X0.7S810
G1Y0.1S0
G1X-1.2S810
G1X-1.5S0
G1X-1.5S810
G1X-0.2Y0.1S0
G1X1.6S810
G1X1.3S0
G1X1.2S810
G1X-0.1Y0.1S0
G1X-1.5S810
G1X-1S0
G1X-1.6S810
G1X-0.2Y0.1S0
G1X1.7S810
G1X0.8S0
G1X1.6S810
G1X2.8Y0.1S0
G1X-0.7S810
G1X-2.3S0
G1X-1.6S810
G1X-0.7S0
G1X-1.8S810
G1X-1.6S0
G1X-0.1S810
G1X-0.2Y0.1S0
G1X0.2S810
G1X1.6S0
G1X1.8S810
G1X0.6S0
G1X1.7S810
G1X1.9S0
G1X1.6S810
G1X5.1S0
G1X0.1S810
G1Y0.1S0
G1X-0.3S810
G1X-4.9S0
G1X-2S810
G1X-1.7S0
G1X-1.7S810
G1X-0.5S0
G1X-1.9S810
G1X-1.4S0
G1X-0.4S810
G1X-0.2Y0.1S0
G1X0.4S810
G1X1.5S0
G1X2S810
G1X0.3S0
G1X1.7S810
G1X1.6S0
G1X2.1S810
G1X4.9S0
G1X0.4S810
G1X-0.1Y0.1S0
G1X-0.5S810
G1X-5S0
G1X-2S810
G1X-1.5S0
G1X-1.8S810
G1X-0.2S0
G1X-2.1S810
G1X-1.4S0
G1X-0.4S810
G1X-0.1Y0.1S0
G1X0.5S810
G1X1.3S0
G1X2.2S810
G1X0.1S0
G1X1.7S810
G1X1.6S0
G1X1.8S810
G1X5.1S0
G1X0.7S810
G1X-0.1Y0.1S0
G1X-0.8S810
G1X-5S0
G1X-2S810
G1X-1.4S0
G1X-4S810
G1X-1.3S0
G1X-0.6S810
G1X-0.1Y0.1S0
G1X0.6S810
G1X1.2S0
G1X4.2S810
G1X0.4S0
G1X0.1S810
G1X0.2S0
G1X0.1S810
G1X0.1S0
G1X2.3S810
G1X4.9S0
G1X1S810
G1Y0.1S0
G1X-1.2S810
G1X-4.9S0
G1X-7.3S810
G1X-1.1S0
G1X-0.8S810
G1X-0.1Y0.1S0
G1X0.8S810
G1X1.1S0
G1X1.4S810
G1X0.3S0
G1X5.5S810
G1X4.8S0
G1X1.4S810
G1X-0.1Y0.1S0
G1X-1.6S810
G1X-4.7S0
G1X-5.4S810
G1X-0.4S0
G1X-1.3S810
G1X-1S0
G1X-0.9S810
G1X-0.1Y0.1S0
G1X0.9S810
G1X1S0
G1X1.2S810
G1X0.5S0
G1X2.7S810
G1X0.1S0
G1X2.6S810
G1X4.4S0
G1X1.9S810
G1X-0.1Y0.1S0
G1X-2.2S810
G1X-4S0
G1X-5.4S810
G1X-0.6S0
G1X-1.2S810
G1X-1S0
G1X-1S810
G1X-0.1Y0.1S0
G1X1.1S810
G1X0.8S0
G1X1.2S810
G1X0.7S0
G1X5.6S810
G1X3.5S0
G1X2.5S810
G1Y0.1S0
G1X-3.2S810
G1X-1.8S0
G1X-0.1S810
G1X-0.2S0
G1X-2.3S810
G1X-1S0
G1X-3S810
G1X-0.9S0
G1X-1S810
G1X-0.8S0
G1X-1.2S810
G1X-0.1Y0.1S0
G1X1.2S810
G1X0.7S0
G1X1.1S810
G1X1S0
G1X2.4S810
G1X2S0
G1X7.6S810
G1X0.2Y0.1S0
G1X-7.6S810
G1X-2.6S0
G1X-0.5S810
G1X-0.8S0
G1X-0.8S810
G1X-1.1S0
G1X-1S810
G1X-0.6S0
G1X-1.3S810
G1X-0.1Y0.1S0
G1X1.4S810
G1X0.5S0
G1X1S810
G1X1.2S0
G1X0.2S810
G1X4.9S0
G1X7.5S810
G1X0.3Y0.1S0
G1X-7.4S810
G1X-6.9S0
G1X-0.9S810
G1X-0.5S0
G1X-1.4S810
G1X-0.1Y0.1S0
G1X1.6S810
G1X0.4S0
G1X0.8S810
G1X7.5S0
G1X7.3S810
G1X0.2Y0.1S0
G1X-6.7S810
G1X-0.1S0
G1X-0.1S810
G1X-8.3S0
G1X-0.7S810
G1X-0.4S0
G1X-1.6S810
G1X-0.1Y0.1S0
G1X1.7S810
G1X0.3S0
G1X0.6S810
G1X9.7S0
G1X0.1S810
G1X0.2S0
G1X0.2S810
G1X0.1S0
G1X0.2S810
G1X0.1S0
G1X4.5S810
G1X-0.3Y0.1S0
G1X-1.5S810
G1X-13.4S0
G1X-0.6S810
G1X-0.2S0
G1X-1.8S810
G1X-0.1Y0.1S0
G1X1.9S810
G1X0.1S0
G1X0.6S810
G1X2.4S0
G1X0.2S810
G1X11S0
G1X1.3S810
G1X-0.2Y0.1S0
G1X-1.4S810
G1X-10.7S0
G1X-0.4S810
G1X-2.3S0
G1X-2.6S810
G1Y0.1S0
G1X2.5S810
G1X2.2S0
G1X0.5S810
G1X4.3S0
G1X0.1S810
G1X0.2S0
G1X0.1S810
G1X6S0
G1X1.4S810
G1X-0.1Y0.1S0
G1X-1.5S810
G1X-5.5S0
G1X-1.3S810
G1X-3.7S0
G1X-0.7S810
G1X-0.8S0
G1X-0.2S810
G1X-1.1S0
G1X-2.5S810
G1X-0.1Y0.1S0
G1X2.4S810
G1X1.2S0
G1X0.2S810
G1X0.8S0
G1X0.7S810
G1X3.5S0
G1X1.4S810
G1X5.6S0
G1X1.6S810
G1X0.1Y0.1S0
G1X-1.9S810
G1X-5.6S0
G1X-1.5S810
G1X-3.2S0
G1X-0.9S810
G1X-0.6S0
G1X-0.4S810
G1X-1.1S0
G1X-2.4S810
G1X-0.1Y0.1S0
G1X2.4S810
G1X1.1S0
G1X0.5S810
G1X0.5S0
G1X0.9S810
G1X3.1S0
G1X1.6S810
G1X5.7S0
G1X2.1S810
G1X0.3Y0.1S0
G1X-2.4S810
G1X-5.9S0
G1X-1.6S810
G1X-2.9S0
G1X-1.1S810
G1X-0.3S0
G1X-0.6S810
G1X-1S0
G1X-2.4S810
G1X-0.1Y0.1S0
G1X1.6S810
G1X0.2S0
G1X0.5S810
G1X1.1S0
G1X0.6S810
G1X0.3S0
G1X1.2S810
G1X2.8S0
G1X1.7S810
G1X6.2S0
G1X2.4S810
G1X0.4Y0.1S0
G1X-2.7S810
G1X-6.5S0
G1X-1.7S810
G1X-2.7S0
G1X-1.2S810
G1X-0.2S0
G1X-0.8S810
G1X-0.9S0
G1X-0.5S810
G1X-0.3S0
G1X-1.6S810
G1X-0.1Y0.1S0
G1X1.6S810
G1X0.4S0
G1X0.4S810
G1X0.9S0
G1X2.3S810
G1X2.6S0
G1X1.7S810
G1X6.8S0
G1X0.2S810
G1X0.1S0
G1X2.7S810
G1X0.5Y0.1S0
G1X-3.3S810
G1X-7.1S0
G1X-1.8S810
G1X-2.5S0
G1X-2.3S810
G1X-0.9S0
G1X-0.3S810
G1X-0.5S0
G1X-1.5S810
G1X-0.7Y0.1S0
G1X0.1S810
G1X0.5S0
G1X1.5S810
G1X0.6S0
G1X0.3S810
G1X0.8S0
G1X2.4S810
G1X2.4S0
G1X1.8S810
G1X7.3S0
G1X3.7S810
G1X0.2Y0.1S0
G1X-3.6S810
G1X-7.7S0
G1X-1.8S810
G1X-2.3S0
G1X-2.5S810
G1X-0.8S0
G1X-0.2S810
G1X-0.8S0
G1X-1.4S810
G1X-0.4S0
G1X-0.1S810
G1X-0.1Y0.1S0
G1X0.2S810
G1X0.3S0
G1X1.5S810
G1X0.8S0
G1X0.2S810
G1X0.7S0
G1X2.5S810
G1X2.2S0
G1X1.9S810
G1X7.9S0
G1X2.5S810
G1X-0.4Y0.1S0
G1X-2S810
G1X-8.1S0
G1X-1.8S810
G1X-2.2S0
G1X-2.6S810
G1X-0.7S0
G1X-0.1S810
G1X-0.9S0
G1X-1.4S810
G1X-0.3S0
G1X-0.3S810
G1Y0.1S0
G1X0.3S810
G1X0.2S0
G1X1.4S810
G1X1.7S0
G1X2.7S810
G1X2S0
G1X1.9S810
G1X8.4S0
G1X1.5S810
G1Y0.1S0
G1X-1.3S810
G1X-8.6S0
G1X-2S810
G1X-2S0
G1X-2.7S810
G1X-1.7S0
G1X-1.3S810
G1X-0.2S0
G1X-0.4S810
G1X-0.1Y0.1S0
G1X0.5S810
G1X0.1S0
G1X1.3S810
G1X1.7S0
G1X2.8S810
G1X1.9S0
G1X2S810
G1X8.7S0
G1X1.2S810
G1X0.2Y0.1S0
G1X-1.2S810
G1X-9S0
G1X-1.9S810
G1X-2S0
G1X-2.8S810
G1X-1.6S0
G1X-1.9S810
G1Y0.1S0
G1X1.8S810
G1X1.7S0
G1X2.8S810
G1X1.9S0
G1X1.9S810
G1X9.2S0
G1X1.2S810
G1X0.3Y0.1S0
G1X-1.4S810
G1X-9.3S0
G1X-2S810
G1X-1.8S0
G1X-2.9S810
G1X-1.7S0
G1X-1.8S810
G1Y0.1S0
G1X1.7S810
G1X1.7S0
G1X3S810
G1X1.7S0
G1X2S810
G1X9.6S0
G1X1.5S810
G1X0.2Y0.1S0
G1X-1.6S810
G1X-9.7S0
G1X-2.1S810
G1X-1.7S0
G1X-3S810
G1X-1.6S0
G1X-1.8S810
G1Y0.1S0
G1X1.7S810
G1X1.6S0
G1X3.1S810
G1X1.7S0
G1X2S810
G1X8.8S0
G1X0.4S810
G1X0.7S0
G1X1.7S810
G1X0.2Y0.1S0
G1X-1.9S810
G1X-0.2S0
G1X-0.8S810
G1X-5.3S0
G1X-0.1S810
G1X-0.1S0
G1X-0.3S810
G1X-3.1S0
G1X-2.1S810
G1X-1.6S0
G1X-3.1S810
G1X-1.6S0
G1X-1.7S810
G1Y0.1S0
G1X1.6S810
G1X1.6S0
G1X3.2S810
G1X1.5S0
G1X2.1S810
G1X3.2S0
G1X1.2S810
G1X4.8S0
G1X2.8S810
G1X0.2Y0.1S0
G1X-0.8S810
G1X-0.3S0
G1X-1.9S810
G1X-4.3S0
G1X-1.5S810
G1X-3.4S0
G1X-2.1S810
G1X-1.6S0
G1X-3.2S810
G1X-1.5S0
G1X-1.7S810
G1Y0.1S0
G1X1.6S810
G1X1.5S0
G1X3.3S810
G1X1.5S0
G1X2.1S810
G1X3.6S0
G1X1.9S810
G1X3.9S0
G1X1.8S810
G1X0.5S0
G1X0.7S810
G1Y0.1S0
G1X-0.4S810
G1X-0.7S0
G1X-1.7S810
G1X-3.8S0
G1X-2.1S810
G1X-3.7S0
G1X-2.1S810
G1X-1.5S0
G1X-3.4S810
G1X-1.4S0
G1X-1.6S810
G1Y0.1S0
G1X1.6S810
G1X1.4S0
G1X3.4S810
G1X1.4S0
G1X2.1S810
G1X3.9S0
G1X2.3S810
G1X3.5S0
G1X1.8S810
G1X0.8S0
G1X0.3S810
G1X0.1Y0.1S0
G1X-0.3S810
G1X-0.9S0
G1X-1.7S810
G1X-3.4S0
G1X-2.3S810
G1X-4.1S0
G1X-2.1S810
G1X-1.5S0
G1X-3.4S810
G1X-1.4S0
G1X-1.5S810
G1Y0.1S0
G1X1.5S810
G1X1.3S0
G1X3.5S810
G1X1.4S0
G1X2.2S810
G1X4.2S0
G1X2.4S810
G1X3.3S0
G1X1.7S810
G1Y0.1S0
G1X-1.6S810
G1X-3.1S0
G1X-2.6S810
G1X-4.4S0
G1X-2.1S810
G1X-1.4S0
G1X-3.5S810
G1X-1.4S0
G1X-1.4S810
G1Y0.1S0
G1X1.4S810
G1X1.3S0
G1X3.6S810
G1X1.4S0
G1X2S810
G1X4.6S0
G1X2.6S810
G1X3S0
G1X1.7S810
G1X0.1Y0.1S0
G1X-1.7S810
G1X-2.9S0
G1X-2.7S810
G1X-4.7S0
G1X-2S810
G1X-1.4S0
G1X-3.7S810
G1X-1.2S0
G1X-1.4S810
G1Y0.1S0
G1X1.4S810
G1X1.2S0
G1X1.7S810
G1X0.1S0
G1X1.9S810
G1X1.3S0
G1X2S810
G1X2.5S0
G1X0.1S810
G1X2.3S0
G1X2.8S810
G1X2.8S0
G1X1.7S810
G1X0.1Y0.1S0
G1X-1.8S810
G1X-2.7S0
G1X-2.8S810
G1X-1.5S0
G1X-1.8S810
G1X-1.8S0
G1X-1.9S810
G1X-1.3S0
G1X-1S810
G1X-2.4S0
G1X-0.4S810
G1X-1.2S0
G1X-1.3S810
G1Y0.1S0
G1X1.3S810
G1X4.5S0
G1X0.5S810
G1X1.3S0
G1X1.8S810
G1X1.4S0
G1X2.6S810
G1X1.3S0
G1X2.9S810
G1X2.6S0
G1X1.8S810
G1Y0.1S0
G1X-1.7S810
G1X-2.6S0
G1X-2.8S810
G1X-1.3S0
G1X-3.1S810
G1X-1.2S0
G1X-1.6S810
G1X-1.4S0
G1X-0.2S810
G1X-4.8S0
G1X-1.3S810
G1Y0.1S0
G1X1.3S810
G1X6.4S0
G1X1.5S810
G1X1.2S0
G1X3.4S810
G1X1.1S0
G1X2.9S810
G1X2.5S0
G1X1.8S810
G1X0.1Y0.1S0
G1X-1.9S810
G1X-2.4S0
G1X-2.9S810
G1X-1S0
G1X-3.5S810
G1X-1.5S0
G1X-1.3S810
G1X-6.4S0
G1X-1.3S810
G1Y0.1S0
G1X1.2S810
G1X6.6S0
G1X1S810
G1X1.8S0
G1X3.5S810
G1X1S0
G1X2.9S810
G1X2.4S0
G1X1.9S810
G1X0.2Y0.1S0
G1X-2S810
G1X-2.4S0
G1X-2.9S810
G1X-1.1S0
G1X-3.5S810
G1X-2.1S0
G1X-0.5S810
G1X-6.8S0
G1X-1.2S810
G1X0.1Y0.1S0
G1X1.2S810
G1X9.4S0
G1X3.6S810
G1X1S0
G1X2.9S810
G1X2.3S0
G1X0.6S810
G1X0.1S0
G1X1.4S810
G1X0.1Y0.1S0
G1X-1.2S810
G1X-0.1S0
G1X-0.9S810
G1X-2.2S0
G1X-2.9S810
G1X-1.1S0
G1X-3.5S810
G1X-9.6S0
G1X-1.2S810
G1X0.1Y0.1S0
G1X1.1S810
G1X9.7S0
G1X3.5S810
G1X1.1S0
G1X2.9S810
G1X2.2S0
G1X1S810
G1X0.2S0
G1X1S810
G1X0.1Y0.1S0
G1X-0.8S810
G1X-0.5S0
G1X-1S810
G1X-2.2S0
G1X-2.8S810
G1X-1.1S0
G1X-3.4S810
G1X-9.9S0
G1X-1.1S810
G1Y0.1S0
G1X1.2S810
G1X1.7S0
G1X0.1S810
G1X0.1S0
G1X0.8S810
G1X0.1S0
G1X0.1S810
G1X6.9S0
G1X3.5S810
G1X1S0
G1X2.9S810
G1X2.1S0
G1X1.1S810
G1Y0.1S0
G1X-1S810
G1X-2.1S0
G1X-2.9S810
G1X-1.1S0
G1X-3.3S810
G1X-6.5S0
G1X-2.4S810
G1X-1.2S0
G1X-1.1S810
G1Y0.1S0
G1X1.1S810
G1X0.8S0
G1X3.1S810
G1X6.3S0
G1X3.3S810
G1X1.1S0
G1X2.9S810
G1X2S0
G1X1.1S810
G1Y0.1S0
G1X-1S810
G1X-2.1S0
G1X-2.8S810
G1X-1.1S0
G1X-3.3S810
G1X-6.1S0
G1X-3.8S810
G1X-0.3S0
G1X-1.2S810
G1Y0.1S0
G1X1.2S810
G1X0.1S0
G1X4.1S810
G1X6.2S0
G1X3.1S810
G1X1.1S0
G1X2.8S810
G1X2.1S0
G1X1.1S810
G1Y0.1S0
G1X-1.1S810
G1X-2S0
G1X-2.8S810
G1X-1.1S0
G1X-3.1S810
G1X-6.2S0
G1X-5.4S810
G1X-0.1Y0.1S0
G1X5.7S810
G1X6.2S0
G1X2.9S810
G1X1.2S0
G1X2.8S810
G1X2S0
G1X1.1S810
G1Y0.1S0
G1X-1.1S810
G1X-2S0
G1X-2.8S810
G1X-1.1S0
G1X-2.8S810
G1X-6.3S0
G1X-5.7S810
G1Y0.1S0
G1X5.9S810
G1X6.2S0
G1X2.7S810
G1X1.2S0
G1X2.8S810
G1X1.9S0
G1X1.2S810
G1Y0.1S0
G1X-1.2S810
G1X-1.9S0
G1X-2.8S810
G1X-1.1S0
G1X-2.6S810
G1X-6.1S0
G1X-6.2S810
G1Y0.1S0
G1X6.4S810
G1X6.2S0
G1X2.3S810
G1X1.2S0
G1X2.7S810
G1X2S0
G1X1.1S810
G1X0.1Y0.1S0
G1X-1.2S810
G1X-1.9S0
G1X-2.7S810
G1X-1.2S0
G1X-2.2S810
G1X-1.6S0
G1X-0.1S810
G1X-0.2S0
G1X-0.7S810
G1X-0.1S0
G1X-0.1S810
G1X-3.1S0
G1X-6.9S810
G1Y0.1S0
G1X7.5S810
G1X0.1S0
G1X0.1S810
G1X1.1S0
G1X0.1S810
G1X0.2S0
G1X2.6S810
G1X1.4S0
G1X1.9S810
G1X1.2S0
G1X2.7S810
G1X1.9S0
G1X1.2S810
G1X0.1Y0.1S0
G1X-1.3S810
G1X-1.9S0
G1X-2.6S810
G1X-1.2S0
G1X-1.7S810
G1X-1.4S0
G1X-12S810
G1Y0.1S0
G1X12.3S810
G1X1.3S0
G1X1.5S810
G1X1.2S0
G1X2.6S810
G1X2S0
G1X1.2S810
G1X0.1Y0.1S0
G1X-1.3S810
G1X-1.9S0
G1X-2.6S810
G1X-1.2S0
G1X-1.4S810
G1X-1.2S0
G1X-12.6S810
G1Y0.1S0
G1X12.8S810
G1X1.3S0
G1X1.1S810
G1X1.2S0
G1X2.6S810
G1X1.9S0
G1X1.3S810
G1Y0.1S0
G1X-1.3S810
G1X-1.9S0
G1X-2.5S810
G1X-1.3S0
G1X-1S810
G1X-1.2S0
G1X-13S810
G1Y0.1S0
G1X13.2S810
G1X1.1S0
G1X0.9S810
G1X1.3S0
G1X2.6S810
G1X1.8S0
G1X1.4S810
G1Y0.1S0
G1X-1.4S810
G1X-1.8S0
G1X-2.6S810
G1X-1.2S0
G1X-0.8S810
G1X-1.2S0
G1X-13.3S810
G1X-0.1Y0.1S0
G1X13.6S810
G1X1.1S0
G1X0.7S810
G1X1.3S0
G1X2.5S810
G1X1.9S0
G1X1.3S810
G1X0.1Y0.1S0
G1X-1.4S810
G1X-1.9S0
G1X-2.5S810
G1X-1.3S0
G1X-0.6S810
G1X-1.1S0
G1X-13.7S810
G1Y0.1S0
G1X13.9S810
G1X1.1S0
G1X0.5S810
G1X1.2S0
G1X2.5S810
G1X1.9S0
G1X1.4S810
G1Y0.1S0
G1X-1.4S810
G1X-1.9S0
G1X-2.4S810
G1X-1.3S0
G1X-0.5S810
G1X-1S0
G1X-14S810
G1Y0.1S0
G1X14.1S810
G1X1.1S0
G1X0.3S810
G1X1.3S0
G1X2.4S810
G1X1.9S0
G1X1.5S810
G1Y0.1S0
G1X-1.5S810
G1X-1.9S0
G1X-2.4S810
G1X-1.3S0
G1X-0.2S810
G1X-1.1S0
G1X-14.3S810
G1Y0.1S0
G1X14.4S810
G1X1S0
G1X0.3S810
G1X1.2S0
G1X2.5S810
G1X1.8S0
G1X1.6S810
G1Y0.1S0
G1X-1.6S810
G1X-1.9S0
G1X-2.3S810
G1X-1.4S0
G1X-0.1S810
G1X-1S0
G1X-6.2S810
G1X-1.2S0
G1X-1.9S810
G1X-0.1S0
G1X-5.2S810
G1X-0.1Y0.1S0
G1X3S810
G1X0.5S0
G1X1.3S810
G1X0.6S0
G1X1.4S810
G1X1.5S0
G1X6.5S810
G1X2.4S0
G1X2.3S810
G1X2S0
G1X1.5S810
G1Y0.1S0
G1X-1.6S810
G1X-1.8S0
G1X-2.4S810
G1X-2.3S0
G1X-6.7S810
G1X-1.7S0
G1X-1.1S810
G1X-0.8S0
G1X-1.2S810
G1X-0.6S0
G1X-1S810
G1X-0.3S0
G1X-1.5S810
G1X-0.1Y0.1S0
G1X1.4S810
G1X0.4S0
G1X1S810
G1X0.6S0
G1X1.1S810
G1X0.8S0
G1X1.1S810
G1X1.7S0
G1X7S810
G1X2.2S0
G1X2.3S810
G1X2S0
G1X1.6S810
G1Y0.1S0
G1X-1.6S810
G1X-1.9S0
G1X-2.4S810
G1X-2.1S0
G1X-7.4S810
G1X-1.6S0
G1X-1S810
G1X-0.8S0
G1X-1.1S810
G1X-0.7S0
G1X-0.9S810
G1X-0.4S0
G1X-1.4S810
G1X-0.1Y0.1S0
G1X1.4S810
G1X0.4S0
G1X0.9S810
G1X0.7S0
G1X1S810
G1X0.8S0
G1X1S810
G1X1.7S0
G1X7.6S810
G1X2.1S0
G1X2.2S810
G1X1.9S0
G1X1.7S810
G1X0.1Y0.1S0
G1X-1.7S810
G1X-2S0
G1X-2.2S810
G1X-2.1S0
G1X-7.9S810
G1X-1.5S0
G1X-1S810
G1X-0.8S0
G1X-1S810
G1X-0.7S0
G1X-0.9S810
G1X-0.4S0
G1X-1.4S810
G1X-0.1Y0.1S0
G1X1.5S810
G1X0.2S0
G1X1S810
G1X0.6S0
G1X1.1S810
G1X0.8S0
G1X1S810
G1X1.4S0
G1X8.2S810
G1X1.9S0
G1X2.4S810
G1X1.9S0
G1X1.7S810
G1Y0.1S0
G1X-1.7S810
G1X-2S0
G1X-2.2S810
G1X-1.9S0
G1X-8.5S810
G1X-1.4S0
G1X-1S810
G1X-0.7S0
G1X-1.1S810
G1X-0.5S0
G1X-2.8S810
G1X-0.2Y0.1S0
G1X2.9S810
G1X0.5S0
G1X1.2S810
G1X0.5S0
G1X1.1S810
G1X1.2S0
G1X8.9S810
G1X1.8S0
G1X2.2S810
G1X2S0
G1X1.7S810
G1X0.1Y0.1S0
G1X-1.8S810
G1X-2S0
G1X-2.3S810
G1X-1.7S0
G1X-9.3S810
G1X-0.8S0
G1X-1.3S810
G1X-0.4S0
G1X-1.3S810
G1X-0.4S0
G1X-3S810
G1X-0.2Y0.1S0
G1X4.8S810
G1X0.3S0
G1X11.7S810
G1X1.6S0
G1X2.3S810
G1X2S0
G1X1.8S810
G1Y0.1S0
G1X-1.8S810
G1X-2S0
G1X-2.3S810
G1X-1.5S0
G1X-17.1S810
G1X-0.2Y0.1S0
G1X17.3S810
G1X1.5S0
G1X2.3S810
G1X2S0
G1X1.8S810
G1X0.1Y0.1S0
G1X-1.9S810
G1X-2S0
G1X-2.3S810
G1X-1.4S0
G1X-5.1S810
G1X-0.4S0
G1X-12.1S810
G1X-0.2Y0.1S0
G1X11.8S810
G1X1.1S0
G1X4.9S810
G1X1.4S0
G1X2.3S810
G1X2S0
G1X1.9S810
G1X14.7Y0.1S0
G1X-0.1S810
G1X-4S0
G1X-0.2S810
G1X-10.4S0
G1X-1.9S810
G1X-2.1S0
G1X-2.2S810
G1X-1.3S0
G1X-4.9S810
G1X-1.5S0
G1X-11.6S810
G1X-0.2Y0.1S0
G1X11.5S810
G1X1.8S0
G1X4.9S810
G1X1.3S0
G1X2.2S810
G1X2.1S0
G1X1.9S810
G1X10.4S0
G1X0.1S810
G1X3.6S0
G1X0.5S810
G1X3.1S0
G1X0.8S810
G1X0.1S0
G1X0.1S810
G1Y0.1S0
G1X-1.5S810
G1X-2.7S0
G1X-0.7S810
G1X-3.3S0
G1X-0.2S810
G1X-10.3S0
G1X-1.8S810
G1X-2.2S0
G1X-2.2S810
G1X-1.2S0
G1X-4.9S810
G1X-2.2S0
G1X-8.2S810
G1X-0.1S0
G1X-0.1S810
G1X-0.6S0
G1X-2.3S810
G1X-0.2Y0.1S0
G1X2.1S810
G1X1.4S0
G1X7.8S810
G1X2.5S0
G1X4.9S810
G1X1S0
G1X2.3S810
G1X2.2S0
G1X1.9S810
G1X10.2S0
G1X0.2S810
G1X3S0
G1X0.8S810
G1X2.6S0
G1X1.5S810
G1X-0.1Y0.1S0
G1X-1.6S810
G1X-2.4S0
G1X-1.1S810
G1X-2.7S0
G1X-0.2S810
G1X-10.2S0
G1X-1.9S810
G1X-2.2S0
G1X-2.3S810
G1X-1S0
G1X-4.8S810
G1X-2.8S0
G1X-7.4S810
G1X-1.8S0
G1X-2S810
G1X-0.1Y0.1S0
G1X1.8S810
G1X2.1S0
G1X7.2S810
G1X3S0
G1X4.8S810
G1X1S0
G1X2.3S810
G1X2.2S0
G1X1.9S810
G1X10.1S0
G1X0.3S810
G1X2.5S0
G1X1.1S810
G1X2.3S0
G1X1.7S810
G1X-0.2Y0.1S0
G1X-1.7S810
G1X-2.1S0
G1X-1.3S810
G1X-2.4S0
G1X-0.3S810
G1X-10S0
G1X-1.9S810
G1X-2.2S0
G1X-2.3S810
G1X-0.9S0
G1X-4.9S810
G1X-3.2S0
G1X-7.1S810
G1X-2.1S0
G1X-1.8S810
G1X-0.1Y0.1S0
G1X1.6S810
G1X2.3S0
G1X7.1S810
G1X3.4S0
G1X4.8S810
G1X0.8S0
G1X2.4S810
G1X1.4S0
G1X0.1S810
G1X0.7S0
G1X2S810
G1X9.9S0
G1X0.3S810
G1X2.2S0
G1X1.3S810
G1X2.1S0
G1X1.7S810
G1Y0.1S0
G1X-1.9S810
G1X-2S0
G1X-1.4S810
G1X-2S0
G1X-0.4S810
G1X-9.8S0
G1X-2S810
G1X-0.7S0
G1X-0.1S810
G1X-1.4S0
G1X-2.5S810
G1X-0.6S0
G1X-4.9S810
G1X-3.6S0
G1X-7.1S810
G1X-2.2S0
G1X-1.6S810
G1X-0.1Y0.1S0
G1X1.6S810
G1X2.2S0
G1X7.1S810
G1X3.8S0
G1X4.8S810
G1X0.5S0
G1X2.6S810
G1X1.5S0
G1X0.1S810
G1X0.7S0
G1X1.9S810
G1X9.8S0
G1X0.4S810
G1X1.8S0
G1X1.5S810
G1X2S0
G1X1.8S810
G1X-0.2Y0.1S0
G1X-1.8S810
G1X-1.8S0
G1X-1.6S810
G1X-1.7S0
G1X-0.5S810
G1X-9.6S0
G1X-2S810
G1X-0.7S0
G1X-0.2S810
G1X-1.5S0
G1X-2.6S810
G1X-0.3S0
G1X-5S810
G1X-3.9S0
G1X-7.1S810
G1X-2.2S0
G1X-1.5S810
G1X-0.1Y0.1S0
G1X1.4S810
G1X2.3S0
G1X7.1S810
G1X4.1S0
G1X4.9S810
G1X0.2S0
G1X2.7S810
G1X1.6S0
G1X0.1S810
G1X0.7S0
G1X2S810
G1X9.6S0
G1X0.4S810
G1X1.6S0
G1X1.6S810
G1X1.8S0
G1X1.9S810
G1X-0.1Y0.1S0
G1X-1.9S810
G1X-1.7S0
G1X-1.8S810
G1X-1.4S0
G1X-0.5S810
G1X-9.5S0
G1X-1.9S810
G1X-0.7S0
G1X-0.2S810
G1X-1.5S0
G1X-7.9S810
G1X-4.3S0
G1X-7.1S810
G1X-2.2S0
G1X-1.4S810
G1X-0.1Y0.1S0
G1X1.4S810
G1X2.2S0
G1X7.1S810
G1X4.4S0
G1X7.8S810
G1X1.6S0
G1X0.2S810
G1X0.7S0
G1X2S810
G1X9.3S0
G1X0.6S810
G1X1.3S0
G1X1.7S810
G1X1.7S0
G1X1.9S810
G1X3.7Y0.1S0
G1X-1.3S810
G1X-2.5S0
G1X-1.9S810
G1X-1.6S0
G1X-1.9S810
G1X-1.1S0
G1X-0.6S810
G1X-9.3S0
G1X-2S810
G1X-0.7S0
G1X-0.2S810
G1X-1.6S0
G1X-7.8S810
G1X-4.6S0
G1X-7.1S810
G1X-2.1S0
G1X-1.4S810
G1X-0.1Y0.1S0
G1X1.3S810
G1X2.8S0
G1X6.5S810
G1X4.7S0
G1X7.8S810
G1X1.6S0
G1X0.3S810
G1X0.6S0
G1X2S810
G1X9.2S0
G1X0.6S810
G1X1.1S0
G1X1.9S810
G1X1.6S0
G1X1.8S810
G1X2.2S0
G1X1.7S810
G1X-0.3Y0.1S0
G1X-1.7S810
G1X-2S0
G1X-1.8S810
G1X-1.6S0
G1X-2S810
G1X-0.9S0
G1X-0.6S810
G1X-9.1S0
G1X-2S810
G1X-0.7S0
G1X-0.3S810
G1X-1.6S0
G1X-7.8S810
G1X-0.2S0
G1X-0.1S810
G1X-4.5S0
G1X-6.2S810
G1X-3S0
G1X-1.4S810
G1X-0.1Y0.1S0
G1X1.3S810
G1X3.4S0
G1X5.9S810
G1X3.2S0
G1X0.1S810
G1X0.1S0
G1X9.3S810
G1X1.6S0
G1X0.4S810
G1X0.6S0
G1X2S810
G1X9S0
G1X0.7S810
G1X0.8S0
G1X2S810
G1X1.5S0
G1X1.9S810
G1X1.9S0
G1X1.7S810
G1X-0.2Y0.1S0
G1X-1.8S810
G1X-1.7S0
G1X-1.9S810
G1X-1.5S0
G1X-2S810
G1X-0.7S0
G1X-0.8S810
G1X-8.9S0
G1X-2S810
G1X-0.6S0
G1X-0.3S810
G1X-1.7S0
G1X-10.1S810
G1X-2.8S0
G1X-5.7S810
G1X-3.5S0
G1X-1.3S810
G1Y0.1S0
G1X1.2S810
G1X3.7S0
G1X5.5S810
G1X2.4S0
G1X10.6S810
G1X1.6S0
G1X0.5S810
G1X0.6S0
G1X2S810
G1X8.8S0
G1X0.7S810
G1X0.7S0
G1X2.1S810
G1X1.4S0
G1X1.9S810
G1X1.6S0
G1X1.8S810
G1X1.8S0
G1X0.2S810
G1Y0.1S0
G1X-0.3S810
G1X-1.9S0
G1X-1.8S810
G1X-1.6S0
G1X-1.8S810
G1X-1.4S0
G1X-2.2S810
G1X-0.5S0
G1X-0.8S810
G1X-8.7S0
G1X-2S810
G1X-0.6S0
G1X-0.5S810
G1X-1.6S0
G1X-11.1S810
G1X-2S0
G1X-5.3S810
G1X-3.9S0
G1X-1.2S810
G1X-0.1Y0.1S0
G1X1.2S810
G1X4S0
G1X5.2S810
G1X1.7S0
G1X11.5S810
G1X1.6S0
G1X0.6S810
G1X0.5S0
G1X2.1S810
G1X8.5S0
G1X0.9S810
G1X0.5S0
G1X2.1S810
G1X1.4S0
G1X1.8S810
G1X1.6S0
G1X1.7S810
G1X2S0
G1X0.3S810
G1X11Y0.1S0
G1X-0.1S810
G1X-11S0
G1X-0.3S810
G1X-2.1S0
G1X-1.7S810
G1X-1.5S0
G1X-1.8S810
G1X-1.4S0
G1X-2.2S810
G1X-0.4S0
G1X-0.9S810
G1X-8.4S0
G1X-2S810
G1X-0.6S0
G1X-0.5S810
G1X-1.7S0
G1X-11.8S810
G1X-1.5S0
G1X-5.4S810
G1X-0.1S0
G1X-0.2S810
G1X-0.1S0
G1X-0.1S810
G1X-3.3S0
G1X-1.2S810
G1X-0.1Y0.1S0
G1X1.2S810
G1X2.5S0
G1X0.1S810
G1X0.1S0
G1X6.5S810
G1X1.2S0
G1X12.2S810
G1X1.6S0
G1X0.6S810
G1X0.6S0
G1X2.1S810
G1X8.3S0
G1X0.9S810
G1X0.3S0
G1X2.3S810
G1X1.3S0
G1X1.8S810
G1X1.4S0
G1X1.8S810
G1X2.1S0
G1X0.4S810
G1X9.5S0
G1X0.2S810
G1X1.3S0
G1X0.1S810
G1Y0.1S0
G1X-0.1S810
G1X-1.4S0
G1X-0.2S810
G1X-9.4S0
G1X-0.6S810
G1X-2.1S0
G1X-1.8S810
G1X-1.3S0
G1X-1.8S810
G1X-1.3S0
G1X-2.3S810
G1X-0.2S0
G1X-1S810
G1X-8.2S0
G1X-2S810
G1X-0.6S0
G1X-0.7S810
G1X-1.6S0
G1X-12.4S810
G1X-1.1S0
G1X-7.1S810
G1X-2.1S0
G1X-1.1S810
G1X-0.1Y0.1S0
G1X1.1S810
G1X1.8S0
G1X7.4S810
G1X0.9S0
G1X4.7S810
G1X0.1S0
G1X0.1S810
G1X0.6S0
G1X7.2S810
G1X1.6S0
G1X0.7S810
G1X0.6S0
G1X2S810
G1X8.1S0
G1X1S810
G1X0.3S0
G1X2.3S810
G1X1.1S0
G1X2S810
G1X1.2S0
G1X1.7S810
G1X2.2S0
G1X0.6S810
G1X9.4S0
G1X0.2S810
G1X1.4S0
G1X0.2S810
G1Y0.1S0
G1X-0.2S810
G1X-1.4S0
G1X-0.2S810
G1X-1.3S0
G1X-0.1S810
G1X-8S0
G1X-0.7S810
G1X-2.2S0
G1X-1.8S810
G1X-1.2S0
G1X-1.8S810
G1X-1.2S0
G1X-2.3S810
G1X-0.2S0
G1X-1S810
G1X-8S0
G1X-2S810
G1X-0.7S0
G1X-0.7S810
G1X-1.6S0
G1X-7.2S810
G1X-1.4S0
G1X-4.3S810
G1X-0.8S0
G1X-7.7S810
G1X-1.5S0
G1X-1S810
G1X-0.1Y0.1S0
G1X1S810
G1X1.2S0
G1X8S810
G1X0.7S0
G1X4.2S810
G1X1.8S0
G1X7.1S810
G1X1.6S0
G1X0.8S810
G1X0.6S0
G1X2.1S810
G1X7.8S0
G1X1S810
G1X0.2S0
G1X2.3S810
G1X1.1S0
G1X2S810
G1X1.1S0
G1X1.7S810
G1X2.2S0
G1X0.8S810
G1X3.7S0
G1X0.1S810
G1X4.2S0
G1X0.2S810
G1X1.2S0
G1X0.3S810
G1X1.4S0
G1X0.2S810
G1Y0.1S0
G1X-0.3S810
G1X-1.3S0
G1X-0.4S810
G1X-1.1S0
G1X-0.2S810
G1X-4.2S0
G1X-0.1S810
G1X-3.8S0
G1X-0.7S810
G1X-2.3S0
G1X-1.8S810
G1X-1S0
G1X-1.9S810
G1X-1.1S0
G1X-2.4S810
G1X-0.1S0
G1X-1.1S810
G1X-7.7S0
G1X-2.1S810
G1X-0.6S0
G1X-0.8S810
G1X-1.6S0
G1X-7.1S810
G1X-1.9S0
G1X-4.3S810
G1X-0.6S0
G1X-8.2S810
G1X-1S0
G1X-1S810
G1X-0.1Y0.1S0
G1X1S810
G1X0.9S0
G1X8.3S810
G1X0.5S0
G1X4.4S810
G1X2S0
G1X7.1S810
G1X1.6S0
G1X0.9S810
G1X0.6S0
G1X2.1S810
G1X7.5S0
G1X3.7S810
G1X0.9S0
G1X2S810
G1X1S0
G1X1.8S810
G1X2.2S0
G1X0.9S810
G1X3.7S0
G1X0.2S810
G1X4.1S0
G1X0.4S810
G1X1S0
G1X0.3S810
G1X1.4S0
G1X0.3S810
G1Y0.1S0
G1X-0.3S810
G1X-1.4S0
G1X-0.4S810
G1X-0.9S0
G1X-0.4S810
G1X-4.1S0
G1X-0.2S810
G1X-3.8S0
G1X-1S810
G1X-2.2S0
G1X-1.8S810
G1X-0.9S0
G1X-1.9S810
G1X-1S0
G1X-3.7S810
G1X-7.4S0
G1X-2S810
G1X-0.7S0
G1X-0.9S810
G1X-1.6S0
G1X-7S810
G1X-2.2S0
G1X-4.4S810
G1X-0.5S0
G1X-8.5S810
G1X-0.7S0
G1X-0.9S810
G1X-0.1Y0.1S0
G1X0.9S810
G1X0.6S0
G1X8.6S810
G1X0.4S0
G1X4.7S810
G1X2.1S0
G1X7S810
G1X1.6S0
G1X0.9S810
G1X0.7S0
G1X2.1S810
G1X7.3S0
G1X3.7S810
G1X0.8S0
G1X2S810
G1X1S0
G1X1.7S810
G1X2.2S0
G1X1.1S810
G1X3.7S0
G1X0.2S810
G1X4.1S0
G1X0.4S810
G1X0.9S0
G1X0.5S810
G1X1.4S0
G1X0.3S810
G1X0.9Y0.1S0
G1X-0.1S810
G1X-0.8S0
G1X-0.4S810
G1X-1.4S0
G1X-0.4S810
G1X-0.8S0
G1X-0.6S810
G1X-4S0
G1X-0.3S810
G1X-3.7S0
G1X-1.1S810
G1X-2.2S0
G1X-1.8S810
G1X-0.8S0
G1X-2S810
G1X-0.8S0
G1X-3.8S810
G1X-7.2S0
G1X-2.1S810
G1X-0.6S0
G1X-1.1S810
G1X-1.4S0
G1X-7S810
G1X-2S0
G1X-5.1S810
G1X-0.2S0
G1X-0.1S810
G1X-0.1S0
G1X-8.6S810
G1X-0.5S0
G1X-0.8S810
G1X-0.1Y0.1S0
G1X0.9S810
G1X0.2S0
G1X9S810
G1X0.2S0
G1X5.3S810
G1X1.9S0
G1X6.9S810
G1X1.5S0
G1X1.1S810
G1X0.7S0
G1X2.1S810
G1X7S0
G1X3.8S810
G1X0.7S0
G1X2.1S810
G1X0.8S0
G1X1.8S810
G1X2.2S0
G1X1.1S810
G1X3.8S0
G1X0.3S810
G1X4S0
G1X0.6S810
G1X0.7S0
G1X0.5S810
G1X1.4S0
G1X0.4S810
G1X0.8S0
G1X0.2S810
G1X1.3S0
G1X0.2S810
G1X0.1Y0.1S0
G1X-0.3S810
G1X-1.2S0
G1X-0.3S810
G1X-0.8S0
G1X-0.4S810
G1X-1.4S0
G1X-0.5S810
G1X-0.7S0
G1X-0.7S810
G1X-1.3S0
G1X-0.2S810
G1X-2.4S0
G1X-0.4S810
G1X-3.8S0
G1X-1.2S810
G1X-2.2S0
G1X-1.7S810
G1X-0.7S0
G1X-2.1S810
G1X-0.7S0
G1X-3.9S810
G1X-6.8S0
G1X-2.1S810
G1X-0.8S0
G1X-1S810
G1X-1.6S0
G1X-6.8S810
G1X-1.9S0
G1X-5.5S810
G1X-0.2S0
G1X-4.8S810
G1X-1.4S0
G1X-2.8S810
G1X-0.2S0
G1X-0.8S810
G1X-0.1Y0.1S0
G1X3.3S810
G1X2S0
G1X4.7S810
G1X0.1S0
G1X5.8S810
G1X1.8S0
G1X6.9S810
G1X1.4S0
G1X1.1S810
G1X0.8S0
G1X2.2S810
G1X6.6S0
G1X4S810
G1X0.6S0
G1X2.1S810
G1X0.6S0
G1X1.9S810
G1X2.1S0
G1X1.3S810
G1X2.5S0
G1X0.2S810
G1X1.1S0
G1X0.4S810
G1X2.3S0
G1X0.2S810
G1X1.4S0
G1X0.7S810
G1X0.6S0
G1X0.6S810
G1X1.4S0
G1X0.5S810
G1X0.8S0
G1X0.4S810
G1X1.1S0
G1X0.3S810
G1X0.2Y0.1S0
G1X-0.5S810
G1X-1.1S0
G1X-0.4S810
G1X-0.8S0
G1X-0.6S810
G1X-1.3S0
G1X-0.6S810
G1X-0.6S0
G1X-0.8S810
G1X-1.3S0
G1X-0.3S810
G1X-2.2S0
G1X-0.5S810
G1X-1.1S0
G1X-0.3S810
G1X-2.4S0
G1X-1.4S810
G1X-2.1S0
G1X-1.8S810
G1X-0.6S0
G1X-2.1S810
G1X-0.6S0
G1X-4S810
G1X-6.5S0
G1X-2.2S810
G1X-0.7S0
G1X-1.2S810
G1X-1.4S0
G1X-6.8S810
G1X-1.8S0
G1X-7S810
G1X-1S0
G1X-2.7S810
G1X-2.4S0
G1X-3S810
G1Y0.1S0
G1X2.7S810
G1X2.6S0
G1X2.3S810
G1X1.5S0
G1X7.1S810
G1X1.8S0
G1X6.7S810
G1X1.4S0
G1X1.2S810
G1X0.8S0
G1X2.2S810
G1X6.3S0
G1X4.1S810
G1X0.5S0
G1X2.2S810
G1X0.5S0
G1X1.9S810
G1X1.9S0
G1X1.5S810
G1X2.2S0
G1X0.5S810
G1X1.2S0
G1X0.5S810
G1X2.1S0
G1X0.4S810
G1X1.2S0
G1X0.9S810
G1X0.6S0
G1X0.6S810
G1X1.3S0
G1X0.6S810
G1X0.8S0
G1X0.6S810
G1X0.9S0
G1X0.6S810
G1X0.1Y0.1S0
G1X-0.6S810
G1X-1S0
G1X-0.5S810
G1X-0.9S0
G1X-0.6S810
G1X-1.4S0
G1X-0.6S810
G1X-0.5S0
G1X-0.9S810
G1X-1.2S0
G1X-0.5S810
G1X-2S0
G1X-0.6S810
G1X-1.1S0
G1X-0.8S810
G1X-1.9S0
G1X-1.6S810
G1X-2S0
G1X-1.8S810
G1X-0.4S0
G1X-2.3S810
G1X-0.4S0
G1X-4.2S810
G1X-6.1S0
G1X-2.2S810
G1X-0.8S0
G1X-1.4S810
G1X-1.3S0
G1X-6.7S810
G1X-1.8S0
G1X-7.2S810
G1X-1.7S0
G1X-2S810
G1X-2.9S0
G1X-2.5S810
G1Y0.1S0
G1X2.2S810
G1X3.2S0
G1X1.8S810
G1X1.8S0
G1X7.5S810
G1X1.7S0
G1X6.6S810
G1X1.4S0
G1X1.3S810
G1X0.9S0
G1X2.2S810
G1X5.9S0
G1X4.3S810
G1X0.4S0
G1X2.2S810
G1X0.4S0
G1X1.9S810
G1X1.7S0
G1X0.1S810
G1X0.1S0
G1X1.6S810
G1X1.7S0
G1X1S810
G1X1.2S0
G1X0.6S810
G1X1.9S0
G1X0.6S810
G1X1.1S0
G1X1.1S810
G1X0.4S0
G1X0.6S810
G1X1.4S0
G1X0.6S810
G1X0.9S0
G1X0.6S810
G1X0.9S0
G1X0.6S810
G1X0.2Y0.1S0
G1X-0.7S810
G1X-0.9S0
G1X-0.6S810
G1X-1S0
G1X-0.6S810
G1X-1.3S0
G1X-0.7S810
G1X-0.4S0
G1X-1.2S810
G1X-1.1S0
G1X-0.5S810
G1X-1.9S0
G1X-0.7S810
G1X-1.2S0
G1X-1.1S810
G1X-1.6S0
G1X-1.8S810
G1X-1.7S0
G1X-1.9S810
G1X-0.3S0
G1X-2.3S810
G1X-0.3S0
G1X-4.4S810
G1X-5.7S0
G1X-2.3S810
G1X-0.9S0
G1X-1.4S810
G1X-1.3S0
G1X-6.5S810
G1X-1.8S0
G1X-7.5S810
G1X-2S0
G1X-1.7S810
G1X-3.3S0
G1X-2.1S810
G1Y0.1S0
G1X1.8S810
G1X3.6S0
G1X1.6S810
G1X2.1S0
G1X7.6S810
G1X1.8S0
G1X6.4S810
G1X1.3S0
G1X1.4S810
G1X0.9S0
G1X2.3S810
G1X5.6S0
G1X4.5S810
G1X0.2S0
G1X2.3S810
G1X0.3S0
G1X1.8S810
G1X1.7S0
G1X1.9S810
G1X1.4S0
G1X1.4S810
G1X1.1S0
G1X0.8S810
G1X1.7S0
G1X0.7S810
G1X1.1S0
G1X1.2S810
G1X0.3S0
G1X0.7S810
G1X1.4S0
G1X0.7S810
G1X0.9S0
G1X0.6S810
G1X0.9S0
G1X0.7S810
G1X0.1Y0.1S0
G1X-0.8S810
G1X-0.8S0
G1X-0.7S810
G1X-0.9S0
G1X-0.8S810
G1X-1.3S0
G1X-0.7S810
G1X-0.3S0
G1X-1.3S810
G1X-1S0
G1X-0.7S810
G1X-1.7S0
G1X-0.8S810
G1X-1.1S0
G1X-1.7S810
G1X-1.1S0
G1X-2.1S810
G1X-1.5S0
G1X-1.9S810
G1X-0.2S0
G1X-2.4S810
G1X-0.1S0
G1X-4.6S810
G1X-5.3S0
G1X-2.4S810
G1X-0.9S0
G1X-1.5S810
G1X-1.3S0
G1X-6.3S810
G1X-1.9S0
G1X-7.7S810
G1X-2.1S0
G1X-1.6S810
G1X-3.9S0
G1X-1.4S810
G1X-0.1Y0.1S0
G1X1.2S810
G1X4.2S0
G1X1.5S810
G1X2.2S0
G1X7.8S810
G1X1.9S0
G1X6.2S810
G1X1.3S0
G1X1.5S810
G1X1S0
G1X2.4S810
G1X5S0
G1X9.3S810
G1X1.4S0
G1X2.2S810
G1X1S0
G1X1.8S810
G1X1.1S0
G1X0.9S810
G1X1.6S0
G1X0.7S810
G1X1S0
G1X1.4S810
G1X0.3S0
G1X0.7S810
G1X1.3S0
G1X0.8S810
G1X0.9S0
G1X0.8S810
G1X0.7S0
G1X0.9S810
G1X0.1Y0.1S0
G1X-0.9S810
G1X-0.8S0
G1X-0.8S810
G1X-0.9S0
G1X-0.8S810
G1X-1.2S0
G1X-0.8S810
G1X-0.3S0
G1X-1.4S810
G1X-1S0
G1X-0.8S810
G1X-1.5S0
G1X-1S810
G1X-1S0
G1X-2.1S810
G1X-0.7S0
G1X-2.5S810
G1X-1.2S0
G1X-9.3S810
G1X-4.9S0
G1X-2.4S810
G1X-1S0
G1X-1.5S810
G1X-1.2S0
G1X-6.2S810
G1X-1.9S0
G1X-4.3S810
G1X-1.1S0
G1X-2.5S810
G1X-2.3S0
G1X-1.4S810
G1X-4.1S0
G1X-0.1S810
G1X-0.2S0
G1X-1.1S810
G1Y0.1S0
G1X0.9S810
G1X4.6S0
G1X1.3S810
G1X2.4S0
G1X2S810
G1X2.1S0
G1X3.8S810
G1X2S0
G1X6.1S810
G1X1.1S0
G1X1.6S810
G1X1.1S0
G1X2.5S810
G1X4.6S0
G1X9.4S810
G1X0.9S0
G1X1.3S810
G1X0.4S0
G1X1S810
G1X0.5S0
G1X2.4S810
G1X1S0
G1X1S810
G1X1.3S0
G1X1S810
G1X0.9S0
G1X1.5S810
G1X0.2S0
G1X0.8S810
G1X1.3S0
G1X0.8S810
G1X1S0
G1X0.8S810
G1X0.7S0
G1X0.9S810
G1X0.1Y0.1S0
G1X-1S810
G1X-0.7S0
G1X-0.8S810
G1X-0.9S0
G1X-0.9S810
G1X-1.3S0
G1X-0.8S810
G1X-0.2S0
G1X-1.6S810
G1X-0.9S0
G1X-0.9S810
G1X-1.3S0
G1X-1.1S810
G1X-1S0
G1X-2.6S810
G1X-0.3S0
G1X-1S810
G1X-0.9S0
G1X-0.1S810
G1X-0.2S0
G1X-0.2S810
G1X-0.1S0
G1X-0.2S810
G1X-0.1S0
G1X-0.1S810
G1X-0.8S0
G1X-9.4S810
G1X-4.3S0
G1X-2.5S810
G1X-1.2S0
G1X-1.6S810
G1X-1.1S0
G1X-6S810
G1X-2S0
G1X-3.6S810
G1X-2.8S0
G1X-1.6S810
G1X-2.4S0
G1X-1.4S810
G1X-4.7S0
G1X-0.7S810
G1X-0.1Y0.1S0
G1X0.6S810
G1X4.9S0
G1X1.3S810
G1X2.5S0
G1X1.3S810
G1X0.1S0
G1X0.1S810
G1X3.2S0
G1X3.4S810
G1X2S0
G1X5.9S810
G1X1.1S0
G1X1.7S810
G1X1.1S0
G1X2.7S810
G1X4S0
G1X9.5S810
G1X2.6S0
G1X1S810
G1X0.2S0
G1X2.8S810
G1X0.9S0
G1X1.2S810
G1X1.1S0
G1X1.1S810
G1X0.9S0
G1X1.6S810
G1X0.2S0
G1X0.9S810
G1X1.2S0
G1X0.9S810
G1X0.9S0
G1X0.9S810
G1X0.7S0
G1X1S810
G1Y0.1S0
G1X-1S810
G1X-0.7S0
G1X-0.9S810
G1X-0.9S0
G1X-0.9S810
G1X-1.3S0
G1X-0.8S810
G1X-0.2S0
G1X-1.8S810
G1X-0.8S0
G1X-1.1S810
G1X-1S0
G1X-1.3S810
G1X-0.8S0
G1X-4S810
G1X-2.7S0
G1X-9.6S810
G1X-3.7S0
G1X-2.7S810
G1X-1.2S0
G1X-1.7S810
G1X-1.1S0
G1X-5.8S810
G1X-2.1S0
G1X-3.3S810
G1X-3.6S0
G1X-1.2S810
G1X-2.5S0
G1X-1.3S810
G1X-5.1S0
G1X-0.4S810
G1X-0.1Y0.1S0
G1X0.3S810
G1X5.3S0
G1X1.2S810
G1X2.6S0
G1X1.1S810
G1X4S0
G1X3.1S810
G1X2.2S0
G1X5.6S810
G1X1.1S0
G1X1.7S810
G1X1.3S0
G1X2.9S810
G1X3.2S0
G1X9.7S810
G1X2.7S0
G1X2.3S810
G1X0.2S0
G1X1.6S810
G1X0.8S0
G1X1.3S810
G1X0.9S0
G1X1.2S810
G1X0.8S0
G1X1.9S810
G1X0.1S0
G1X0.8S810
G1X1.2S0
G1X1.1S810
G1X0.9S0
G1X0.8S810
G1X0.7S0
G1X1.1S810
G1X0.1Y0.1S0
G1X-1.2S810
G1X-0.6S0
G1X-0.9S810
G1X-0.9S0
G1X-1S810
G1X-1.2S0
G1X-0.9S810
G1X-0.1S0
G1X-2S810
G1X-0.8S0
G1X-1.2S810
G1X-0.8S0
G1X-1.4S810
G1X-0.7S0
G1X-1.7S810
G1X-0.4S0
G1X-2.1S810
G1X-2.6S0
G1X-9.9S810
G1X-2.9S0
G1X-3S810
G1X-1.3S0
G1X-1.7S810
G1X-1.1S0
G1X-5.5S810
G1X-2.3S0
G1X-3S810
G1X-4.3S0
G1X-0.9S810
G1X-2.6S0
G1X-1.2S810
G1X-5.4S0
G1X-0.2S810
G1X5.6Y0.1S0
G1X1.1S810
G1X2.8S0
G1X0.7S810
G1X4.6S0
G1X2.9S810
G1X2.3S0
G1X5.5S810
G1X1S0
G1X1.7S810
G1X1.4S0
G1X3.2S810
G1X2.4S0
G1X10S810
G1X2.6S0
G1X1.8S810
G1X0.1S0
G1X0.1S810
G1X0.6S0
G1X1.6S810
G1X0.7S0
G1X1.5S810
G1X0.7S0
G1X1.3S810
G1X0.7S0
G1X3.1S810
G1X1.1S0
G1X1.1S810
G1X0.9S0
G1X0.9S810
G1X0.7S0
G1X1.1S810
G1X0.1Y0.1S0
G1X-1.2S810
G1X-0.6S0
G1X-1S810
G1X-0.9S0
G1X-1.1S810
G1X-1.2S0
G1X-3.1S810
G1X-0.7S0
G1X-1.4S810
G1X-0.6S0
G1X-1.5S810
G1X-0.6S0
G1X-1.7S810
G1X-0.8S0
G1X-0.1S810
G1X-0.1S0
G1X-1.5S810
G1X-2.7S0
G1X-10.2S810
G1X-1.8S0
G1X-3.5S810
G1X-1.3S0
G1X-1.8S810
G1X-1S0
G1X-5.3S810
G1X-2.5S0
G1X-2.8S810
G1X-4.8S0
G1X-0.6S810
G1X-2.8S0
G1X-1.1S810
G1Y0.1S0
G1X1.1S810
G1X2.8S0
G1X0.4S810
G1X5.2S0
G1X2.6S810
G1X2.6S0
G1X5.2S810
G1X1S0
G1X1.7S810
G1X1.5S0
G1X3.9S810
G1X0.1S0
G1X0.1S810
G1X0.2S0
G1X0.1S810
G1X0.2S0
G1X10.8S810
G1X2.6S0
G1X1.3S810
G1X0.1S0
G1X0.1S810
G1X1S0
G1X1.8S810
G1X0.5S0
G1X1.7S810
G1X0.3S0
G1X1.6S810
G1X0.6S0
G1X3.3S810
G1X1.2S0
G1X1.1S810
G1X0.8S0
G1X1S810
G1X0.6S0
G1X1.2S810
G1X0.1Y0.1S0
G1X-1.3S810
G1X-0.6S0
G1X-0.9S810
G1X-0.9S0
G1X-1.2S810
G1X-1.1S0
G1X-3.4S810
G1X-0.6S0
G1X-3.7S810
G1X-0.3S0
G1X-1.9S810
G1X-1.2S0
G1X-0.1S810
G1X-0.1S0
G1X-1.1S810
G1X-2.5S0
G1X-15.3S810
G1X-1.5S0
G1X-1.8S810
G1X-1S0
G1X-5S810
G1X-2.7S0
G1X-2.6S810
G1X-5.3S0
G1X-0.3S810
G1X-2.9S0
G1X-1.1S810
G1Y0.1S0
G1X1.1S810
G1X2.9S0
G1X0.1S810
G1X5.7S0
G1X2.4S810
G1X2.8S0
G1X0.5S810
G1X0.1S0
G1X4.3S810
G1X1S0
G1X1.8S810
G1X1.6S0
G1X15.1S810
G1X2.5S0
G1X1.1S810
G1X1.5S0
G1X1.9S810
G1X0.2S0
G1X3.7S810
G1X0.6S0
G1X3.5S810
G1X1.1S0
G1X1.2S810
G1X0.9S0
G1X1S810
G1X0.6S0
G1X1.2S810
G1Y0.1S0
G1X-1.2S810
G1X-0.6S0
G1X-1S810
G1X-0.8S0
G1X-1.3S810
G1X-1.1S0
G1X-3.6S810
G1X-0.5S0
G1X-5.9S810
G1X-1.6S0
G1X-1S810
G1X-2.5S0
G1X-15S810
G1X-1.6S0
G1X-1.8S810
G1X-0.9S0
G1X-4.8S810
G1X-2.9S0
G1X-2.4S810
G1X-8.8S0
G1X-1.1S810
G1Y0.1S0
G1X1.1S810
G1X8.9S0
G1X2.3S810
G1X3.1S0
G1X4.6S810
G1X0.9S0
G1X1.8S810
G1X1.7S0
G1X14.9S810
G1X2.5S0
G1X0.7S810
G1X1.9S0
G1X3S810
G1X0.2S0
G1X2.6S810
G1X0.4S0
G1X3.9S810
G1X1S0
G1X1.3S810
G1X0.8S0
G1X1S810
G1X0.6S0
G1X1.3S810
G1Y0.1S0
G1X-1.3S810
G1X-0.6S0
G1X-1S810
G1X-0.8S0
G1X-1.3S810
G1X-1S0
G1X-4S810
G1X-0.3S0
G1X-2.6S810
G1X-0.3S0
G1X-3S810
G1X-2.1S0
G1X-0.5S810
G1X-2.5S0
G1X-14.7S810
G1X-1.9S0
G1X-1.7S810
G1X-0.9S0
G1X-4.5S810
G1X-3.2S0
G1X-2.2S810
G1X-9.1S0
G1X-1S810
G1Y0.1S0
G1X1.1S810
G1X9.1S0
G1X2.2S810
G1X3.3S0
G1X4.4S810
G1X0.8S0
G1X1.8S810
G1X1.8S0
G1X14.7S810
G1X2.4S0
G1X0.4S810
G1X2.2S0
G1X3S810
G1X0.4S0
G1X2.5S810
G1X0.2S0
G1X4.2S810
G1X1S0
G1X1.4S810
G1X0.7S0
G1X1.1S810
G1X0.6S0
G1X1.3S810
G1X2.1Y0.1S0
G1X-0.1S810
G1X-2S0
G1X-1.3S810
G1X-0.6S0
G1X-1S810
G1X-0.8S0
G1X-1.4S810
G1X-1S0
G1X-6.9S810
G1X-0.5S0
G1X-2.9S810
G1X-2.5S0
G1X-0.2S810
G1X-2.4S0
G1X-14.5S810
G1X-1.9S0
G1X-1.8S810
G1X-0.8S0
G1X-4.1S810
G1X-3.6S0
G1X-2.1S810
G1X-9.2S0
G1X-1S810
G1Y0.1S0
G1X1S810
G1X9.3S0
G1X2S810
G1X3.8S0
G1X3.9S810
G1X0.9S0
G1X1.7S810
G1X2S0
G1X14.4S810
G1X2.3S0
G1X0.1S810
G1X2.6S0
G1X2.9S810
G1X0.5S0
G1X7S810
G1X1S0
G1X1.4S810
G1X0.7S0
G1X1.1S810
G1X0.6S0
G1X1.3S810
G1X1.9S0
G1X0.1S810
G1Y0.1S0
G1X-0.2S810
G1X-1.7S0
G1X-1.4S810
G1X-0.6S0
G1X-1.1S810
G1X-0.6S0
G1X-1.5S810
G1X-0.9S0
G1X-7S810
G1X-0.7S0
G1X-2.8S810
G1X-5.1S0
G1X-14.2S810
G1X-2.1S0
G1X-1.7S810
G1X-0.9S0
G1X-3.8S810
G1X-3.8S0
G1X-2S810
G1X-9.4S0
G1X-1S810
G1Y0.1S0
G1X1S810
G1X9.5S0
G1X1.9S810
G1X3.6S0
G1X4.1S810
G1X0.8S0
G1X1.7S810
G1X2.1S0
G1X14.2S810
G1X5S0
G1X2.7S810
G1X0.9S0
G1X1S810
G1X0.2S0
G1X2.7S810
G1X0.1S0
G1X3S810
G1X0.9S0
G1X1.5S810
G1X0.7S0
G1X1.1S810
G1X0.5S0
G1X1.4S810
G1X1.7S0
G1X0.2S810
G1X-0.1Y0.1S0
G1X-0.2S810
G1X-1.6S0
G1X-1.4S810
G1X-0.5S0
G1X-1.1S810
G1X-0.7S0
G1X-1.5S810
G1X-0.9S0
G1X-3S810
G1X-0.1S0
G1X-2.7S810
G1X-0.2S0
G1X-1.1S810
G1X-0.9S0
G1X-2.6S810
G1X-5.1S0
G1X-14S810
G1X-2.1S0
G1X-1.8S810
G1X-0.8S0
G1X-4.2S810
G1X-3.5S0
G1X-1.7S810
G1X-9.6S0
G1X-1.1S810
G1X0.1Y0.1S0
G1X1S810
G1X9.6S0
G1X1.8S810
G1X3.3S0
G1X4.3S810
G1X0.8S0
G1X1.7S810
G1X2.3S0
G1X13.9S810
G1X5S0
G1X2.6S810
G1X1.1S0
G1X0.8S810
G1X0.4S0
G1X2.7S810
G1X0.1S0
G1X3S810
G1X0.9S0
G1X1.6S810
G1X0.5S0
G1X1.2S810
G1X0.5S0
G1X1.5S810
G1X1.4S0
G1X0.3S810
G1Y0.1S0
G1X-0.4S810
G1X-1.3S0
G1X-1.4S810
G1X-0.6S0
G1X-1.1S810
G1X-0.6S0
G1X-1.6S810
G1X-0.8S0
G1X-3.1S810
G1X-0.2S0
G1X-2.7S810
G1X-0.4S0
G1X-0.8S810
G1X-1.2S0
G1X-1.3S810
G1X-0.1S0
G1X-1S810
G1X-5S0
G1X-13.8S810
G1X-2.3S0
G1X-1.7S810
G1X-0.8S0
G1X-4.5S810
G1X-3.2S0
G1X-1.7S810
G1X-9.7S0
G1X-1S810
G1X0.1Y0.1S0
G1X1S810
G1X9.7S0
G1X1.6S810
G1X3.1S0
G1X4.6S810
G1X0.8S0
G1X1.7S810
G1X2.3S0
G1X13.7S810
G1X5S0
G1X1S810
G1X0.2S0
G1X1.3S810
G1X1.2S0
G1X0.7S810
G1X0.5S0
G1X2.7S810
G1X0.3S0
G1X3S810
G1X0.8S0
G1X1.6S810
G1X0.5S0
G1X1.2S810
G1X0.6S0
G1X1.4S810
G1X1.3S0
G1X0.3S810
G1Y0.1S0
G1X-0.4S810
G1X-1.2S0
G1X-1.4S810
G1X-0.5S0
G1X-1.3S810
G1X-0.4S0
G1X-1.7S810
G1X-0.8S0
G1X-3.1S810
G1X-0.3S0
G1X-2.6S810
G1X-0.6S0
G1X-0.6S810
G1X-1.4S0
G1X-1.1S810
G1X-0.2S0
G1X-1S810
G1X-5S0
G1X-13.6S810
G1X-2.4S0
G1X-1.6S810
G1X-0.9S0
G1X-4.6S810
G1X-3.1S0
G1X-1.5S810
G1X-9.8S0
G1X-1S810
G1Y0.1S0
G1X1.1S810
G1X9.8S0
G1X1.4S810
G1X2.9S0
G1X4.9S810
G1X0.8S0
G1X1.6S810
G1X2.5S0
G1X13.5S810
G1X5S0
G1X0.9S810
G1X0.3S0
G1X1.1S810
G1X1.4S0
G1X0.4S810
G1X0.8S0
G1X2.6S810
G1X0.3S0
G1X3.2S810
G1X0.7S0
G1X1.7S810
G1X0.5S0
G1X1.2S810
G1X0.5S0
G1X1.5S810
G1X1.1S0
G1X0.4S810
G1Y0.1S0
G1X-0.5S810
G1X-1S0
G1X-1.5S810
G1X-0.5S0
G1X-1.3S810
G1X-0.3S0
G1X-1.8S810
G1X-0.7S0
G1X-3.1S810
G1X-0.4S0
G1X-2.6S810
G1X-0.9S0
G1X-0.3S810
G1X-1.6S0
G1X-0.9S810
G1X-0.4S0
G1X-0.9S810
G1X-2.3S0
G1X-0.3S810
G1X-2.3S0
G1X-13.4S810
G1X-2.6S0
G1X-1.6S810
G1X-0.8S0
G1X-4.9S810
G1X-2.8S0
G1X-1.5S810
G1X-9.8S0
G1X-1S810
G1Y0.1S0
G1X1.1S810
G1X9.8S0
G1X1.4S810
G1X2.7S0
G1X5S810
G1X0.9S0
G1X1.5S810
G1X2.6S0
G1X13.3S810
G1X2.2S0
G1X0.4S810
G1X2.4S0
G1X0.9S810
G1X0.4S0
G1X0.8S810
G1X1.7S0
G1X0.2S810
G1X1S0
G1X2.5S810
G1X0.4S0
G1X2.3S810
G1X0.1S0
G1X0.8S810
G1X0.7S0
G1X1.8S810
G1X0.3S0
G1X1.3S810
G1X0.5S0
G1X1.5S810
G1X0.9S0
G1X0.6S810
G1X-0.1Y0.1S0
G1X-0.5S810
G1X-0.9S0
G1X-1.5S810
G1X-0.5S0
G1X-1.3S810
G1X-0.3S0
G1X-1.8S810
G1X-0.6S0
G1X-1.2S810
G1X-0.1S0
G1X-1.3S810
G1X-0.1S0
G1X-0.6S810
G1X-0.4S0
G1X-2.6S810
G1X-1S0
G1X-0.2S810
G1X-1.7S0
G1X-0.7S810
G1X-0.5S0
G1X-0.8S810
G1X-2.5S0
G1X-0.5S810
G1X-2S0
G1X-13.2S810
G1X-2.6S0
G1X-1.5S810
G1X-0.9S0
G1X-5.2S810
G1X-2.6S0
G1X-1.3S810
G1X-9.8S0
G1X-1.1S810
G1Y0.1S0
G1X1.1S810
G1X9.9S0
G1X1.2S810
G1X2.6S0
G1X5.2S810
G1X0.9S0
G1X1.5S810
G1X2.7S0
G1X13.1S810
G1X1.8S0
G1X0.6S810
G1X1.5S0
G1X0.2S810
G1X0.8S0
G1X0.9S810
G1X0.5S0
G1X0.6S810
G1X3S0
G1X1.8S810
G1X0.1S0
G1X0.6S810
G1X0.6S0
G1X0.5S810
G1X0.2S0
G1X1.1S810
G1X0.3S0
G1X1.1S810
G1X0.6S0
G1X1.9S810
G1X0.2S0
G1X1.3S810
G1X0.4S0
G1X1.7S810
G1X0.7S0
G1X0.6S810
G1Y0.1S0
G1X-0.6S810
G1X-0.7S0
G1X-1.6S810
G1X-0.4S0
G1X-1.5S810
G1X-0.1S0
G1X-1.9S810
G1X-0.5S0
G1X-1.1S810
G1X-0.4S0
G1X-1.2S810
G1X-0.1S0
G1X-0.6S810
G1X-0.5S0
G1X-0.6S810
G1X-0.2S0
G1X-1.7S810
G1X-3.1S0
G1X-0.6S810
G1X-0.5S0
G1X-0.8S810
G1X-0.8S0
G1X-0.3S810
G1X-1.5S0
G1X-0.6S810
G1X-1.7S0
G1X-13S810
G1X-2.8S0
G1X-1.4S810
G1X-0.9S0
G1X-3.6S810
G1X-0.3S0
G1X-1.5S810
G1X-2.4S0
G1X-1.3S810
G1X-9.8S0
G1X-1.1S810
G1Y0.1S0
G1X1.2S810
G1X9.8S0
G1X1.2S810
G1X2.4S0
G1X1.4S810
G1X0.5S0
G1X3.5S810
G1X0.9S0
G1X1.5S810
G1X2.7S0
G1X12.9S810
G1X1.6S0
G1X0.8S810
G1X1.4S0
G1X0.3S810
G1X0.9S0
G1X0.8S810
G1X0.5S0
G1X0.5S810
G1X3.2S0
G1X1.7S810
G1X0.2S0
G1X0.5S810
G1X0.6S0
G1X0.5S810
G1X0.3S0
G1X1S810
G1X0.6S0
G1X1S810
G1X0.5S0
G1X3.4S810
G1X0.5S0
G1X1.6S810
G1X0.6S0
G1X0.7S810
G1Y0.1S0
G1X-0.7S810
G1X-0.6S0
G1X-1.7S810
G1X-0.3S0
G1X-3.5S810
G1X-0.5S0
G1X-1S810
G1X-0.6S0
G1X-1.1S810
G1X-0.2S0
G1X-0.5S810
G1X-0.6S0
G1X-0.5S810
G1X-0.3S0
G1X-1.6S810
G1X-3.3S0
G1X-0.4S810
G1X-0.6S0
G1X-0.7S810
G1X-0.9S0
G1X-0.4S810
G1X-1.4S0
G1X-0.9S810
G1X-1.4S0
G1X-12.8S810
G1X-2.8S0
G1X-1.4S810
G1X-1S0
G1X-3.4S810
G1X-0.8S0
G1X-1.3S810
G1X-2.3S0
G1X-1.1S810
G1X-9.8S0
G1X-1.2S810
G1X0.1Y0.1S0
G1X1.2S810
G1X9.8S0
G1X1.1S810
G1X2.2S0
G1X1.2S810
G1X1S0
G1X3.4S810
G1X1S0
G1X1.3S810
G1X2.9S0
G1X12.8S810
G1X1.2S0
G1X0.9S810
G1X1.4S0
G1X0.5S810
G1X0.8S0
G1X0.8S810
G1X0.6S0
G1X0.2S810
G1X3.4S0
G1X1.6S810
G1X0.3S0
G1X0.6S810
G1X0.6S0
G1X0.4S810
G1X0.4S0
G1X0.9S810
G1X0.8S0
G1X1S810
G1X0.4S0
G1X3.5S810
G1X0.3S0
G1X1.7S810
G1X0.5S0
G1X0.7S810
G1Y0.1S0
G1X-0.7S810
G1X-0.5S0
G1X-1.7S810
G1X-0.3S0
G1X-3.5S810
G1X-0.4S0
G1X-0.9S810
G1X-0.9S0
G1X-0.9S810
G1X-0.4S0
G1X-0.4S810
G1X-0.7S0
G1X-0.5S810
G1X-0.5S0
G1X-1.4S810
G1X-3.4S0
G1X-0.2S810
G1X-0.7S0
G1X-0.7S810
G1X-0.9S0
G1X-0.5S810
G1X-1.3S0
G1X-1.1S810
G1X-1.1S0
G1X-12.6S810
G1X-2.9S0
G1X-1.4S810
G1X-1S0
G1X-3.3S810
G1X-1.2S0
G1X-1.2S810
G1X-2.1S0
G1X-1.1S810
G1X-9.7S0
G1X-1.3S810
G1X0.1Y0.1S0
G1X1.3S810
G1X9.7S0
G1X1S810
G1X2.1S0
G1X1S810
G1X1.4S0
G1X3.4S810
G1X1S0
G1X1.3S810
G1X2.9S0
G1X12.6S810
G1X1S0
G1X1.1S810
G1X1.3S0
G1X0.6S810
G1X0.9S0
G1X0.7S810
G1X0.6S0
G1X0.2S810
G1X3.5S0
G1X1.3S810
G1X0.7S0
G1X0.4S810
G1X0.7S0
G1X0.3S810
G1X0.4S0
G1X0.9S810
G1X1S0
G1X1S810
G1X0.4S0
G1X3.4S810
G1X0.3S0
G1X1.8S810
G1X0.4S0
G1X0.7S810
G1Y0.1S0
G1X-0.8S810
G1X-0.3S0
G1X-1.9S810
G1X-0.2S0
G1X-3.5S810
G1X-0.3S0
G1X-0.9S810
G1X-1.1S0
G1X-0.8S810
G1X-0.5S0
G1X-0.3S810
G1X-0.7S0
G1X-0.5S810
G1X-0.7S0
G1X-1.2S810
G1X-4.4S0
G1X-0.6S810
G1X-0.9S0
G1X-0.7S810
G1X-1.3S0
G1X-1.1S810
G1X-0.9S0
G1X-12.5S810
G1X-3S0
G1X-1.2S810
G1X-1.1S0
G1X-3.3S810
G1X-1.5S0
G1X-1.1S810
G1X-2S0
G1X-0.9S810
G1X-9.7S0
G1X-1.3S810
G1Y0.1S0
G1X1.4S810
G1X9.6S0
G1X1S810
G1X1.9S0
G1X1S810
G1X1.7S0
G1X3.3S810
G1X1S0
G1X1.3S810
G1X3S0
G1X12.4S810
G1X0.8S0
G1X1.2S810
G1X1.3S0
G1X0.7S810
G1X0.9S0
G1X0.6S810
G1X1.8S0
G1X0.2S810
G1X2.3S0
G1X1.2S810
G1X0.7S0
G1X0.5S810
G1X0.8S0
G1X0.2S810
G1X0.6S0
G1X0.8S810
G1X1.2S0
G1X0.9S810
G1X0.2S0
G1X3.5S810
G1X0.2S0
G1X1.8S810
G1X0.4S0
G1X0.8S810
G1X1.4Y0.1S0
G1X-0.1S810
G1X-1.3S0
G1X-0.8S810
G1X-0.3S0
G1X-2S810
G1X-0.1S0
G1X-3.4S810
G1X-0.3S0
G1X-0.9S810
G1X-1.3S0
G1X-0.8S810
G1X-0.5S0
G1X-0.2S810
G1X-0.8S0
G1X-0.4S810
G1X-0.9S0
G1X-1.1S810
G1X-2.4S0
G1X-0.1S810
G1X-1.9S0
G1X-0.6S810
G1X-0.9S0
G1X-0.7S810
G1X-1.3S0
G1X-1.3S810
G1X-0.6S0
G1X-12.3S810
G1X-3S0
G1X-1.3S810
G1X-1.1S0
G1X-3.3S810
G1X-1.8S0
G1X-0.9S810
G1X-1.9S0
G1X-0.9S810
G1X-9.6S0
G1X-0.8S810
G1X-0.1S0
G1X-0.5S810
G1X0.1Y0.1S0
G1X1.4S810
G1X9.5S0
G1X0.9S810
G1X1.9S0
G1X0.9S810
G1X1.8S0
G1X3.4S810
G1X1.1S0
G1X1.2S810
G1X3.1S0
G1X12.1S810
G1X0.7S0
G1X1.3S810
G1X1.2S0
G1X0.8S810
G1X0.9S0
G1X0.6S810
G1X1.8S0
G1X0.2S810
G1X2.4S0
G1X0.9S810
G1X1S0
G1X0.4S810
G1X0.9S0
G1X0.2S810
G1X0.6S0
G1X0.7S810
G1X1.3S0
G1X1S810
G1X0.2S0
G1X1.1S810
G1X0.1S0
G1X4.3S810
G1X0.2S0
G1X0.9S810
G1X1.3S0
G1X0.2S810
G1Y0.1S0
G1X-0.2S810
G1X-1.3S0
G1X-0.9S810
G1X-0.2S0
G1X-4.3S810
G1X-0.2S0
G1X-1S810
G1X-0.1S0
G1X-1S810
G1X-1.5S0
G1X-0.6S810
G1X-0.7S0
G1X-0.1S810
G1X-0.9S0
G1X-0.4S810
G1X-1.1S0
G1X-0.9S810
G1X-2.3S0
G1X-0.2S810
G1X-1.9S0
G1X-0.4S810
G1X-1S0
G1X-0.9S810
G1X-1.2S0
G1X-1.4S810
G1X-0.4S0
G1X-12.1S810
G1X-3.2S0
G1X-1.1S810
G1X-1.2S0
G1X-3.3S810
G1X-2S0
G1X-0.9S810
G1X-1.7S0
G1X-0.9S810
G1X-9.4S0
G1X-1.5S810
G1X0.1Y0.1S0
G1X1.5S810
G1X9.3S0
G1X0.9S810
G1X1.7S0
G1X0.9S810
G1X2S0
G1X3.4S810
G1X1.2S0
G1X1.1S810
G1X3.1S0
G1X12S810
G1X0.4S0
G1X1.5S810
G1X1.2S0
G1X0.8S810
G1X1S0
G1X0.4S810
G1X1.9S0
G1X0.3S810
G1X2.3S0
G1X0.7S810
G1X1.3S0
G1X0.3S810
G1X0.9S0
G1X0.2S810
G1X0.7S0
G1X0.6S810
G1X1.6S0
G1X2S810
G1X0.2S0
G1X4.3S810
G1X0.2S0
G1X0.9S810
G1X1.3S0
G1X0.3S810
G1X0.1Y0.1S0
G1X-0.3S810
G1X-1.5S0
G1X-0.8S810
G1X-0.2S0
G1X-4.3S810
G1X-0.2S0
G1X-2S810
G1X-1.6S0
G1X-0.6S810
G1X-0.8S0
G1X-0.1S810
G1X-0.9S0
G1X-0.3S810
G1X-1.4S0
G1X-0.6S810
G1X-2.4S0
G1X-0.3S810
G1X-1.8S0
G1X-0.3S810
G1X-1.1S0
G1X-0.9S810
G1X-1.2S0
G1X-1.5S810
G1X-0.2S0
G1X-12S810
G1X-3.1S0
G1X-1.1S810
G1X-1.3S0
G1X-3.4S810
G1X-1.9S0
G1X-1S810
G1X-1.7S0
G1X-0.8S810
G1X-9.2S0
G1X-1.7S810
G1X0.2Y0.1S0
G1X1.6S810
G1X9.2S0
G1X0.8S810
G1X1.6S0
G1X1S810
G1X2S0
G1X3.4S810
G1X1.2S0
G1X0.5S810
G1X0.1S0
G1X0.6S810
G1X3.1S0
G1X11.9S810
G1X0.2S0
G1X1.5S810
G1X1.2S0
G1X0.9S810
G1X1S0
G1X0.4S810
G1X1.8S0
G1X0.3S810
G1X2.3S0
G1X0.5S810
G1X1.6S0
G1X0.3S810
G1X1.8S0
G1X0.5S810
G1X1.7S0
G1X1.9S810
G1X0.3S0
G1X4.3S810
G1X0.1S0
G1X0.9S810
G1X1.4S0
G1X0.4S810
G1X0.1Y0.1S0
G1X-0.4S810
G1X-1.4S0
G1X-5.3S810
G1X-0.4S0
G1X-1.8S810
G1X-1.8S0
G1X-0.5S810
G1X-1.9S0
G1X-0.3S810
G1X-1.7S0
G1X-0.3S810
G1X-2.3S0
G1X-0.4S810
G1X-1.8S0
G1X-0.2S810
G1X-1.1S0
G1X-1S810
G1X-1.2S0
G1X-1.6S810
G1X-0.1S0
G1X-11.8S810
G1X-3.1S0
G1X-1S810
G1X-1.4S0
G1X-3.4S810
G1X-1.9S0
G1X-1.1S810
G1X-1.6S0
G1X-0.8S810
G1X-9.1S0
G1X-1.7S810
G1X0.2Y0.1S0
G1X1.7S810
G1X9S0
G1X0.7S810
G1X1.7S0
G1X1.3S810
G1X1.6S0
G1X3.5S810
G1X1.3S0
G1X1.1S810
G1X3.2S0
G1X13.3S810
G1X1.2S0
G1X1S810
G1X1.1S0
G1X0.2S810
G1X1.7S0
G1X0.5S810
G1X2.2S0
G1X0.3S810
G1X1.8S0
G1X0.3S810
G1X1.9S0
G1X0.5S810
G1X1.8S0
G1X1.8S810
G1X0.3S0
G1X4.3S810
G1X0.1S0
G1X0.9S810
G1X1.5S0
G1X0.5S810
G1Y0.1S0
G1X-0.6S810
G1X-1.4S0
G1X-5.2S810
G1X-0.4S0
G1X-1.8S810
G1X-1.8S0
G1X-0.5S810
G1X-2S0
G1X-0.2S810
G1X-4.3S0
G1X-0.6S810
G1X-1.7S0
G1X-0.1S810
G1X-1.2S0
G1X-1S810
G1X-1.2S0
G1X-13.2S810
G1X-3.1S0
G1X-1.1S810
G1X-1.3S0
G1X-3.5S810
G1X-1.4S0
G1X-1.2S810
G1X-2S0
G1X-0.8S810
G1X-8.8S0
G1X-1.8S810
G1X0.1Y0.1S0
G1X1.8S810
G1X8.7S0
G1X0.8S810
G1X2.2S0
G1X1.1S810
G1X1.3S0
G1X3.5S810
G1X1.4S0
G1X1S810
G1X3.2S0
G1X13.1S810
G1X1.2S0
G1X1S810
G1X1.2S0
G1X0.1S810
G1X1.7S0
G1X0.5S810
G1X4.4S0
G1X0.2S810
G1X0.9S0
G1X0.1S810
G1X1S0
G1X0.4S810
G1X2S0
G1X1.6S810
G1X0.5S0
G1X5.2S810
G1X1.5S0
G1X0.5S810
G1X0.1Y0.1S0
G1X-0.6S810
G1X-1.5S0
G1X-5.2S810
G1X-0.5S0
G1X-1.6S810
G1X-2S0
G1X-0.4S810
G1X-2.1S0
G1X-0.1S810
G1X-4.3S0
G1X-0.7S810
G1X-2.9S0
G1X-1.1S810
G1X-1.2S0
G1X-12.9S810
G1X-3.2S0
G1X-1.1S810
G1X-1.3S0
G1X-3.6S810
G1X-1.3S0
G1X-0.9S810
G1X-2.4S0
G1X-0.7S810
G1X-8.7S0
G1X-1.8S810
G1X0.2Y0.1S0
G1X1.7S810
G1X8.6S0
G1X0.8S810
G1X2.3S0
G1X0.9S810
G1X1.3S0
G1X3.6S810
G1X1.5S0
G1X1S810
G1X3.2S0
G1X12.8S810
G1X1.2S0
G1X1.1S810
G1X2.8S0
G1X0.7S810
G1X1.1S0
G1X0.2S810
G1X3S0
G1X0.2S810
G1X2.1S0
G1X0.4S810
G1X2.1S0
G1X1.5S810
G1X0.5S0
G1X5.2S810
G1X1.4S0
G1X0.7S810
G1Y0.1S0
G1X-0.6S810
G1X-1.5S0
G1X-5.2S810
G1X-0.5S0
G1X-1.5S810
G1X-2.2S0
G1X-0.3S810
G1X-2.1S0
G1X-0.2S810
G1X-3.1S0
G1X-0.2S810
G1X-1S0
G1X-0.7S810
G1X-2.8S0
G1X-1.1S810
G1X-1.3S0
G1X-12.7S810
G1X-3.1S0
G1X-1.1S810
G1X-1.4S0
G1X-3.6S810
G1X-1.2S0
G1X-1S810
G1X-2.4S0
G1X-0.7S810
G1X-8.6S0
G1X-1.7S810
G1X0.1Y0.1S0
G1X1.8S810
G1X8.4S0
G1X0.8S810
G1X2.3S0
G1X1.2S810
G1X1S0
G1X3.6S810
G1X1.5S0
G1X1.1S810
G1X3.2S0
G1X12.5S810
G1X1.2S0
G1X1.2S810
G1X2.7S0
G1X0.7S810
G1X1.1S0
G1X0.2S810
G1X5.4S0
G1X0.3S810
G1X2.2S0
G1X1.4S810
G1X0.6S0
G1X5.2S810
G1X1.4S0
G1X0.8S810
G1Y0.1S0
G1X-0.8S810
G1X-1.4S0
G1X-5.2S810
G1X-0.6S0
G1X-1.4S810
G1X-2.2S0
G1X-0.3S810
G1X-2.2S0
G1X-0.1S810
G1X-0.9S0
G1X-0.2S810
G1X-2S0
G1X-0.4S810
G1X-0.9S0
G1X-0.8S810
G1X-2.6S0
G1X-1.2S810
G1X-1.2S0
G1X-12.5S810
G1X-3.1S0
G1X-1.1S810
G1X-1.5S0
G1X-3.9S810
G1X-0.2S0
G1X-0.1S810
G1X-0.1S0
G1X-1.4S810
G1X-2.5S0
G1X-0.7S810
G1X-8.4S0
G1X-1.7S810
G1X0.1Y0.1S0
G1X1.7S810
G1X8.3S0
G1X0.8S810
G1X2.4S0
G1X5.8S810
G1X1.5S0
G1X1.1S810
G1X3.1S0
G1X12.3S810
G1X1.3S0
G1X1.1S810
G1X2.6S0
G1X0.9S810
G1X0.9S0
G1X0.4S810
G1X2S0
G1X0.2S810
G1X0.9S0
G1X0.1S810
G1X2.2S0
G1X0.2S810
G1X2.4S0
G1X1.3S810
G1X0.6S0
G1X5.2S810
G1X1.4S0
G1X0.8S810
G1Y0.1S0
G1X-0.8S810
G1X-1.4S0
G1X-5.2S810
G1X-0.6S0
G1X-1.3S810
G1X-2.4S0
G1X-0.2S810
G1X-3.3S0
G1X-0.1S810
G1X-2S0
G1X-0.5S810
G1X-0.8S0
G1X-1S810
G1X-2.5S0
G1X-1.2S810
G1X-1.2S0
G1X-12.2S810
G1X-3.1S0
G1X-1.1S810
G1X-1.6S0
G1X-5.6S810
G1X-2.6S0
G1X-0.8S810
G1X-8.2S0
G1X-1.5S810
G1X0.1Y0.1S0
G1X1.5S810
G1X8.2S0
G1X0.7S810
G1X2.7S0
G1X5.6S810
G1X1.5S0
G1X1.1S810
G1X3.1S0
G1X12.1S810
G1X1.3S0
G1X1.2S810
G1X2.5S0
G1X1S810
G1X0.7S0
G1X0.5S810
G1X2S0
G1X0.3S810
G1X3.2S0
G1X0.2S810
G1X2.4S0
G1X1.2S810
G1X0.7S0
G1X5.2S810
G1X1.4S0
G1X0.9S810
G1Y0.1S0
G1X-0.9S810
G1X-1.4S0
G1X-5.2S810
G1X-0.7S0
G1X-1.1S810
G1X-2.6S0
G1X-0.1S810
G1X-3.2S0
G1X-0.4S810
G1X-1.9S0
G1X-0.6S810
G1X-0.7S0
G1X-1S810
G1X-2.3S0
G1X-1.3S810
G1X-1.3S0
G1X-12S810
G1X-3S0
G1X-1.1S810
G1X-1.6S0
G1X-5.5S810
G1X-2.8S0
G1X-0.8S810
G1X-8.1S0
G1X-1.4S810
G1X0.1Y0.1S0
G1X1.3S810
G1X8.2S0
G1X0.7S810
G1X2.9S0
G1X5.4S810
G1X1.6S0
G1X1.1S810
G1X3.1S0
G1X11.9S810
G1X1.2S0
G1X1.3S810
G1X2.3S0
G1X1.1S810
G1X0.6S0
G1X0.7S810
G1X1.8S0
G1X0.5S810
G1X3.2S0
G1X0.1S810
G1X2.6S0
G1X1.1S810
G1X0.7S0
G1X5.2S810
G1X1.4S0
G1X0.8S810
G1X0.1Y0.1S0
G1X-0.9S810
G1X-1.4S0
G1X-5.2S810
G1X-0.7S0
G1X-1.1S810
G1X-2.6S0
G1X-0.1S810
G1X-3.2S0
G1X-0.5S810
G1X-1.8S0
G1X-0.7S810
G1X-0.6S0
G1X-1.2S810
G1X-2.2S0
G1X-1.3S810
G1X-1.2S0
G1X-11.8S810
G1X-3.1S0
G1X-1.1S810
G1X-1.6S0
G1X-5.3S810
G1X-3S0
G1X-0.7S810
G1X-8.1S0
G1X-1.4S810
G1X0.1Y0.1S0
G1X1.3S810
G1X8.1S0
G1X0.7S810
G1X3.1S0
G1X5.2S810
G1X1.7S0
G1X1.1S810
G1X3S0
G1X11.7S810
G1X1.3S0
G1X1.3S810
G1X2.1S0
G1X1.2S810
G1X0.6S0
G1X0.8S810
G1X1.7S0
G1X0.6S810
G1X6S0
G1X1S810
G1X0.7S0
G1X5.2S810
G1X1.3S0
G1X1S810
G1Y0.1S0
G1X-1S810
G1X-1.3S0
G1X-5.1S810
G1X-0.9S0
G1X-0.9S810
G1X-6S0
G1X-0.7S810
G1X-1.7S0
G1X-0.8S810
G1X-0.5S0
G1X-1.3S810
G1X-2S0
G1X-1.3S810
G1X-1.3S0
G1X-11.6S810
G1X-3S0
G1X-1.1S810
G1X-1.7S0
G1X-3.4S810
G1X-0.1S0
G1X-0.3S810
G1X-0.1S0
G1X-1.1S810
G1X-3.3S0
G1X-0.7S810
G1X-8.1S0
G1X-1.2S810
G1Y0.1S0
G1X1.3S810
G1X8S0
G1X0.8S810
G1X3.2S0
G1X0.9S810
G1X0.4S0
G1X3.8S810
G1X1.6S0
G1X1.2S810
G1X3S0
G1X8.9S810
G1X0.1S0
G1X2.5S810
G1X1.3S0
G1X1.4S810
G1X1.8S0
G1X1.4S810
G1X0.4S0
G1X0.9S810
G1X1.6S0
G1X0.8S810
G1X6S0
G1X0.9S810
G1X0.8S0
G1X5.1S810
G1X1.4S0
G1X1.1S810
G1Y0.1S0
G1X-1.1S810
G1X-1.3S0
G1X-5.1S810
G1X-0.9S0
G1X-0.9S810
G1X-3.9S0
G1X-0.2S810
G1X-1.9S0
G1X-0.9S810
G1X-1.5S0
G1X-1S810
G1X-0.3S0
G1X-1.5S810
G1X-1.8S0
G1X-1.4S810
G1X-1.3S0
G1X-11.4S810
G1X-3S0
G1X-1.1S810
G1X-1.7S0
G1X-3.6S810
G1X-0.8S0
G1X-0.7S810
G1X-3.2S0
G1X-0.7S810
G1X-8S0
G1X-1.3S810
G1X0.2Y0.1S0
G1X1.1S810
G1X8.1S0
G1X0.6S810
G1X3.1S0
G1X0.7S810
G1X0.9S0
G1X3.7S810
G1X1.7S0
G1X1.1S810
G1X3S0
G1X8.8S810
G1X0.2S0
G1X2.3S810
G1X1.3S0
G1X1.4S810
G1X1.7S0
G1X1.5S810
G1X0.3S0
G1X1.1S810
G1X1.4S0
G1X1S810
G1X1.9S0
G1X0.2S810
G1X3.9S0
G1X0.9S810
G1X0.8S0
G1X0.7S810
G1X0.2S0
G1X4.3S810
G1X1.2S0
G1X1.2S810
G1Y0.1S0
G1X-1.2S810
G1X-1.2S0
G1X-4.3S810
G1X-0.1S0
G1X-0.7S810
G1X-0.9S0
G1X-0.8S810
G1X-1.5S0
G1X-0.1S810
G1X-2.4S0
G1X-0.2S810
G1X-1.9S0
G1X-1S810
G1X-1.5S0
G1X-1.1S810
G1X-0.2S0
G1X-1.6S810
G1X-1.5S0
G1X-1.5S810
G1X-1.3S0
G1X-2.3S810
G1X-0.2S0
G1X-8.8S810
G1X-2.9S0
G1X-1.2S810
G1X-1.7S0
G1X-3.7S810
G1X-1S0
G1X-0.7S810
G1X-2.9S0
G1X-0.7S810
G1X-8S0
G1X-1.2S810
G1X0.1Y0.1S0
G1X1.2S810
G1X8S0
G1X0.7S810
G1X2.7S0
G1X0.8S810
G1X1.1S0
G1X3.7S810
G1X1.7S0
G1X1.1S810
G1X3S0
G1X8.6S810
G1X0.3S0
G1X2.3S810
G1X1.3S0
G1X1.5S810
G1X1.4S0
G1X1.6S810
G1X0.3S0
G1X1.1S810
G1X1.3S0
G1X1.2S810
G1X1.9S0
G1X0.2S810
G1X2.4S0
G1X0.1S810
G1X1.5S0
G1X0.7S810
G1X1S0
G1X0.6S810
G1X0.2S0
G1X4.3S810
G1X1.2S0
G1X1.1S810
G1X0.1Y0.1S0
G1X-1.2S810
G1X-1.2S0
G1X-4.3S810
G1X-0.2S0
G1X-0.7S810
G1X-0.9S0
G1X-0.7S810
G1X-1.5S0
G1X-0.1S810
G1X-2.4S0
G1X-0.2S810
G1X-1.9S0
G1X-1.3S810
G1X-1.2S0
G1X-1.2S810
G1X-0.2S0
G1X-1.8S810
G1X-1.2S0
G1X-1.5S810
G1X-1.4S0
G1X-2.2S810
G1X-0.4S0
G1X-8.4S810
G1X-3.1S0
G1X-1.1S810
G1X-1.7S0
G1X-3.7S810
G1X-1.2S0
G1X-0.7S810
G1X-2.7S0
G1X-0.6S810
G1X-8.1S0
G1X-1.2S810
G1X0.1Y0.1S0
G1X1.2S810
G1X8.1S0
G1X0.6S810
G1X2.5S0
G1X0.7S810
G1X1.4S0
G1X3.7S810
G1X1.7S0
G1X1.1S810
G1X3S0
G1X8.4S810
G1X0.4S0
G1X2.3S810
G1X1.2S0
G1X1.6S810
G1X1.2S0
G1X1.8S810
G1X0.1S0
G1X1.2S810
G1X1.2S0
G1X1.4S810
G1X1.8S0
G1X0.4S810
G1X2.3S0
G1X0.2S810
G1X1.4S0
G1X0.7S810
G1X1S0
G1X0.6S810
G1X0.2S0
G1X4.3S810
G1X1.1S0
G1X1.3S810
G1X1.6S0
G1X0.1S810
G1X0.1Y0.1S0
G1X-0.2S810
G1X-1.6S0
G1X-1.3S810
G1X-1.1S0
G1X-2.6S810
G1X-0.2S0
G1X-1.5S810
G1X-0.3S0
G1X-0.5S810
G1X-1S0
G1X-0.7S810
G1X-1.4S0
G1X-0.2S810
G1X-2.3S0
G1X-0.4S810
G1X-1.8S0
G1X-1.5S810
G1X-1.1S0
G1X-1.3S810
G1X-0.1S0
G1X-1.9S810
G1X-1S0
G1X-1.6S810
G1X-1.3S0
G1X-2.2S810
G1X-0.4S0
G1X-8.3S810
G1X-3S0
G1X-1.2S810
G1X-1.7S0
G1X-3.7S810
G1X-1.5S0
G1X-0.7S810
G1X-2.3S0
G1X-0.6S810
G1X-8.1S0
G1X-1.2S810
G1Y0.1S0
G1X1.2S810
G1X8.2S0
G1X0.5S810
G1X2.3S0
G1X0.7S810
G1X1.5S0
G1X3.7S810
G1X1.8S0
G1X1.1S810
G1X3S0
G1X8.2S810
G1X0.5S0
G1X2.2S810
G1X1.4S0
G1X1.5S810
G1X0.9S0
G1X3.4S810
G1X0.9S0
G1X1.7S810
G1X1.8S0
G1X0.4S810
G1X2.3S0
G1X0.2S810
G1X1.5S0
G1X0.6S810
G1X1S0
G1X0.5S810
G1X0.3S0
G1X1.5S810
G1X0.2S0
G1X2.6S810
G1X1.1S0
G1X1.3S810
G1X1.6S0
G1X0.2S810
G1Y0.1S0
G1X-0.2S810
G1X-1.6S0
G1X-1.4S810
G1X-1S0
G1X-2.7S810
G1X-0.1S0
G1X-1.4S810
G1X-0.4S0
G1X-0.6S810
G1X-0.9S0
G1X-0.6S810
G1X-1.5S0
G1X-0.2S810
G1X-2.2S0
G1X-0.6S810
G1X-1.7S0
G1X-1.8S810
G1X-0.9S0
G1X-3.4S810
G1X-0.7S0
G1X-1.7S810
G1X-1.3S0
G1X-2.1S810
G1X-0.6S0
G1X-8.1S810
G1X-3.1S0
G1X-1S810
G1X-1.8S0
G1X-3.8S810
G1X-1.6S0
G1X-0.7S810
G1X-2.1S0
G1X-0.6S810
G1X-5.5S0
G1X-0.1S810
G1X-2.5S0
G1X-1.2S810
G1X0.1Y0.1S0
G1X1.1S810
G1X2.5S0
G1X0.2S810
G1X5.6S0
G1X0.5S810
G1X1.9S0
G1X0.8S810
G1X1.6S0
G1X3.8S810
G1X1.8S0
G1X1.1S810
G1X3S0
G1X8.1S810
G1X0.6S0
G1X2.1S810
G1X1.3S0
G1X1.7S810
G1X0.5S0
G1X3.6S810
G1X0.8S0
G1X1.9S810
G1X1.7S0
G1X0.6S810
G1X2.2S0
G1X0.3S810
G1X1.4S0
G1X0.5S810
G1X1.1S0
G1X0.4S810
G1X0.4S0
G1X1.4S810
G1X0.2S0
G1X2.7S810
G1X1S0
G1X1.4S810
G1X1.5S0
G1X0.3S810
G1X0.1Y0.1S0
G1X-0.4S810
G1X-1.5S0
G1X-1.4S810
G1X-1S0
G1X-2.6S810
G1X-0.3S0
G1X-1.4S810
G1X-0.4S0
G1X-0.4S810
G1X-1.1S0
G1X-0.5S810
G1X-1.4S0
G1X-0.4S810
G1X-2.1S0
G1X-0.6S810
G1X-1.7S0
G1X-2.1S810
G1X-0.7S0
G1X-3.6S810
G1X-0.4S0
G1X-1.7S810
G1X-1.4S0
G1X-2.1S810
G1X-0.6S0
G1X-7.9S810
G1X-3.1S0
G1X-1.1S810
G1X-1.7S0
G1X-3.8S810
G1X-1.6S0
G1X-0.9S810
G1X-1.9S0
G1X-0.4S810
G1X-5.7S0
G1X-0.1S810
G1X-2.5S0
G1X-1.2S810
G1X0.1Y0.1S0
G1X1.1S810
G1X2.6S0
G1X0.2S810
G1X5.6S0
G1X0.4S810
G1X1.8S0
G1X1.5S810
G1X0.2S0
G1X0.1S810
G1X0.6S0
G1X3.9S810
G1X1.8S0
G1X1S810
G1X3.1S0
G1X7.9S810
G1X0.7S0
G1X2.1S810
G1X1.3S0
G1X1.8S810
G1X0.2S0
G1X3.7S810
G1X0.5S0
G1X2.3S810
G1X1.6S0
G1X0.7S810
G1X2.1S0
G1X0.4S810
G1X1.4S0
G1X0.5S810
G1X1.1S0
G1X0.4S810
G1X0.5S0
G1X1.3S810
G1X0.2S0
G1X2.7S810
G1X0.9S0
G1X1.5S810
G1X1.5S0
G1X0.3S810
G1X0.1Y0.1S0
G1X-0.4S810
G1X-1.5S0
G1X-1.5S810
G1X-0.9S0
G1X-2.7S810
G1X-0.3S0
G1X-1.3S810
G1X-0.5S0
G1X-0.3S810
G1X-1.1S0
G1X-0.5S810
G1X-1.4S0
G1X-0.4S810
G1X-2S0
G1X-0.8S810
G1X-1.6S0
G1X-2.6S810
G1X-0.3S0
G1X-5.6S810
G1X-1.3S0
G1X-2.1S810
G1X-0.7S0
G1X-7.8S810
G1X-3.1S0
G1X-1.1S810
G1X-1.8S0
G1X-6.4S810
G1X-1.6S0
G1X-0.4S810
G1X-5.6S0
G1X-0.2S810
G1X-2.6S0
G1X-1.2S810
G1X0.1Y0.1S0
G1X1.1S810
G1X2.6S0
G1X0.2S810
G1X5.7S0
G1X0.4S810
G1X1.5S0
G1X6.4S810
G1X1.8S0
G1X1S810
G1X3.3S0
G1X7.6S810
G1X0.8S0
G1X2S810
G1X1.4S0
G1X5.6S810
G1X0.1S0
G1X2.7S810
G1X1.6S0
G1X0.9S810
G1X2S0
G1X0.4S810
G1X1.4S0
G1X0.5S810
G1X1S0
G1X0.4S810
G1X0.6S0
G1X1.2S810
G1X0.4S0
G1X2.6S810
G1X0.8S0
G1X1.6S810
G1X1.4S0
G1X0.5S810
G1Y0.1S0
G1X-0.5S810
G1X-1.4S0
G1X-1.6S810
G1X-0.7S0
G1X-2.8S810
G1X-0.3S0
G1X-1.3S810
G1X-0.5S0
G1X-0.3S810
G1X-1.2S0
G1X-0.3S810
G1X-1.4S0
G1X-0.5S810
G1X-2S0
G1X-0.9S810
G1X-1.6S0
G1X-8.4S810
G1X-1.4S0
G1X-1.9S810
G1X-0.9S0
G1X-7.6S810
G1X-3.2S0
G1X-1S810
G1X-1.8S0
G1X-6.4S810
G1X-1.6S0
G1X-0.3S810
G1X-5.7S0
G1X-0.2S810
G1X-2.6S0
G1X-1.2S810
G1X0.1Y0.1S0
G1X1.1S810
G1X2.7S0
G1X0.3S810
G1X5.7S0
G1X0.3S810
G1X1.7S0
G1X6.1S810
G1X1.8S0
G1X1.1S810
G1X3.1S0
G1X7.6S810
G1X0.9S0
G1X2S810
G1X1.2S0
G1X8.6S810
G1X1.5S0
G1X0.9S810
G1X2S0
G1X0.5S810
G1X1.4S0
G1X0.3S810
G1X1.2S0
G1X0.2S810
G1X0.6S0
G1X1.2S810
G1X0.4S0
G1X2.7S810
G1X0.7S0
G1X1.7S810
G1X1.4S0
G1X0.5S810
G1Y0.1S0
G1X-0.6S810
G1X-1.3S0
G1X-1.7S810
G1X-0.6S0
G1X-2.7S810
G1X-0.5S0
G1X-1.1S810
G1X-0.7S0
G1X-0.3S810
G1X-1.1S0
G1X-0.3S810
G1X-1.4S0
G1X-0.5S810
G1X-2S0
G1X-1S810
G1X-1.5S0
G1X-8.4S810
G1X-1.4S0
G1X-1.9S810
G1X-0.9S0
G1X-6S810
G1X-0.3S0
G1X-1.2S810
G1X-3.2S0
G1X-1.1S810
G1X-1.8S0
G1X-5.3S810
G1X-2.5S0
G1X-0.2S810
G1X-5.8S0
G1X-0.3S810
G1X-2.6S0
G1X-1.2S810
G1X0.1Y0.1S0
G1X1.1S810
G1X2.7S0
G1X0.3S810
G1X5.8S0
G1X0.2S810
G1X2.5S0
G1X1.4S810
G1X0.1S0
G1X3.7S810
G1X1.9S0
G1X1S810
G1X3.2S0
G1X1.3S810
G1X0.4S0
G1X5.8S810
G1X0.9S0
G1X1.9S810
G1X1.4S0
G1X8.4S810
G1X1.5S0
G1X1.1S810
G1X1.8S0
G1X0.6S810
G1X1.4S0
G1X0.3S810
G1X1.2S0
G1X0.2S810
G1X0.6S0
G1X1.1S810
G1X0.5S0
G1X2.8S810
G1X0.5S0
G1X1.8S810
G1X1.3S0
G1X0.6S810
G1Y0.1S0
G1X-0.6S810
G1X-1.3S0
G1X-1.9S810
G1X-0.5S0
G1X-2.7S810
G1X-0.5S0
G1X-1.1S810
G1X-0.7S0
G1X-0.1S810
G1X-1.2S0
G1X-0.3S810
G1X-1.3S0
G1X-0.7S810
G1X-1.8S0
G1X-1.2S810
G1X-1.4S0
G1X-8.5S810
G1X-1.2S0
G1X-1.9S810
G1X-1.1S0
G1X-5.5S810
G1X-0.5S0
G1X-1.3S810
G1X-3.3S0
G1X-1S810
G1X-1.8S0
G1X-3.8S810
G1X-0.4S0
G1X-1.2S810
G1X-2.2S0
G1X-0.2S810
G1X-5.9S0
G1X-0.4S810
G1X-2.7S0
G1X-1.1S810
G1X0.1Y0.1S0
G1X1.1S810
G1X2.6S0
G1X0.5S810
G1X5.9S0
G1X0.1S810
G1X2.2S0
G1X1S810
G1X0.6S0
G1X3.8S810
G1X1.8S0
G1X1.1S810
G1X3.2S0
G1X1.4S810
G1X0.6S0
G1X5.4S810
G1X1S0
G1X1.8S810
G1X1.4S0
G1X8.4S810
G1X1.4S0
G1X1.2S810
G1X1.8S0
G1X0.7S810
G1X1.3S0
G1X0.3S810
G1X1.1S0
G1X0.2S810
G1X0.7S0
G1X1.1S810
G1X0.5S0
G1X2.8S810
G1X0.4S0
G1X1.9S810
G1X1.2S0
G1X0.7S810
G1Y0.1S0
G1X-0.7S810
G1X-1.3S0
G1X-1.9S810
G1X-0.3S0
G1X-2.8S810
G1X-0.6S0
G1X-1S810
G1X-0.7S0
G1X-0.2S810
G1X-1.1S0
G1X-0.3S810
G1X-1.3S0
G1X-0.7S810
G1X-1.8S0
G1X-1.2S810
G1X-1.4S0
G1X-8.4S810
G1X-1.4S0
G1X-1.8S810
G1X-1.1S0
G1X-5.2S810
G1X-0.7S0
G1X-1.4S810
G1X-3.2S0
G1X-1.1S810
G1X-1.8S0
G1X-3.7S810
G1X-0.9S0
G1X-0.9S810
G1X-8.1S0
G1X-0.4S810
G1X-2.7S0
G1X-1.1S810
G1X0.1Y0.1S0
G1X1.1S810
G1X2.7S0
G1X0.4S810
G1X7.9S0
G1X0.8S810
G1X1.1S0
G1X3.7S810
G1X1.9S0
G1X1S810
G1X3.3S0
G1X1.3S810
G1X0.9S0
G1X5.1S810
G1X1S0
G1X1.9S810
G1X1.2S0
G1X8.4S810
G1X1.4S0
G1X1.3S810
G1X1.7S0
G1X0.8S810
G1X1.3S0
G1X0.2S810
G1X2.1S0
G1X1S810
G1X0.6S0
G1X2.8S810
G1X0.3S0
G1X2S810
G1X1.2S0
G1X0.7S810
G1Y0.1S0
G1X-0.8S810
G1X-1.1S0
G1X-2.1S810
G1X-0.2S0
G1X-2.8S810
G1X-0.7S0
G1X-0.9S810
G1X-2.1S0
G1X-0.2S810
G1X-1.2S0
G1X-0.9S810
G1X-1.6S0
G1X-1.4S810
G1X-1.4S0
G1X-8.3S810
G1X-1.3S0
G1X-1.8S810
G1X-1.2S0
G1X-4.9S810
G1X-0.9S0
G1X-1.4S810
G1X-3.3S0
G1X-1S810
G1X-1.9S0
G1X-3.7S810
G1X-1.3S0
G1X-0.6S810
G1X-7.8S0
G1X-0.5S810
G1X-2.7S0
G1X-1.1S810
G1Y0.1S0
G1X1.1S810
G1X2.7S0
G1X0.5S810
G1X7.7S0
G1X0.6S810
G1X1.5S0
G1X3.7S810
G1X1.8S0
G1X1S810
G1X3.4S0
G1X1.3S810
G1X1.1S0
G1X4.7S810
G1X1.2S0
G1X1.7S810
G1X1.4S0
G1X8.3S810
G1X1.3S0
G1X1.5S810
G1X1.6S0
G1X0.9S810
G1X1.2S0
G1X0.2S810
G1X1.2S0
G1X0.1S810
G1X0.7S0
G1X1S810
G1X0.6S0
G1X2.9S810
G1X0.1S0
G1X2.2S810
G1X1.1S0
G1X0.8S810
G1Y0.1S0
G1X-0.9S810
G1X-1.1S0
G1X-5S810
G1X-0.7S0
G1X-0.9S810
G1X-2.1S0
G1X-0.1S810
G1X-1.3S0
G1X-0.9S810
G1X-1.6S0
G1X-1.6S810
G1X-1.2S0
G1X-8.4S810
G1X-1.2S0
G1X-1.8S810
G1X-1.1S0
G1X-4.7S810
G1X-1.2S0
G1X-1.3S810
G1X-1.9S0
G1X-0.1S810
G1X-1.3S0
G1X-1.1S810
G1X-1.9S0
G1X-3.6S810
G1X-1.6S0
G1X-0.5S810
G1X-7.6S0
G1X-0.5S810
G1X-2.7S0
G1X-1.1S810
G1Y0.1S0
G1X1.1S810
G1X2.7S0
G1X0.6S810
G1X7.4S0
G1X0.6S810
G1X1.6S0
G1X3.7S810
G1X1.8S0
G1X1.1S810
G1X1.3S0
G1X0.1S810
G1X1.9S0
G1X1.4S810
G1X1.2S0
G1X4.5S810
G1X1.3S0
G1X1.7S810
G1X1.3S0
G1X8.3S810
G1X1.2S0
G1X1.6S810
G1X1.5S0
G1X1S810
G1X1.2S0
G1X0.2S810
G1X2S0
G1X0.9S810
G1X0.7S0
G1X5.1S810
G1X1.1S0
G1X0.9S810
G1Y0.1S0
G1X-1S810
G1X-0.9S0
G1X-5.2S810
G1X-0.8S0
G1X-0.8S810
G1X-2S0
G1X-0.1S810
G1X-1.3S0
G1X-1S810
G1X-1.5S0
G1X-1.6S810
G1X-1.3S0
G1X-8.2S810
G1X-1.3S0
G1X-1.7S810
G1X-1.2S0
G1X-4.5S810
G1X-1.3S0
G1X-1.3S810
G1X-1.9S0
G1X-0.1S810
G1X-1.5S0
G1X-0.9S810
G1X-1.9S0
G1X-3.7S810
G1X-1.7S0
G1X-0.6S810
G1X-7.3S0
G1X-0.6S810
G1X-2.7S0
G1X-1S810
G1Y0.1S0
G1X1.1S810
G1X2.7S0
G1X0.6S810
G1X7.2S0
G1X0.6S810
G1X1.7S0
G1X3.6S810
G1X2S0
G1X1S810
G1X1.4S0
G1X0.2S810
G1X1.8S0
G1X1.4S810
G1X1.4S0
G1X4.3S810
G1X1.3S0
G1X1.6S810
G1X1.2S0
G1X3.2S810
G1X0.1S0
G1X5S810
G1X1.2S0
G1X1.7S810
G1X1.5S0
G1X1S810
G1X1.3S0
G1X0.1S810
G1X2S0
G1X0.8S810
G1X0.8S0
G1X5.1S810
G1X1S0
G1X1S810
G1X-0.1Y0.1S0
G1X-0.9S810
G1X-1S0
G1X-5.1S810
G1X-0.8S0
G1X-0.8S810
G1X-3.3S0
G1X-1.2S810
G1X-1.4S0
G1X-1.8S810
G1X-1.1S0
G1X-5S810
G1X-0.8S0
G1X-2.4S810
G1X-1.3S0
G1X-1.6S810
G1X-1.4S0
G1X-4.2S810
G1X-1.4S0
G1X-1.4S810
G1X-1.8S0
G1X-0.1S810
G1X-1.5S0
G1X-1S810
G1X-1.9S0
G1X-3.7S810
G1X-1.7S0
G1X-0.7S810
G1X-7.1S0
G1X-0.6S810
G1X-2.7S0
G1X-1.1S810
G1X0.1Y0.1S0
G1X1S810
G1X2.7S0
G1X0.6S810
G1X7S0
G1X0.8S810
G1X1.8S0
G1X3.6S810
G1X1.9S0
G1X1S810
G1X1.5S0
G1X0.2S810
G1X1.8S0
G1X1.3S810
G1X1.5S0
G1X4.2S810
G1X1.3S0
G1X1.6S810
G1X1.3S0
G1X2S810
G1X1.1S0
G1X3S810
G1X0.1S0
G1X0.3S810
G1X0.1S0
G1X1.5S810
G1X1.2S0
G1X1.9S810
G1X1.3S0
G1X1.2S810
G1X1.1S0
G1X0.1S810
G1X2S0
G1X0.8S810
G1X0.9S0
G1X5.1S810
G1X0.9S0
G1X1.1S810
G1X-0.1Y0.1S0
G1X-1.1S810
G1X-0.8S0
G1X-5.2S810
G1X-0.9S0
G1X-0.7S810
G1X-3.2S0
G1X-1.2S810
G1X-1.4S0
G1X-1.9S810
G1X-1.1S0
G1X-1.5S810
G1X-0.3S0
G1X-3.3S810
G1X-1.3S0
G1X-1.7S810
G1X-1.2S0
G1X-1.6S810
G1X-1.4S0
G1X-4S810
G1X-1.6S0
G1X-1.4S810
G1X-1.8S0
G1X-0.1S810
G1X-1.6S0
G1X-1S810
G1X-1.9S0
G1X-3.6S810
G1X-1.8S0
G1X-0.8S810
G1X-6.9S0
G1X-0.7S810
G1X-2.6S0
G1X-1.1S810
G1Y0.1S0
G1X1.1S810
G1X2.7S0
G1X0.7S810
G1X6.8S0
G1X0.8S810
G1X1.7S0
G1X3.7S810
G1X1.9S0
G1X1.1S810
G1X1.5S0
G1X0.2S810
G1X1.7S0
G1X1.4S810
G1X1.6S0
G1X4S810
G1X1.4S0
G1X1.6S810
G1X1.2S0
G1X1.5S810
G1X1.4S0
G1X3.3S810
G1X0.4S0
G1X1.5S810
G1X1S0
G1X2.1S810
G1X1.2S0
G1X1.3S810
G1X3.2S0
G1X0.7S810
G1X1S0
G1X5.1S810
G1X0.8S0
G1X1.1S810
G1Y0.1S0
G1X-1.2S810
G1X-0.7S0
G1X-5.2S810
G1X-1S0
G1X-0.7S810
G1X-3S0
G1X-1.4S810
G1X-1.2S0
G1X-2.2S810
G1X-0.9S0
G1X-1.5S810
G1X-0.6S0
G1X-3.2S810
G1X-1.6S0
G1X-1.2S810
G1X-1.2S0
G1X-1.5S810
G1X-1.5S0
G1X-3.9S810
G1X-1.7S0
G1X-1.3S810
G1X-1.8S0
G1X-0.2S810
G1X-1.5S0
G1X-1.1S810
G1X-1.9S0
G1X-3.6S810
G1X-1.6S0
G1X-1.1S810
G1X-6.7S0
G1X-0.7S810
G1X-2.7S0
G1X-1S810
G1Y0.1S0
G1X1S810
G1X2.7S0
G1X0.7S810
G1X6.8S0
G1X1.1S810
G1X1.5S0
G1X3.6S810
G1X2S0
G1X0.9S810
G1X1.6S0
G1X0.2S810
G1X1.8S0
G1X1.3S810
G1X1.8S0
G1X3.9S810
G1X1.4S0
G1X1.5S810
G1X1.2S0
G1X1.1S810
G1X1.6S0
G1X2.7S810
G1X0.1S0
G1X0.2S810
G1X0.1S0
G1X0.1S810
G1X0.6S0
G1X1.5S810
G1X1S0
G1X2.2S810
G1X1.2S0
G1X1.4S810
G1X3S0
G1X0.7S810
G1X1S0
G1X5.1S810
G1X0.8S0
G1X1.2S810
G1Y0.1S0
G1X-1.3S810
G1X-0.7S0
G1X-5.1S810
G1X-1.1S0
G1X-0.6S810
G1X-3S0
G1X-1.5S810
G1X-1.1S0
G1X-2.3S810
G1X-0.9S0
G1X-1.5S810
G1X-0.8S0
G1X-3.1S810
G1X-1.7S0
G1X-0.9S810
G1X-1.2S0
G1X-1.4S810
G1X-1.5S0
G1X-3.8S810
G1X-1.8S0
G1X-1.4S810
G1X-1.7S0
G1X-0.2S810
G1X-1.6S0
G1X-1S810
G1X-2S0
G1X-3.6S810
G1X-1.4S0
G1X-1.2S810
G1X-6.7S0
G1X-0.8S810
G1X-2.6S0
G1X-1.1S810
G1X0.1Y0.1S0
G1X1S810
G1X2.7S0
G1X0.7S810
G1X6.8S0
G1X1.2S810
G1X1.3S0
G1X3.6S810
G1X1.9S0
G1X1.1S810
G1X1.6S0
G1X0.2S810
G1X1.8S0
G1X1.3S810
G1X1.9S0
G1X3.7S810
G1X1.5S0
G1X1.5S810
G1X1.1S0
G1X0.7S810
G1X1.8S0
G1X3S810
G1X1S0
G1X1.4S810
G1X0.9S0
G1X2.4S810
G1X1.1S0
G1X1.5S810
G1X3S0
G1X0.5S810
G1X1.1S0
G1X5.2S810
G1X0.6S0
G1X1.3S810
G1Y0.1S0
G1X-1.3S810
G1X-0.6S0
G1X-5.1S810
G1X-1.2S0
G1X-0.6S810
G1X-2.9S0
G1X-1.5S810
G1X-1.1S0
G1X-2.5S810
G1X-0.8S0
G1X-1.5S810
G1X-1.2S0
G1X-2.7S810
G1X-1.9S0
G1X-0.5S810
G1X-1.2S0
G1X-1.4S810
G1X-1.6S0
G1X-3.7S810
G1X-1.9S0
G1X-1.3S810
G1X-1.7S0
G1X-0.3S810
G1X-1.6S0
G1X-1S810
G1X-2S0
G1X-3.6S810
G1X-1.1S0
G1X-1.3S810
G1X-6.9S0
G1X-0.7S810
G1X-2.7S0
G1X-1S810
G1Y0.1S0
G1X1.1S810
G1X2.6S0
G1X0.8S810
G1X7S0
G1X1.1S810
G1X1.2S0
G1X3.5S810
G1X2S0
G1X1S810
G1X1.6S0
G1X0.3S810
G1X1.7S0
G1X1.4S810
G1X1.9S0
G1X3.7S810
G1X1.5S0
G1X1.4S810
G1X1.2S0
G1X0.4S810
G1X1.9S0
G1X2.7S810
G1X1.3S0
G1X1.4S810
G1X0.8S0
G1X2.6S810
G1X1S0
G1X1.7S810
G1X2.8S0
G1X0.5S810
G1X1.2S0
G1X5.2S810
G1X0.5S0
G1X1.4S810
G1Y0.1S0
G1X-1.5S810
G1X-0.4S0
G1X-5.2S810
G1X-1.3S0
G1X-0.4S810
G1X-2.8S0
G1X-1.7S810
G1X-1S0
G1X-2.8S810
G1X-0.6S0
G1X-1.4S810
G1X-1.5S0
G1X-0.1S810
G1X-0.1S0
G1X-2.4S810
G1X-2S0
G1X-0.3S810
G1X-1S0
G1X-1.4S810
G1X-1.6S0
G1X-3.7S810
G1X-1.9S0
G1X-1.4S810
G1X-1.7S0
G1X-0.3S810
G1X-1.6S0
G1X-1S810
G1X-2S0
G1X-3.6S810
G1X-1.2S0
G1X-0.9S810
G1X-7.1S0
G1X-0.8S810
G1X-2.6S0
G1X-1.1S810
G1X0.1Y0.1S0
G1X1S810
G1X2.6S0
G1X0.8S810
G1X7.3S0
G1X0.7S810
G1X1.3S0
G1X3.5S810
G1X2S0
G1X1S810
G1X1.6S0
G1X0.3S810
G1X1.8S0
G1X1.3S810
G1X2S0
G1X3.6S810
G1X1.7S0
G1X1.3S810
G1X1.1S0
G1X0.2S810
G1X2S0
G1X2.2S810
G1X1.8S0
G1X1.5S810
G1X0.5S0
G1X2.9S810
G1X0.9S0
G1X1.8S810
G1X2.7S0
G1X0.5S810
G1X1.3S0
G1X5.2S810
G1X0.3S0
G1X1.5S810
G1Y0.1S0
G1X-1.6S810
G1X-0.3S0
G1X-5.2S810
G1X-1.3S0
G1X-0.5S810
G1X-2.6S0
G1X-1.8S810
G1X-0.9S0
G1X-3S810
G1X-0.5S0
G1X-1.5S810
G1X-1.9S0
G1X-0.1S810
G1X-0.1S0
G1X-1.9S810
G1X-3.2S0
G1X-1.3S810
G1X-1.7S0
G1X-3.5S810
G1X-2.1S0
G1X-1.3S810
G1X-1.7S0
G1X-0.4S810
G1X-1.6S0
G1X-1S810
G1X-2S0
G1X-3.5S810
G1X-1.3S0
G1X-0.6S810
G1X-7.4S0
G1X-0.8S810
G1X-2.6S0
G1X-1S810
G1X-17.2S0
G1X-0.5S810
G1X-0.3Y0.1S0
G1X0.8S810
G1X17.2S0
G1X1S810
G1X2.6S0
G1X0.9S810
G1X7.3S0
G1X0.7S810
G1X1.1S0
G1X3.6S810
G1X2S0
G1X1S810
G1X1.6S0
G1X0.4S810
G1X1.7S0
G1X1.4S810
G1X2S0
G1X3.6S810
G1X1.7S0
G1X1.3S810
G1X3S0
G1X1.6S810
G1X0.1S0
G1X0.1S810
G1X2.3S0
G1X1.4S810
G1X0.4S0
G1X3.2S810
G1X0.9S0
G1X1.8S810
G1X2.6S0
G1X0.4S810
G1X1.4S0
G1X5.2S810
G1X0.2S0
G1X1.7S810
G1Y0.1S0
G1X-7.1S810
G1X-1.5S0
G1X-0.3S810
G1X-2.5S0
G1X-2S810
G1X-0.8S0
G1X-3.4S810
G1X-0.1S0
G1X-1.6S810
G1X-2.9S0
G1X-1.1S810
G1X-3S0
G1X-1.3S810
G1X-1.7S0
G1X-3.5S810
G1X-2.1S0
G1X-1.4S810
G1X-1.7S0
G1X-0.4S810
G1X-1.6S0
G1X-1S810
G1X-2.1S0
G1X-3.4S810
G1X-1.2S0
G1X-0.8S810
G1X-7.2S0
G1X-0.9S810
G1X-2.5S0
G1X-1.2S810
G1X-17.2S0
G1X-0.9S810
G1X-0.1Y0.1S0
G1X1S810
G1X17.2S0
G1X1.2S810
G1X2.6S0
G1X0.8S810
G1X7.2S0
G1X1.2S810
G1X0.8S0
G1X3.5S810
G1X2S0
G1X1S810
G1X1.6S0
G1X0.4S810
G1X1.8S0
G1X1.3S810
G1X2.1S0
G1X3.6S810
G1X1.7S0
G1X1.2S810
G1X2.9S0
G1X0.3S810
G1X3.7S0
G1X5.2S810
G1X0.8S0
G1X2S810
G1X2.4S0
G1X0.3S810
G1X1.6S0
G1X7S810
G1X1.1S0
G1X0.1S810
G1Y0.1S0
G1X-0.1S810
G1X-1S0
G1X-7.2S810
G1X-1.5S0
G1X-0.3S810
G1X-2.4S0
G1X-2.1S810
G1X-0.7S0
G1X-5.2S810
G1X-6.8S0
G1X-1.2S810
G1X-1.8S0
G1X-3.5S810
G1X-2.2S0
G1X-1.3S810
G1X-1.7S0
G1X-0.5S810
G1X-1.6S0
G1X-1S810
G1X-2S0
G1X-5.5S810
G1X-7.2S0
G1X-0.9S810
G1X-2.5S0
G1X-1.2S810
G1X-17.3S0
G1X-1.1S810
G1X-0.2Y0.1S0
G1X1.3S810
G1X17.2S0
G1X1.4S810
G1X2.4S0
G1X0.9S810
G1X7.1S0
G1X5.5S810
G1X2.1S0
G1X1S810
G1X1.6S0
G1X0.5S810
G1X1.7S0
G1X1.3S810
G1X2.2S0
G1X3.6S810
G1X1.7S0
G1X1.2S810
G1X6.6S0
G1X5.5S810
G1X0.6S0
G1X2.1S810
G1X2.4S0
G1X0.2S810
G1X1.6S0
G1X7.1S810
G1X1.1S0
G1X0.2S810
G1Y0.1S0
G1X-0.3S810
G1X-1S0
G1X-7.1S810
G1X-1.7S0
G1X-0.2S810
G1X-2.3S0
G1X-2.2S810
G1X-0.6S0
G1X-5.4S810
G1X-6.5S0
G1X-1.2S810
G1X-1.8S0
G1X-3.5S810
G1X-2.2S0
G1X-1.4S810
G1X-1.7S0
G1X-0.5S810
G1X-1.7S0
G1X-0.9S810
G1X-2.1S0
G1X-5.6S810
G1X-6.9S0
G1X-1S810
G1X-2.4S0
G1X-1.4S810
G1X-17.3S0
G1X-1.3S810
G1X-0.1Y0.1S0
G1X1.4S810
G1X17.2S0
G1X1.5S810
G1X2.5S0
G1X0.9S810
G1X7S0
G1X5.5S810
G1X2.1S0
G1X1S810
G1X1.6S0
G1X0.5S810
G1X1.8S0
G1X1.3S810
G1X2.2S0
G1X3.5S810
G1X1.9S0
G1X1.1S810
G1X6.4S0
G1X5.5S810
G1X0.6S0
G1X2.3S810
G1X2.1S0
G1X0.2S810
G1X1.8S0
G1X7S810
G1X1.2S0
G1X0.2S810
G1Y0.1S0
G1X-0.3S810
G1X-1.1S0
G1X-7.1S810
G1X-1.8S0
G1X-0.1S810
G1X-2.1S0
G1X-2.4S810
G1X-0.5S0
G1X-5.6S810
G1X-6.3S0
G1X-1S810
G1X-1.9S0
G1X-3.6S810
G1X-2.2S0
G1X-1.3S810
G1X-1.8S0
G1X-0.6S810
G1X-1.5S0
G1X-1S810
G1X-2.1S0
G1X-5.3S810
G1X-7.2S0
G1X-1S810
G1X-2.3S0
G1X-1.6S810
G1X-17.2S0
G1X-1.5S810
G1X-0.2Y0.1S0
G1X1.7S810
G1X17.1S0
G1X1.7S810
G1X2.3S0
G1X1S810
G1X7.5S0
G1X5S810
G1X2.1S0
G1X0.9S810
G1X1.6S0
G1X0.6S810
G1X1.8S0
G1X1.3S810
G1X2.3S0
G1X3.5S810
G1X1.9S0
G1X1.1S810
G1X6.1S0
G1X5.7S810
G1X0.5S0
G1X2.3S810
G1X4.1S0
G1X7S810
G1X1.2S0
G1X0.4S810
G1Y0.1S0
G1X-0.4S810
G1X-1.2S0
G1X-3.8S810
G1X-0.1S0
G1X-3.1S810
G1X-4S0
G1X-2.5S810
G1X-0.4S0
G1X-5.8S810
G1X-5.9S0
G1X-1.1S810
G1X-1.9S0
G1X-3.6S810
G1X-2.3S0
G1X-1.3S810
G1X-1.7S0
G1X-0.7S810
G1X-1.6S0
G1X-0.9S810
G1X-2.1S0
G1X-4.8S810
G1X-7.7S0
G1X-1S810
G1X-2.2S0
G1X-1.9S810
G1X-17.1S0
G1X-1.6S810
G1X-0.2Y0.1S0
G1X1.8S810
G1X13.3S0
G1X0.1S810
G1X3.7S0
G1X1.9S810
G1X2.2S0
G1X1.1S810
G1X7.9S0
G1X4.4S810
G1X2.1S0
G1X1S810
G1X1.6S0
G1X0.7S810
G1X1.7S0
G1X1.3S810
G1X2.3S0
G1X3.7S810
G1X1.9S0
G1X1S810
G1X5.7S0
G1X6S810
G1X0.4S0
G1X2.5S810
G1X3.9S0
G1X3.1S810
G1X0.1S0
G1X3.9S810
G1X1.2S0
G1X0.4S810
G1Y0.1S0
G1X-0.4S810
G1X-1.2S0
G1X-3.8S810
G1X-0.2S0
G1X-3.1S810
G1X-3.8S0
G1X-2.7S810
G1X-0.4S0
G1X-5.9S810
G1X-5.6S0
G1X-1S810
G1X-2S0
G1X-3.7S810
G1X-2.2S0
G1X-1.3S810
G1X-1.8S0
G1X-0.7S810
G1X-1.6S0
G1X-0.9S810
G1X-2.1S0
G1X-4.3S810
G1X-8.1S0
G1X-1.2S810
G1X-2S0
G1X-2.1S810
G1X-3.6S0
G1X-0.4S810
G1X-13S0
G1X-1.8S810
G1X-0.1Y0.1S0
G1X1.8S810
G1X12.9S0
G1X0.6S810
G1X3.6S0
G1X2.1S810
G1X2.1S0
G1X1.1S810
G1X8S0
G1X4.3S810
G1X2.2S0
G1X0.9S810
G1X1.5S0
G1X0.8S810
G1X1.8S0
G1X1.3S810
G1X2.3S0
G1X3.7S810
G1X2S0
G1X0.9S810
G1X5.4S0
G1X6.2S810
G1X0.3S0
G1X2.7S810
G1X3.8S0
G1X3S810
G1X0.2S0
G1X3.8S810
G1X1.3S0
G1X0.5S810
G1Y0.1S0
G1X-0.5S810
G1X-1.3S0
G1X-3.7S810
G1X-0.3S0
G1X-3.1S810
G1X-3.8S0
G1X-2.7S810
G1X-0.3S0
G1X-6.2S810
G1X-5.2S0
G1X-0.9S810
G1X-2.1S0
G1X-3.7S810
G1X-2.4S0
G1X-1.2S810
G1X-1.8S0
G1X-0.8S810
G1X-1.5S0
G1X-1S810
G1X-2.1S0
G1X-4.3S810
G1X-7.9S0
G1X-1.3S810
G1X-2S0
G1X-2.2S810
G1X-3.6S0
G1X-0.8S810
G1X-12.6S0
G1X-1.9S810
G1X-0.1Y0.1S0
G1X2S810
G1X12.4S0
G1X0.9S810
G1X3.6S0
G1X2.4S810
G1X2S0
G1X1.2S810
G1X7.9S0
G1X4.3S810
G1X2.2S0
G1X0.9S810
G1X1.5S0
G1X0.8S810
G1X1.8S0
G1X1.3S810
G1X2.3S0
G1X3.8S810
G1X2S0
G1X0.9S810
G1X5S0
G1X6.4S810
G1X0.2S0
G1X2.9S810
G1X3.7S0
G1X3.1S810
G1X0.2S0
G1X3.7S810
G1X1.3S0
G1X0.6S810
G1Y0.1S0
G1X-0.6S810
G1X-1.3S0
G1X-3.6S810
G1X-0.4S0
G1X-3S810
G1X-3.7S0
G1X-2.9S810
G1X-0.2S0
G1X-6.5S810
G1X-4.8S0
G1X-0.8S810
G1X-2.1S0
G1X-3.9S810
G1X-2.3S0
G1X-1.3S810
G1X-1.8S0
G1X-0.9S810
G1X-1.5S0
G1X-0.9S810
G1X-2.1S0
G1X-4.4S810
G1X-7.7S0
G1X-1.3S810
G1X-1.9S0
G1X-2.5S810
G1X-3.6S0
G1X-1.1S810
G1X-12.3S0
G1X-2S810
G1X-0.1Y0.1S0
G1X2.1S810
G1X12.2S0
G1X1.1S810
G1X3.6S0
G1X2.6S810
G1X1.9S0
G1X1.3S810
G1X7.7S0
G1X4.3S810
G1X2.2S0
G1X0.9S810
G1X1.5S0
G1X0.9S810
G1X1.8S0
G1X1.3S810
G1X2.4S0
G1X3.8S810
G1X2.1S0
G1X0.9S810
G1X4.6S0
G1X6.6S810
G1X0.1S0
G1X3S810
G1X3.6S0
G1X3.1S810
G1X0.4S0
G1X3.6S810
G1X1.3S0
G1X0.7S810
G1Y0.1S0
G1X-0.7S810
G1X-1.4S0
G1X-3.6S810
G1X-0.4S0
G1X-3S810
G1X-3.6S0
G1X-3S810
G1X-0.1S0
G1X-1.8S810
G1X-0.1S0
G1X-4.9S810
G1X-4.4S0
G1X-0.8S810
G1X-2.1S0
G1X-3.9S810
G1X-2.4S0
G1X-1.2S810
G1X-1.9S0
G1X-0.9S810
G1X-1.5S0
G1X-0.9S810
G1X-2.2S0
G1X-4.3S810
G1X-7.7S0
G1X-1.3S810
G1X-1.8S0
G1X-2.8S810
G1X-3.5S0
G1X-1.3S810
G1X-12S0
G1X-2.2S810
G1Y0.1S0
G1X2.2S810
G1X11.8S0
G1X1.4S810
G1X3.5S0
G1X2.9S810
G1X1.8S0
G1X1.4S810
G1X7.6S0
G1X4.3S810
G1X2.2S0
G1X0.9S810
G1X1.4S0
G1X1.1S810
G1X1.8S0
G1X1.2S810
G1X2.4S0
G1X3.9S810
G1X2.3S0
G1X0.7S810
G1X4.1S0
G1X5S810
G1X0.4S0
G1X4.8S810
G1X3.5S0
G1X3S810
G1X0.5S0
G1X3.5S810
G1X1.4S0
G1X0.7S810
G1Y0.1S0
G1X-0.8S810
G1X-1.4S0
G1X-3.4S810
G1X-0.5S0
G1X-1.8S810
G1X-0.1S0
G1X-1.2S810
G1X-3.4S0
G1X-4.8S810
G1X-0.5S0
G1X-5.1S810
G1X-3.8S0
G1X-0.8S810
G1X-2.2S0
G1X-4S810
G1X-2.3S0
G1X-1.3S810
G1X-1.9S0
G1X-1S810
G1X-1.5S0
G1X-0.8S810
G1X-2.2S0
G1X-4.4S810
G1X-7.5S0
G1X-1.3S810
G1X-1.8S0
G1X-3S810
G1X-3.5S0
G1X-1.5S810
G1X-11.7S0
G1X-2.3S810
G1X-0.1Y0.1S0
G1X2.3S810
G1X11.6S0
G1X1.6S810
G1X3.5S0
G1X3.1S810
G1X1.8S0
G1X1.3S810
G1X7.5S0
G1X4.3S810
G1X2.3S0
G1X0.8S810
G1X1.4S0
G1X1.2S810
G1X1.8S0
G1X1.2S810
G1X2.4S0
G1X4.1S810
G1X2.2S0
G1X0.8S810
G1X3.5S0
G1X5.1S810
G1X0.7S0
G1X4.8S810
G1X3.4S0
G1X1.1S810
G1X0.1S0
G1X1.8S810
G1X0.6S0
G1X3.4S810
G1X1.4S0
G1X0.8S810
G1Y0.1S0
G1X-0.8S810
G1X-1.4S0
G1X-3.4S810
G1X-0.6S0
G1X-1.8S810
G1X-0.1S0
G1X-1.1S810
G1X-3.4S0
G1X-4.7S810
G1X-1S0
G1X-5S810
G1X-3.4S0
G1X-0.6S810
G1X-2.3S0
G1X-4.2S810
G1X-2.4S0
G1X-1.2S810
G1X-1.9S0
G1X-1.1S810
G1X-1.4S0
G1X-0.8S810
G1X-2.3S0
G1X-4.4S810
G1X-7.3S0
G1X-1.4S810
G1X-1.7S0
G1X-3.3S810
G1X-3.4S0
G1X-1.7S810
G1X-11.5S0
G1X-2.3S810
G1X-0.1Y0.1S0
G1X2.4S810
G1X11.3S0
G1X1.8S810
G1X3.4S0
G1X3.5S810
G1X1.7S0
G1X1.4S810
G1X7.2S0
G1X4.4S810
G1X2.3S0
G1X0.8S810
G1X1.4S0
G1X1.2S810
G1X1.8S0
G1X1.3S810
G1X2.3S0
G1X4.3S810
G1X2.2S0
G1X0.7S810
G1X3S0
G1X5.1S810
G1X1.2S0
G1X4.7S810
G1X3.3S0
G1X1.1S810
G1X0.2S0
G1X1.7S810
G1X0.7S0
G1X3.3S810
G1X1.5S0
G1X0.8S810
G1Y0.1S0
G1X-0.8S810
G1X-1.5S0
G1X-3.3S810
G1X-0.7S0
G1X-1.8S810
G1X-0.1S0
G1X-1.1S810
G1X-3.3S0
G1X-4.6S810
G1X-1.5S0
G1X-5.1S810
G1X-2.7S0
G1X-0.6S810
G1X-2.4S0
G1X-4.3S810
G1X-2.3S0
G1X-1.3S810
G1X-1.8S0
G1X-1.3S810
G1X-1.4S0
G1X-0.7S810
G1X-2.3S0
G1X-4.4S810
G1X-7.2S0
G1X-1.4S810
G1X-1.6S0
G1X-3.7S810
G1X-3.3S0
G1X-1.9S810
G1X-11.2S0
G1X-2.5S810
G1Y0.1S0
G1X1S810
G1X0.1S0
G1X1.4S810
G1X11.1S0
G1X1.9S810
G1X3.3S0
G1X3.8S810
G1X1.7S0
G1X1.3S810
G1X7.1S0
G1X4.4S810
G1X2.3S0
G1X0.8S810
G1X1.3S0
G1X1.3S810
G1X2S0
G1X1.1S810
G1X2.4S0
G1X4.4S810
G1X2.3S0
G1X0.7S810
G1X2.4S0
G1X5.1S810
G1X1.7S0
G1X4.6S810
G1X3.2S0
G1X1.1S810
G1X0.2S0
G1X1.7S810
G1X0.8S0
G1X1.7S810
G1X0.3S0
G1X1.3S810
G1X1.4S0
G1X1S810
G1X-0.1Y0.1S0
G1X-0.9S810
G1X-1.5S0
G1X-1.2S810
G1X-0.2S0
G1X-1.9S810
G1X-0.7S0
G1X-1.7S810
G1X-0.3S0
G1X-1S810
G1X-3.1S0
G1X-4.7S810
G1X-2S0
G1X-5.1S810
G1X-2S0
G1X-0.6S810
G1X-2.3S0
G1X-4.6S810
G1X-2.3S0
G1X-1.2S810
G1X-1.9S0
G1X-1.4S810
G1X-1.4S0
G1X-0.7S810
G1X-2.3S0
G1X-4.4S810
G1X-7S0
G1X-1.4S810
G1X-1.6S0
G1X-3.9S810
G1X-3.3S0
G1X-2S810
G1X-11.1S0
G1X-1.3S810
G1X-0.2S0
G1X-1S810
G1X-0.1Y0.1S0
G1X1S810
G1X0.3S0
G1X1.3S810
G1X11S0
G1X2S810
G1X3.3S0
G1X2S810
G1X0.2S0
G1X1.9S810
G1X1.5S0
G1X1.5S810
G1X6.8S0
G1X4.5S810
G1X2.3S0
G1X0.7S810
G1X1.3S0
G1X1.5S810
G1X1.8S0
G1X1.3S810
G1X2.3S0
G1X4.6S810
G1X2.4S0
G1X0.6S810
G1X1.7S0
G1X5.1S810
G1X2.3S0
G1X4.6S810
G1X3.1S0
G1X1S810
G1X0.2S0
G1X1.8S810
G1X0.8S0
G1X1.6S810
G1X0.3S0
G1X1.3S810
G1X1.5S0
G1X1S810
G1X-0.1Y0.1S0
G1X-0.9S810
G1X-1.5S0
G1X-1.3S810
G1X-0.3S0
G1X-1.6S810
G1X-0.9S0
G1X-1.7S810
G1X-0.3S0
G1X-1S810
G1X-3S0
G1X-4.6S810
G1X-2.6S0
G1X-4.6S810
G1X-1.9S0
G1X-0.5S810
G1X-2.4S0
G1X-4.7S810
G1X-2.4S0
G1X-1.1S810
G1X-1.9S0
G1X-1.5S810
G1X-1.3S0
G1X-0.7S810
G1X-2.3S0
G1X-4.5S810
G1X-6.8S0
G1X-1.4S810
G1X-1.6S0
G1X-1.9S810
G1X-0.2S0
G1X-2.1S810
G1X-3.2S0
G1X-2.2S810
G1X-10.8S0
G1X-1.4S810
G1X-0.2S0
G1X-1S810
G1X-0.1Y0.1S0
G1X1S810
G1X0.3S0
G1X1.4S810
G1X10.7S0
G1X2.3S810
G1X3.1S0
G1X2.1S810
G1X0.3S0
G1X2S810
G1X1.6S0
G1X1.3S810
G1X6.7S0
G1X4.5S810
G1X2.4S0
G1X0.6S810
G1X1.3S0
G1X1.5S810
G1X2S0
G1X1.2S810
G1X2.3S0
G1X4.8S810
G1X2.5S0
G1X0.4S810
G1X2.1S0
G1X3.9S810
G1X3S0
G1X4.6S810
G1X3S0
G1X1S810
G1X0.2S0
G1X1.8S810
G1X0.9S0
G1X1.5S810
G1X0.4S0
G1X1.3S810
G1X1.4S0
G1X1.1S810
G1X-0.1Y0.1S0
G1X-1S810
G1X-1.4S0
G1X-1.3S810
G1X-0.5S0
G1X-1.5S810
G1X-0.9S0
G1X-1.7S810
G1X-0.3S0
G1X-1S810
G1X-2.9S0
G1X-4.6S810
G1X-3.4S0
G1X-3.1S810
G1X-2.4S0
G1X-0.4S810
G1X-2.4S0
G1X-5S810
G1X-2.3S0
G1X-1.2S810
G1X-1.9S0
G1X-1.7S810
G1X-1.2S0
G1X-0.6S810
G1X-2.4S0
G1X-4.5S810
G1X-6.6S0
G1X-1.4S810
G1X-1.4S0
G1X-2.2S810
G1X-0.3S0
G1X-2.2S810
G1X-3.1S0
G1X-2.3S810
G1X-10.6S0
G1X-1.4S810
G1X-0.4S0
G1X-0.9S810
G1X-0.1Y0.1S0
G1X0.9S810
G1X0.5S0
G1X1.3S810
G1X10.6S0
G1X2.4S810
G1X3S0
G1X2.2S810
G1X0.3S0
G1X2.3S810
G1X1.4S0
G1X1.5S810
G1X6.4S0
G1X4.6S810
G1X2.3S0
G1X0.6S810
G1X1.3S0
G1X1.7S810
G1X1.9S0
G1X1.1S810
G1X2.3S0
G1X5.2S810
G1X2.4S0
G1X0.4S810
G1X2.9S0
G1X1.9S810
G1X4S0
G1X4.6S810
G1X2.9S0
G1X0.9S810
G1X0.4S0
G1X1.7S810
G1X1S0
G1X1.3S810
G1X0.6S0
G1X1.2S810
G1X1.5S0
G1X1.1S810
G1Y0.1S0
G1X-1.1S810
G1X-1.5S0
G1X-1.3S810
G1X-0.5S0
G1X-1.4S810
G1X-1S0
G1X-1.7S810
G1X-0.4S0
G1X-0.9S810
G1X-2.7S0
G1X-4.7S810
G1X-8.7S0
G1X-0.3S810
G1X-2.5S0
G1X-5.3S810
G1X-2.2S0
G1X-1.2S810
G1X-2S0
G1X-1.7S810
G1X-1.2S0
G1X-0.6S810
G1X-2.4S0
G1X-4.6S810
G1X-6.2S0
G1X-1.5S810
G1X-1.4S0
G1X-2.4S810
G1X-0.4S0
G1X-2.2S810
G1X-3S0
G1X-2.4S810
G1X-10.5S0
G1X-1.3S810
G1X-0.5S0
G1X-0.9S810
G1X-0.1Y0.1S0
G1X0.9S810
G1X0.5S0
G1X1.4S810
G1X10.4S0
G1X2.5S810
G1X2.9S0
G1X2.2S810
G1X0.5S0
G1X2.5S810
G1X1.4S0
G1X1.4S810
G1X6.2S0
G1X4.6S810
G1X2.4S0
G1X0.5S810
G1X1.3S0
G1X1.8S810
G1X2S0
G1X1S810
G1X2.3S0
G1X5.4S810
G1X2.5S0
G1X0.3S810
G1X8.6S0
G1X4.7S810
G1X2.7S0
G1X0.9S810
G1X0.4S0
G1X1.6S810
G1X1.1S0
G1X1.3S810
G1X0.6S0
G1X1.3S810
G1X1.4S0
G1X1.1S810
G1Y0.1S0
G1X-1.1S810
G1X-1.4S0
G1X-1.3S810
G1X-0.7S0
G1X-1.1S810
G1X-1.2S0
G1X-1.6S810
G1X-0.5S0
G1X-0.9S810
G1X-2.6S0
G1X-4.7S810
G1X-8.5S0
G1X-0.3S810
G1X-2.5S0
G1X-5.5S810
G1X-2.3S0
G1X-1.1S810
G1X-2S0
G1X-1.8S810
G1X-1.2S0
G1X-0.5S810
G1X-2.4S0
G1X-4.7S810
G1X-6S0
G1X-1.5S810
G1X-1.3S0
G1X-2.6S810
G1X-0.6S0
G1X-2.2S810
G1X-2.8S0
G1X-2.6S810
G1X-10.3S0
G1X-1.4S810
G1X-0.6S0
G1X-0.9S810
G1Y0.1S0
G1X0.9S810
G1X0.6S0
G1X1.4S810
G1X10.3S0
G1X1.4S810
G1X0.2S0
G1X0.9S810
G1X2.8S0
G1X2.2S810
G1X0.6S0
G1X2.8S810
G1X1.3S0
G1X1.4S810
G1X6S0
G1X4.6S810
G1X2.5S0
G1X0.4S810
G1X1.2S0
G1X2S810
G1X2S0
G1X1.1S810
G1X2.2S0
G1X5.7S810
G1X2.5S0
G1X0.2S810
G1X8.4S0
G1X4.7S810
G1X2.6S0
G1X0.8S810
G1X0.5S0
G1X1.7S810
G1X1.1S0
G1X1.1S810
G1X0.8S0
G1X1.3S810
G1X1.3S0
G1X1.3S810
G1X-0.1Y0.1S0
G1X-1.2S810
G1X-1.4S0
G1X-1.2S810
G1X-0.8S0
G1X-1.1S810
G1X-1.2S0
G1X-1.6S810
G1X-0.5S0
G1X-0.9S810
G1X-2.5S0
G1X-4.7S810
G1X-8.3S0
G1X-0.2S810
G1X-2.5S0
G1X-5.9S810
G1X-2.2S0
G1X-1.1S810
G1X-2S0
G1X-2S810
G1X-1.2S0
G1X-0.3S810
G1X-2.6S0
G1X-4.6S810
G1X-5.8S0
G1X-1.5S810
G1X-1.2S0
G1X-2.9S810
G1X-0.7S0
G1X-2.2S810
G1X-2.7S0
G1X-0.9S810
G1X-0.3S0
G1X-1.5S810
G1X-10.1S0
G1X-1.4S810
G1X-0.7S0
G1X-0.8S810
G1X-0.1Y0.1S0
G1X0.9S810
G1X0.7S0
G1X1.4S810
G1X10.1S0
G1X1.3S810
G1X0.4S0
G1X0.9S810
G1X2.6S0
G1X2.3S810
G1X0.7S0
G1X1.6S810
G1X0.1S0
G1X1.5S810
G1X1.1S0
G1X1.5S810
G1X5.6S0
G1X4.8S810
G1X2.4S0
G1X0.4S810
G1X1.1S0
G1X2.1S810
G1X2.1S0
G1X1S810
G1X2.2S0
G1X6S810
G1X2.6S0
G1X0.1S810
G1X8.2S0
G1X4.7S810
G1X2.5S0
G1X0.8S810
G1X0.6S0
G1X1.5S810
G1X1.3S0
G1X1S810
G1X0.9S0
G1X1.2S810
G1X1.4S0
G1X1.2S810
G1X0.1Y0.1S0
G1X-1.4S810
G1X-1.3S0
G1X-1.3S810
G1X-0.9S0
G1X-0.9S810
G1X-1.3S0
G1X-1.6S810
G1X-0.6S0
G1X-0.8S810
G1X-2.4S0
G1X-4.7S810
G1X-10.7S0
G1X-6.2S810
G1X-2.2S0
G1X-1S810
G1X-2.1S0
G1X-2.2S810
G1X-1.1S0
G1X-0.3S810
G1X-2.5S0
G1X-4.8S810
G1X-5.4S0
G1X-1.6S810
G1X-1.1S0
G1X-1.3S810
G1X-0.7S0
G1X-1.3S810
G1X-0.7S0
G1X-2.2S810
G1X-2.6S0
G1X-0.9S810
G1X-0.5S0
G1X-1.3S810
G1X-10.1S0
G1X-1.3S810
G1X-0.8S0
G1X-0.9S810
G1Y0.1S0
G1X0.8S810
G1X0.8S0
G1X1.4S810
G1X10S0
G1X1.3S810
G1X0.6S0
G1X0.9S810
G1X2.4S0
G1X2.3S810
G1X0.8S0
G1X1.1S810
G1X1.2S0
G1X1.2S810
G1X1S0
G1X1.6S810
G1X5.3S0
G1X4.8S810
G1X2.5S0
G1X0.2S810
G1X1.2S0
G1X2.2S810
G1X2S0
G1X1.1S810
G1X2.2S0
G1X6.4S810
G1X10.5S0
G1X4.8S810
G1X2.3S0
G1X0.7S810
G1X0.7S0
G1X1.3S810
G1X0.1S0
G1X0.2S810
G1X1.3S0
G1X0.8S810
G1X1S0
G1X1.3S810
G1X1.3S0
G1X1.3S810
G1Y0.1S0
G1X-1.3S810
G1X-1.3S0
G1X-1.3S810
G1X-1S0
G1X-0.9S810
G1X-1.3S0
G1X-1.6S810
G1X-0.7S0
G1X-0.7S810
G1X-2.3S0
G1X-3S810
G1X-0.1S0
G1X-1.6S810
G1X-10.4S0
G1X-6.5S810
G1X-2.2S0
G1X-1S810
G1X-2.1S0
G1X-2.3S810
G1X-1.1S0
G1X-0.2S810
G1X-2.6S0
G1X-4.8S810
G1X-5.2S0
G1X-1.5S810
G1X-1S0
G1X-1.2S810
G1X-1.5S0
G1X-1S810
G1X-0.8S0
G1X-2.2S810
G1X-2.4S0
G1X-1S810
G1X-0.7S0
G1X-1.2S810
G1X-9.8S0
G1X-1.5S810
G1X-0.8S0
G1X-0.8S810
G1X-0.1Y0.1S0
G1X0.8S810
G1X0.9S0
G1X1.4S810
G1X9.8S0
G1X1.3S810
G1X0.7S0
G1X0.9S810
G1X2.3S0
G1X2.3S810
G1X0.8S0
G1X1S810
G1X1.7S0
G1X1.2S810
G1X0.9S0
G1X1.6S810
G1X5S0
G1X4.9S810
G1X2.5S0
G1X0.2S810
G1X1.1S0
G1X2.4S810
G1X2.1S0
G1X1S810
G1X2.1S0
G1X6.8S810
G1X10.2S0
G1X1.5S810
G1X0.2S0
G1X3.1S810
G1X2.2S0
G1X0.6S810
G1X0.8S0
G1X1.5S810
G1X1.4S0
G1X0.8S810
G1X1.1S0
G1X1.3S810
G1X1.2S0
G1X1.4S810
G1Y0.1S0
G1X-1.4S810
G1X-1.2S0
G1X-1.3S810
G1X-1.2S0
G1X-0.6S810
G1X-1.5S0
G1X-1.5S810
G1X-0.9S0
G1X-0.6S810
G1X-2.1S0
G1X-3S810
G1X-0.3S0
G1X-1.5S810
G1X-10S0
G1X-7S810
G1X-2.1S0
G1X-1S810
G1X-2.1S0
G1X-2.4S810
G1X-3.8S0
G1X-5S810
G1X-4.8S0
G1X-1.3S810
G1X-0.1S0
G1X-0.2S810
G1X-0.9S0
G1X-1.2S810
G1X-2S0
G1X-0.8S810
G1X-0.9S0
G1X-2.3S810
G1X-2.2S0
G1X-1S810
G1X-0.8S0
G1X-1.1S810
G1X-9.8S0
G1X-1.4S810
G1X-0.9S0
G1X-0.9S810
G1Y0.1S0
G1X0.8S810
G1X1S0
G1X1.4S810
G1X9.7S0
G1X1.1S810
G1X0.9S0
G1X1S810
G1X2.1S0
G1X2.3S810
G1X0.9S0
G1X0.8S810
G1X2.1S0
G1X1.4S810
G1X0.8S0
G1X1.6S810
G1X4.6S0
G1X5S810
G1X3.9S0
G1X2.4S810
G1X2.1S0
G1X1S810
G1X2.1S0
G1X7.3S810
G1X9.6S0
G1X1.6S810
G1X0.2S0
G1X3.1S810
G1X2.1S0
G1X0.5S810
G1X0.9S0
G1X1.5S810
G1X1.5S0
G1X0.6S810
G1X1.2S0
G1X1.3S810
G1X1.2S0
G1X1.5S810
G1Y0.1S0
G1X-1.5S810
G1X-1.2S0
G1X-1.3S810
G1X-1.3S0
G1X-0.5S810
G1X-1.5S0
G1X-1.5S810
G1X-1S0
G1X-0.5S810
G1X-2S0
G1X-3S810
G1X-0.4S0
G1X-1.5S810
G1X-9.5S0
G1X-7.4S810
G1X-2.2S0
G1X-0.9S810
G1X-2.1S0
G1X-2.5S810
G1X-3.8S0
G1X-5.1S810
G1X-4.4S0
G1X-1.7S810
G1X-0.7S0
G1X-1.4S810
G1X-2.3S0
G1X-0.8S810
G1X-0.9S0
G1X-2.3S810
G1X-2S0
G1X-1S810
G1X-0.9S0
G1X-1.2S810
G1X-9.6S0
G1X-1.4S810
G1X-1S0
G1X-0.8S810
G1X-0.1Y0.1S0
G1X0.8S810
G1X1.1S0
G1X1.4S810
G1X9.5S0
G1X1.1S810
G1X1S0
G1X1S810
G1X2S0
G1X2.3S810
G1X0.9S0
G1X0.8S810
G1X2.4S0
G1X1.6S810
G1X0.6S0
G1X1.7S810
G1X4.1S0
G1X5.2S810
G1X3.9S0
G1X2.5S810
G1X2.1S0
G1X1S810
G1X2.1S0
G1X7.7S810
G1X9.2S0
G1X1.5S810
G1X0.4S0
G1X3S810
G1X2S0
G1X0.4S810
G1X1.1S0
G1X1.4S810
G1X1.5S0
G1X0.6S810
G1X1.3S0
G1X1.3S810
G1X1.2S0
G1X1.5S810
G1X3.2Y0.1S0
G1X-0.1S810
G1X-3.2S0
G1X-1.5S810
G1X-1.1S0
G1X-1.3S810
G1X-1.4S0
G1X-0.5S810
G1X-1.6S0
G1X-1.4S810
G1X-1.1S0
G1X-0.4S810
G1X-1.9S0
G1X-3S810
G1X-0.5S0
G1X-1.4S810
G1X-8.9S0
G1X-8S810
G1X-2.2S0
G1X-0.9S810
G1X-2.1S0
G1X-2.6S810
G1X-3.8S0
G1X-2.1S810
G1X-0.1S0
G1X-3.1S810
G1X-3.9S0
G1X-1.7S810
G1X-0.6S0
G1X-1.7S810
G1X-2.5S0
G1X-0.8S810
G1X-0.9S0
G1X-2.3S810
G1X-1.9S0
G1X-1S810
G1X-1S0
G1X-1.2S810
G1X-9.4S0
G1X-1.4S810
G1X-1.1S0
G1X-0.8S810
G1X-0.1Y0.1S0
G1X0.9S810
G1X1S0
G1X1.5S810
G1X9.4S0
G1X1.1S810
G1X1S0
G1X1.1S810
G1X1.8S0
G1X2.3S810
G1X0.9S0
G1X0.8S810
G1X2.7S0
G1X1.7S810
G1X0.6S0
G1X1.7S810
G1X3.7S0
G1X3.2S810
G1X0.2S0
G1X2S810
G1X3.8S0
G1X2.6S810
G1X2.1S0
G1X0.9S810
G1X2.2S0
G1X8.3S810
G1X8.6S0
G1X1.4S810
G1X0.5S0
G1X3.1S810
G1X1.7S0
G1X0.4S810
G1X1.2S0
G1X1.4S810
G1X1.6S0
G1X0.4S810
G1X1.4S0
G1X1.4S810
G1X1.1S0
G1X1.5S810
G1X3.1S0
G1X0.2S810
G1X-0.1Y0.1S0
G1X-0.2S810
G1X-3S0
G1X-1.6S810
G1X-1S0
G1X-1.3S810
G1X-1.6S0
G1X-0.3S810
G1X-1.7S0
G1X-1.3S810
G1X-1.3S0
G1X-0.3S810
G1X-1.7S0
G1X-3.1S810
G1X-0.6S0
G1X-1.3S810
G1X-8.3S0
G1X-8.6S810
G1X-2.2S0
G1X-0.9S810
G1X-2.2S0
G1X-2.5S810
G1X-3.9S0
G1X-2S810
G1X-0.2S0
G1X-3.2S810
G1X-3.4S0
G1X-1.9S810
G1X-0.4S0
G1X-2S810
G1X-2.6S0
G1X-0.8S810
G1X-1S0
G1X-2.3S810
G1X-1.7S0
G1X-1.1S810
G1X-1.1S0
G1X-1.1S810
G1X-9.3S0
G1X-1.4S810
G1X-1.2S0
G1X-0.8S810
G1X-0.1Y0.1S0
G1X0.8S810
G1X1.2S0
G1X1.5S810
G1X9.2S0
G1X1.1S810
G1X1.2S0
G1X1.1S810
G1X1.5S0
G1X2.4S810
G1X1S0
G1X0.7S810
G1X2.8S0
G1X2.2S810
G1X0.3S0
G1X1.8S810
G1X3.2S0
G1X3.3S810
G1X0.4S0
G1X1.9S810
G1X3.9S0
G1X2.5S810
G1X2.2S0
G1X0.9S810
G1X2.2S0
G1X9S810
G1X7.8S0
G1X1.3S810
G1X0.8S0
G1X2.9S810
G1X1.8S0
G1X0.2S810
G1X1.3S0
G1X1.3S810
G1X1.8S0
G1X0.3S810
G1X1.5S0
G1X1.4S810
G1X1S0
G1X1.6S810
G1X2.9S0
G1X0.2S810
G1X-0.1Y0.1S0
G1X-0.1S810
G1X-2.9S0
G1X-1.7S810
G1X-0.9S0
G1X-1.4S810
G1X-1.6S0
G1X-0.3S810
G1X-1.7S0
G1X-1.3S810
G1X-1.4S0
G1X-0.2S810
G1X-1.6S0
G1X-3.1S810
G1X-0.7S0
G1X-1.3S810
G1X-7.3S0
G1X-9.5S810
G1X-2.3S0
G1X-0.8S810
G1X-2.2S0
G1X-2.6S810
G1X-3.9S0
G1X-1.8S810
G1X-0.4S0
G1X-3.5S810
G1X-2.8S0
G1X-1.6S810
G1X-0.1S0
G1X-0.2S810
G1X-0.2S0
G1X-2.4S810
G1X-2.9S0
G1X-0.7S810
G1X-1.1S0
G1X-2.3S810
G1X-1.5S0
G1X-1.1S810
G1X-1.2S0
G1X-1S810
G1X-9.2S0
G1X-1.5S810
G1X-1.2S0
G1X-0.8S810
G1Y0.1S0
G1X0.8S810
G1X1.3S0
G1X1.4S810
G1X9.1S0
G1X1.1S810
G1X1.2S0
G1X1.2S810
G1X1.3S0
G1X2.3S810
G1X1.1S0
G1X0.7S810
G1X3S0
G1X2.5S810
G1X0.1S0
G1X2.1S810
G1X2.4S0
G1X3.6S810
G1X0.5S0
G1X1.8S810
G1X4S0
G1X2.5S810
G1X2.2S0
G1X0.8S810
G1X2.3S0
G1X10.2S810
G1X3.3S0
G1X0.1S810
G1X3.2S0
G1X1.2S810
G1X0.9S0
G1X3S810
G1X1.5S0
G1X0.2S810
G1X1.4S0
G1X1.3S810
G1X1.8S0
G1X0.2S810
G1X1.7S0
G1X1.4S810
G1X0.9S0
G1X1.7S810
G1X2.8S0
G1X0.2S810
G1Y0.1S0
G1X-0.3S810
G1X-2.7S0
G1X-1.8S810
G1X-0.9S0
G1X-1.4S810
G1X-1.7S0
G1X-0.2S810
G1X-1.8S0
G1X-1.2S810
G1X-3.1S0
G1X-3S810
G1X-1S0
G1X-1.1S810
G1X-3S0
G1X-1.3S810
G1X-0.2S0
G1X-0.1S810
G1X-0.2S0
G1X-0.1S810
G1X-0.3S0
G1X-0.1S810
G1X-0.2S0
G1X-0.1S810
G1X-0.1S0
G1X-11.1S810
G1X-2.3S0
G1X-0.8S810
G1X-2.2S0
G1X-2.6S810
G1X-4S0
G1X-1.7S810
G1X-0.6S0
G1X-3.7S810
G1X-2.1S0
G1X-4.9S810
G1X-3.1S0
G1X-0.6S810
G1X-1.1S0
G1X-2.3S810
G1X-1.3S0
G1X-1.1S810
G1X-1.3S0
G1X-1.1S810
G1X-4.7S0
G1X-0.2S810
G1X-4.1S0
G1X-1.5S810
G1X-1.3S0
G1X-0.8S810
G1Y0.1S0
G1X0.8S810
G1X1.3S0
G1X1.4S810
G1X3.9S0
G1X0.5S810
G1X4.7S0
G1X1S810
G1X1.3S0
G1X1.3S810
G1X1S0
G1X2.4S810
G1X1.1S0
G1X0.6S810
G1X3.2S0
G1X5.2S810
G1X1.5S0
G1X3.9S810
G1X0.7S0
G1X1.7S810
G1X4S0
G1X2.6S810
G1X2.3S0
G1X0.7S810
G1X2.3S0
G1X13.9S810
G1X2.9S0
G1X1S810
G1X1.1S0
G1X3S810
G1X3.1S0
G1X1.2S810
G1X1.8S0
G1X0.2S810
G1X1.7S0
G1X1.4S810
G1X0.8S0
G1X1.8S810
G1X2.7S0
G1X0.3S810
G1Y0.1S0
G1X-0.4S810
G1X-2.6S0
G1X-1.8S810
G1X-0.7S0
G1X-1.5S810
G1X-1.8S0
G1X-0.1S810
G1X-1.9S0
G1X-1.2S810
G1X-3S0
G1X-3S810
G1X-1.2S0
G1X-1S810
G1X-2.8S0
G1X-13.9S810
G1X-2.3S0
G1X-0.8S810
G1X-2.2S0
G1X-2.6S810
G1X-4.1S0
G1X-1.6S810
G1X-0.7S0
G1X-4.4S810
G1X-0.1S0
G1X-0.1S810
G1X-0.5S0
G1X-4S810
G1X-0.7S0
G1X-0.8S810
G1X-3.5S0
G1X-0.4S810
G1X-1.2S0
G1X-2.3S810
G1X-1S0
G1X-1.2S810
G1X-1.4S0
G1X-1S810
G1X-4.6S0
G1X-0.6S810
G1X-3.7S0
G1X-1.5S810
G1X-1.3S0
G1X-0.9S810
G1Y0.1S0
G1X0.8S810
G1X1.4S0
G1X1.5S810
G1X3.5S0
G1X0.8S810
G1X4.5S0
G1X1S810
G1X1.5S0
G1X1.2S810
G1X0.9S0
G1X2.3S810
G1X1.2S0
G1X0.3S810
G1X3.6S0
G1X0.7S810
G1X1.1S0
G1X8.8S810
G1X0.8S0
G1X1.6S810
G1X4.1S0
G1X2.6S810
G1X2.2S0
G1X0.7S810
G1X2.4S0
G1X4S810
G1X0.1S0
G1X10S810
G1X2.6S0
G1X0.9S810
G1X1.3S0
G1X3S810
G1X3S0
G1X1.1S810
G1X1.9S0
G1X0.1S810
G1X1.9S0
G1X1.4S810
G1X0.7S0
G1X1.9S810
G1X2.5S0
G1X0.4S810
G1Y0.1S0
G1X-0.5S810
G1X-2.4S0
G1X-2S810
G1X-0.6S0
G1X-1.5S810
G1X-3.8S0
G1X-1.2S810
G1X-2.9S0
G1X-3S810
G1X-1.5S0
G1X-0.7S810
G1X-2.5S0
G1X-10S810
G1X-0.2S0
G1X-4S810
G1X-2.4S0
G1X-0.7S810
G1X-2.2S0
G1X-2.6S810
G1X-4.2S0
G1X-1.6S810
G1X-0.8S0
G1X-8.6S810
G1X-1.3S0
G1X-0.7S810
G1X-1.2S0
G1X-0.1S810
G1X-2.5S0
G1X-0.1S810
G1X-1.2S0
G1X-2.3S810
G1X-0.7S0
G1X-1.4S810
G1X-1.4S0
G1X-1S810
G1X-4.5S0
G1X-1S810
G1X-3.3S0
G1X-1.5S810
G1X-1.4S0
G1X-0.8S810
G1X-0.1Y0.1S0
G1X0.9S810
G1X1.4S0
G1X1.4S810
G1X3.3S0
G1X1.1S810
G1X4.4S0
G1X1S810
G1X1.5S0
G1X1.3S810
G1X0.6S0
G1X2.4S810
G1X3.8S0
G1X0.2S810
G1X1.2S0
G1X0.6S810
G1X1.6S0
G1X8.3S810
G1X0.9S0
G1X1.6S810
G1X4.2S0
G1X2.6S810
G1X2.2S0
G1X0.7S810
G1X2.4S0
G1X4.1S810
G1X0.2S0
G1X9.9S810
G1X2.4S0
G1X0.8S810
G1X1.6S0
G1X3S810
G1X2.8S0
G1X1.1S810
G1X3.9S0
G1X1.5S810
G1X0.6S0
G1X1.9S810
G1X2.4S0
G1X0.5S810
G1Y0.1S0
G1X-0.5S810
G1X-2.4S0
G1X-2S810
G1X-0.5S0
G1X-1.5S810
G1X-4S0
G1X-1S810
G1X-2.8S0
G1X-3S810
G1X-1.9S0
G1X-0.5S810
G1X-2.3S0
G1X-10S810
G1X-0.2S0
G1X-4.1S810
G1X-2.4S0
G1X-0.7S810
G1X-2.2S0
G1X-2.7S810
G1X-4.2S0
G1X-1.4S810
G1X-1.1S0
G1X-8.1S810
G1X-1.8S0
G1X-0.6S810
G1X-1.2S0
G1X-0.3S810
G1X-3.8S0
G1X-2.3S810
G1X-0.5S0
G1X-1.3S810
G1X-1.6S0
G1X-0.9S810
G1X-4.4S0
G1X-1.3S810
G1X-3S0
G1X-1.5S810
G1X-1.5S0
G1X-0.8S810
G1Y0.1S0
G1X0.8S810
G1X1.5S0
G1X1.5S810
G1X2.9S0
G1X1.3S810
G1X4.4S0
G1X1S810
G1X1.5S0
G1X1.5S810
G1X0.3S0
G1X2.3S810
G1X3.8S0
G1X0.3S810
G1X1.2S0
G1X0.6S810
G1X2.1S0
G1X7.9S810
G1X1S0
G1X1.5S810
G1X4.2S0
G1X2.8S810
G1X2.1S0
G1X0.6S810
G1X2.6S0
G1X4S810
G1X0.4S0
G1X10S810
G1X2.1S0
G1X0.3S810
G1X2S0
G1X3.1S810
G1X2.7S0
G1X1.1S810
G1X3.9S0
G1X1.6S810
G1X0.4S0
G1X2.1S810
G1X2.3S0
G1X0.5S810
G1Y0.1S0
G1X-0.6S810
G1X-2.2S0
G1X-2.2S810
G1X-0.3S0
G1X-1.6S810
G1X-4S0
G1X-1S810
G1X-2.7S0
G1X-3S810
G1X-4.5S0
G1X-10S810
G1X-0.4S0
G1X-4S810
G1X-2.6S0
G1X-0.6S810
G1X-2.1S0
G1X-2.7S810
G1X-4.4S0
G1X-1.4S810
G1X-1.1S0
G1X-7.6S810
G1X-2.4S0
G1X-0.6S810
G1X-1.1S0
G1X-0.4S810
G1X-3.8S0
G1X-2.3S810
G1X-0.3S0
G1X-1.4S810
G1X-1.6S0
G1X-1S810
G1X-4.2S0
G1X-1.5S810
G1X-2.8S0
G1X-1.5S810
G1X-1.6S0
G1X-0.8S810
G1Y0.1S0
G1X0.8S810
G1X1.6S0
G1X1.5S810
G1X2.6S0
G1X1.6S810
G1X4.3S0
G1X0.9S810
G1X1.7S0
G1X3.9S810
G1X3.8S0
G1X0.4S810
G1X1.1S0
G1X0.7S810
G1X2.6S0
G1X7.3S810
G1X1.2S0
G1X1.4S810
G1X2.4S0
G1X0.1S810
G1X1.8S0
G1X2.8S810
G1X2.1S0
G1X0.5S810
G1X2.7S0
G1X4S810
G1X0.5S0
G1X10S810
G1X4.4S0
G1X3S810
G1X2.6S0
G1X1S810
G1X4.1S0
G1X1.6S810
G1X0.2S0
G1X2.3S810
G1X2.1S0
G1X0.6S810
G1Y0.1S0
G1X-0.7S810
G1X-2.1S0
G1X-2.2S810
G1X-0.2S0
G1X-1.6S810
G1X-4.2S0
G1X-0.9S810
G1X-2.6S0
G1X-3S810
G1X-4.3S0
G1X-9.9S810
G1X-0.7S0
G1X-4S810
G1X-2.7S0
G1X-0.5S810
G1X-2.1S0
G1X-2.8S810
G1X-1.8S0
G1X-0.1S810
G1X-2.5S0
G1X-1.3S810
G1X-1.3S0
G1X-7.2S810
G1X-2.7S0
G1X-0.6S810
G1X-1.1S0
G1X-0.6S810
G1X-3.8S0
G1X-3.8S810
G1X-1.6S0
G1X-1S810
G1X-4.2S0
G1X-1.7S810
G1X-2.5S0
G1X-1.5S810
G1X-1.6S0
G1X-0.8S810
G1X-0.1Y0.1S0
G1X0.9S810
G1X1.6S0
G1X1.5S810
G1X2.4S0
G1X1.9S810
G1X4.1S0
G1X0.9S810
G1X1.7S0
G1X3.7S810
G1X3.8S0
G1X0.6S810
G1X1.1S0
G1X0.6S810
G1X2.8S0
G1X7.1S810
G1X1.4S0
G1X1.3S810
G1X2.5S0
G1X0.1S810
G1X1.8S0
G1X2.9S810
G1X2S0
G1X0.5S810
G1X2.7S0
G1X4.1S810
G1X0.6S0
G1X10S810
G1X4.2S0
G1X3S810
G1X2.5S0
G1X1S810
G1X4.1S0
G1X1.7S810
G1X0.1S0
G1X2.3S810
G1X2S0
G1X0.8S810
G1X-0.1Y0.1S0
G1X-0.8S810
G1X-1.9S0
G1X-4.1S810
G1X-4.2S0
G1X-0.9S810
G1X-2.5S0
G1X-3S810
G1X-4.1S0
G1X-9.9S810
G1X-0.8S0
G1X-4.1S810
G1X-2.8S0
G1X-0.4S810
G1X-2S0
G1X-2.9S810
G1X-1.8S0
G1X-0.2S810
G1X-2.5S0
G1X-1.2S810
G1X-1.4S0
G1X-4.7S810
G1X-0.1S0
G1X-2.4S810
G1X-2.8S0
G1X-0.6S810
G1X-1.1S0
G1X-0.6S810
G1X-3.8S0
G1X-3.6S810
G1X-1.8S0
G1X-0.9S810
G1X-4.1S0
G1X-0.9S810
G1X-0.1S0
G1X-1S810
G1X-1S0
G1X-0.2S810
G1X-1S0
G1X-1.6S810
G1X-1.6S0
G1X-0.8S810
G1X-0.1Y0.1S0
G1X0.9S810
G1X1.7S0
G1X1.5S810
G1X0.8S0
G1X0.5S810
G1X0.8S0
G1X1S810
G1X0.2S0
G1X0.9S810
G1X4S0
G1X1S810
G1X1.7S0
G1X3.6S810
G1X3.8S0
G1X0.7S810
G1X1S0
G1X0.6S810
G1X2.9S0
G1X1.9S810
G1X1.2S0
G1X4S810
G1X1.4S0
G1X1.3S810
G1X2.5S0
G1X0.1S810
G1X1.8S0
G1X3S810
G1X2S0
G1X0.4S810
G1X2.9S0
G1X4.1S810
G1X0.9S0
G1X9.7S810
G1X4.2S0
G1X2.9S810
G1X2.5S0
G1X0.8S810
G1X4.3S0
G1X4.1S810
G1X1.8S0
G1X0.9S810
G1X-0.1Y0.1S0
G1X-0.9S810
G1X-1.8S0
G1X-4.1S810
G1X-4.2S0
G1X-0.9S810
G1X-2.4S0
G1X-3S810
G1X-4S0
G1X-9.7S810
G1X-1S0
G1X-4.1S810
G1X-2.9S0
G1X-0.4S810
G1X-2S0
G1X-3S810
G1X-1.8S0
G1X-0.1S810
G1X-2.6S0
G1X-1.2S810
G1X-1.5S0
G1X-3.7S810
G1X-1.5S0
G1X-0.1S810
G1X-0.1S0
G1X-1.7S810
G1X-2.9S0
G1X-0.6S810
G1X-1S0
G1X-0.8S810
G1X-3.8S0
G1X-3.4S810
G1X-1.8S0
G1X-0.9S810
G1X-2.1S0
G1X-0.2S810
G1X-1.7S0
G1X-1S810
G1X-0.2S0
G1X-1S810
G1X-0.8S0
G1X-0.5S810
G1X-0.7S0
G1X-1.5S810
G1X-1.7S0
G1X-0.9S810
G1Y0.1S0
G1X0.9S810
G1X1.7S0
G1X1.5S810
G1X0.6S0
G1X0.7S810
G1X0.6S0
G1X1S810
G1X0.3S0
G1X1.1S810
G1X1.4S0
G1X0.4S810
G1X2.1S0
G1X0.9S810
G1X1.8S0
G1X3.3S810
G1X3.8S0
G1X0.8S810
G1X1S0
G1X0.5S810
G1X3S0
G1X1.7S810
G1X1.9S0
G1X3.5S810
G1X1.6S0
G1X1.1S810
G1X2.6S0
G1X0.2S810
G1X1.8S0
G1X3.1S810
G1X1.9S0
G1X0.3S810
G1X3S0
G1X4.2S810
G1X1.1S0
G1X9.6S810
G1X4S0
G1X2.9S810
G1X2.4S0
G1X0.8S810
G1X4.3S0
G1X4.1S810
G1X1.7S0
G1X1S810
G1Y0.1S0
G1X-1.1S810
G1X-1.6S0
G1X-4.1S810
G1X-4.4S0
G1X-0.8S810
G1X-2.3S0
G1X-2.9S810
G1X-3.9S0
G1X-9.1S810
G1X-0.1S0
G1X-0.4S810
G1X-1.2S0
G1X-4.1S810
G1X-3.1S0
G1X-0.3S810
G1X-1.9S0
G1X-3.1S810
G1X-1.8S0
G1X-0.2S810
G1X-2.6S0
G1X-1.1S810
G1X-1.7S0
G1X-3.6S810
G1X-2S0
G1X-1.4S810
G1X-3.1S0
G1X-0.5S810
G1X-0.9S0
G1X-1S810
G1X-3.7S0
G1X-3.3S810
G1X-1.8S0
G1X-0.9S810
G1X-2S0
G1X-0.6S810
G1X-1.3S0
G1X-1S810
G1X-0.4S0
G1X-1.1S810
G1X-0.5S0
G1X-0.8S810
G1X-0.4S0
G1X-1.5S810
G1X-1.8S0
G1X-0.8S810
G1X-0.1Y0.1S0
G1X0.9S810
G1X1.8S0
G1X1.5S810
G1X0.3S0
G1X0.9S810
G1X0.4S0
G1X1.1S810
G1X0.4S0
G1X1.1S810
G1X1.2S0
G1X0.7S810
G1X1.9S0
G1X1S810
G1X1.8S0
G1X3.2S810
G1X3.7S0
G1X1S810
G1X0.8S0
G1X0.5S810
G1X3.2S0
G1X1.5S810
G1X1.9S0
G1X3.7S810
G1X1.6S0
G1X1.2S810
G1X2.6S0
G1X0.2S810
G1X1.8S0
G1X3.1S810
G1X1.8S0
G1X0.4S810
G1X3.1S0
G1X4.2S810
G1X1.4S0
G1X9.4S810
G1X3.7S0
G1X3.1S810
G1X2.2S0
G1X0.7S810
G1X4.4S0
G1X4.1S810
G1X1.6S0
G1X1.1S810
G1Y0.1S0
G1X-1.1S810
G1X-1.6S0
G1X-4.1S810
G1X-4.4S0
G1X-0.8S810
G1X-2.1S0
G1X-3S810
G1X-3.8S0
G1X-9.3S810
G1X-1.5S0
G1X-4.2S810
G1X-3.2S0
G1X-0.2S810
G1X-1.8S0
G1X-3.3S810
G1X-1.8S0
G1X-0.2S810
G1X-2.6S0
G1X-1.1S810
G1X-1.7S0
G1X-3.7S810
G1X-2.1S0
G1X-1.3S810
G1X-3.3S0
G1X-0.3S810
G1X-0.9S0
G1X-1S810
G1X-3.8S0
G1X-3S810
G1X-1.9S0
G1X-0.9S810
G1X-1.9S0
G1X-0.9S810
G1X-0.9S0
G1X-1.2S810
G1X-0.5S0
G1X-1.1S810
G1X-0.2S0
G1X-1.1S810
G1X-0.2S0
G1X-1.5S810
G1X-1.8S0
G1X-0.9S810
G1Y0.1S0
G1X0.9S810
G1X1.8S0
G1X2.7S810
G1X0.2S0
G1X1.1S810
G1X0.6S0
G1X1.1S810
G1X1S0
G1X0.9S810
G1X1.9S0
G1X0.8S810
G1X2S0
G1X2.9S810
G1X3.7S0
G1X1.1S810
G1X0.8S0
G1X0.3S810
G1X3.5S0
G1X1.3S810
G1X1.9S0
G1X3.8S810
G1X1.8S0
G1X1S810
G1X2.7S0
G1X0.2S810
G1X1.8S0
G1X3.3S810
G1X1.7S0
G1X0.3S810
G1X3.3S0
G1X4.2S810
G1X1.7S0
G1X9.1S810
G1X3.7S0
G1X2.9S810
G1X2.2S0
G1X0.7S810
G1X4.5S0
G1X4.1S810
G1X1.5S0
G1X1.1S810
G1Y0.1S0
G1X-1.3S810
G1X-1.3S0
G1X-4.2S810
G1X-4.5S0
G1X-0.6S810
G1X-2.1S0
G1X-3S810
G1X-3.6S0
G1X-9S810
G1X-1.9S0
G1X-4.2S810
G1X-3.4S0
G1X-0.1S810
G1X-1.8S0
G1X-3.3S810
G1X-1.8S0
G1X-0.2S810
G1X-2.7S0
G1X-1S810
G1X-1.9S0
G1X-3.8S810
G1X-2S0
G1X-1.2S810
G1X-3.7S0
G1X-0.1S810
G1X-0.7S0
G1X-1.2S810
G1X-3.7S0
G1X-2.9S810
G1X-1.9S0
G1X-0.9S810
G1X-1.9S0
G1X-1S810
G1X-0.7S0
G1X-1.2S810
G1X-0.7S0
G1X-1.1S810
G1X-0.1S0
G1X-2.7S810
G1X-1.9S0
G1X-0.9S810
G1Y0.1S0
G1X1S810
G1X1.8S0
G1X3.9S810
G1X0.7S0
G1X1.2S810
G1X0.7S0
G1X0.5S810
G1X0.1S0
G1X0.5S810
G1X1.8S0
G1X0.8S810
G1X2S0
G1X2.7S810
G1X3.8S0
G1X1.2S810
G1X4.5S0
G1X1.2S810
G1X2S0
G1X3.8S810
G1X1.9S0
G1X1S810
G1X2.7S0
G1X0.3S810
G1X1.8S0
G1X3.3S810
G1X1.7S0
G1X0.2S810
G1X3.5S0
G1X4.2S810
G1X2.1S0
G1X8.8S810
G1X3.5S0
G1X3S810
G1X2S0
G1X0.6S810
G1X4.6S0
G1X4.1S810
G1X1.4S0
G1X1.3S810
G1X-0.1Y0.1S0
G1X-1.4S810
G1X-1.2S0
G1X-4.1S810
G1X-4.7S0
G1X-0.6S810
G1X-1.9S0
G1X-3S810
G1X-3.5S0
G1X-8.6S810
G1X-2.2S0
G1X-4.2S810
G1X-3.7S0
G1X-0.1S810
G1X-1.6S0
G1X-3.4S810
G1X-1.9S0
G1X-0.3S810
G1X-2.7S0
G1X-0.9S810
G1X-2S0
G1X-3.9S810
G1X-1.9S0
G1X-1.2S810
G1X-4.5S0
G1X-1.3S810
G1X-3.7S0
G1X-2.6S810
G1X-2S0
G1X-0.9S810
G1X-1.7S0
G1X-0.5S810
G1X-0.2S0
G1X-0.5S810
G1X-0.6S0
G1X-1.2S810
G1X-0.8S0
G1X-3.8S810
G1X-1.9S0
G1X-0.9S810
G1X-0.1S0
G1X-0.1S810
G1X-0.3Y0.1S0
G1X1.4S810
G1X2S0
G1X1.8S810
G1X0.1S0
G1X1.7S810
G1X0.8S0
G1X1.3S810
G1X0.5S0
G1X0.5S810
G1X0.3S0
G1X0.5S810
G1X1.6S0
G1X0.9S810
G1X2.1S0
G1X2.5S810
G1X3.7S0
G1X1.3S810
G1X3.2S0
G1X0.1S810
G1X1.2S0
G1X1.2S810
G1X1.9S0
G1X4S810
G1X2S0
G1X0.9S810
G1X2.7S0
G1X0.3S810
G1X1.8S0
G1X3.5S810
G1X5.4S0
G1X4.2S810
G1X2.5S0
G1X8.4S810
G1X3.4S0
G1X3S810
G1X1.9S0
G1X0.5S810
G1X4.7S0
G1X4.2S810
G1X1.2S0
G1X1.4S810
G1Y0.1S0
G1X-1.5S810
G1X-1.2S0
G1X-4.1S810
G1X-1.9S0
G1X-0.2S810
G1X-2.6S0
G1X-0.5S810
G1X-1.9S0
G1X-2.9S810
G1X-3.5S0
G1X-8S810
G1X-2.8S0
G1X-4.2S810
G1X-5.4S0
G1X-3.6S810
G1X-1.8S0
G1X-0.3S810
G1X-2.8S0
G1X-0.8S810
G1X-2.1S0
G1X-4S810
G1X-1.9S0
G1X-1.2S810
G1X-1.3S0
G1X-0.1S810
G1X-3.1S0
G1X-1.4S810
G1X-3.7S0
G1X-2.4S810
G1X-2S0
G1X-0.9S810
G1X-1.6S0
G1X-0.5S810
G1X-0.4S0
G1X-0.5S810
G1X-0.4S0
G1X-1.3S810
G1X-0.8S0
G1X-1.7S810
G1X-0.2S0
G1X-1.7S810
G1X-2S0
G1X-1.6S810
G1X-0.1Y0.1S0
G1X1.8S810
G1X0.1S0
G1X0.1S810
G1X1.7S0
G1X1.7S810
G1X0.2S0
G1X1.6S810
G1X0.9S0
G1X1.3S810
G1X0.3S0
G1X0.5S810
G1X0.5S0
G1X0.5S810
G1X1.6S0
G1X0.8S810
G1X2.1S0
G1X2.3S810
G1X3.7S0
G1X1.4S810
G1X3S0
G1X0.2S810
G1X1.3S0
G1X1.2S810
G1X1.8S0
G1X4.1S810
G1X2.1S0
G1X0.9S810
G1X2.7S0
G1X0.4S810
G1X1.8S0
G1X3.6S810
G1X5.4S0
G1X4.3S810
G1X3S0
G1X7.8S810
G1X3.3S0
G1X3S810
G1X1.8S0
G1X0.4S810
G1X2.6S0
G1X0.3S810
G1X2S0
G1X4.1S810
G1X1.1S0
G1X1.5S810
G1Y0.1S0
G1X-1.6S810
G1X-1.1S0
G1X-4.1S810
G1X-2S0
G1X-0.3S810
G1X-2.5S0
G1X-0.4S810
G1X-1.8S0
G1X-3S810
G1X-3.2S0
G1X-7.5S810
G1X-3.4S0
G1X-4.2S810
G1X-5.5S0
G1X-3.6S810
G1X-1.9S0
G1X-0.3S810
G1X-2.8S0
G1X-0.8S810
G1X-2.2S0
G1X-4.1S810
G1X-1.8S0
G1X-1.2S810
G1X-1.4S0
G1X-0.2S810
G1X-3S0
G1X-1.4S810
G1X-3.7S0
G1X-2.1S810
G1X-2.2S0
G1X-0.8S810
G1X-1.5S0
G1X-0.5S810
G1X-0.5S0
G1X-0.6S810
G1X-0.1S0
G1X-1.4S810
G1X-1S0
G1X-1.5S810
G1X-0.3S0
G1X-0.1S810
G1X-0.1S0
G1X-1.7S810
G1X-1S0
G1X-2.5S810
G1X-0.1Y0.1S0
G1X2.8S810
G1X0.5S0
G1X2.1S810
G1X0.4S0
G1X1.5S810
G1X1S0
G1X2S810
G1X0.6S0
G1X0.6S810
G1X1.4S0
G1X0.8S810
G1X2.1S0
G1X2.1S810
G1X3.6S0
G1X1.5S810
G1X3S0
G1X0.2S810
G1X1.4S0
G1X1.1S810
G1X1.9S0
G1X4.1S810
G1X2.3S0
G1X0.7S810
G1X2.8S0
G1X0.4S810
G1X1.8S0
G1X3.8S810
G1X5.5S0
G1X4.2S810
G1X3.7S0
G1X7.2S810
G1X3.2S0
G1X2.9S810
G1X1.7S0
G1X0.4S810
G1X2.4S0
G1X0.5S810
G1X2S0
G1X4.1S810
G1X1S0
G1X1.7S810
G1X-0.1Y0.1S0
G1X-1.7S810
G1X-0.9S0
G1X-4.2S810
G1X-2S0
G1X-0.6S810
G1X-2.3S0
G1X-0.3S810
G1X-1.7S0
G1X-2.9S810
G1X-3.2S0
G1X-6.8S810
G1X-4S0
G1X-4.2S810
G1X-5.6S0
G1X-3.8S810
G1X-1.9S0
G1X-0.3S810
G1X-2.8S0
G1X-0.7S810
G1X-2.4S0
G1X-4.2S810
G1X-1.8S0
G1X-1.1S810
G1X-1.4S0
G1X-0.3S810
G1X-2.9S0
G1X-1.5S810
G1X-3.6S0
G1X-2S810
G1X-2.1S0
G1X-0.9S810
G1X-1.3S0
G1X-0.6S810
G1X-0.7S0
G1X-1.9S810
G1X-1.1S0
G1X-1.4S810
G1X-0.5S0
G1X-2.1S810
G1X-0.2S0
G1X-3.1S810
G1X-0.1Y0.1S0
G1X5.4S810
G1X0.6S0
G1X1.4S810
G1X1.1S0
G1X1.7S810
G1X0.9S0
G1X0.6S810
G1X1.3S0
G1X0.8S810
G1X2.2S0
G1X1.8S810
G1X3.6S0
G1X1.6S810
G1X2.9S0
G1X0.2S810
G1X1.5S0
G1X1S810
G1X1.9S0
G1X4.2S810
G1X2.4S0
G1X0.7S810
G1X2.8S0
G1X0.4S810
G1X1.9S0
G1X3.9S810
G1X5.6S0
G1X4.2S810
G1X4.3S0
G1X6.5S810
G1X3S0
G1X3S810
G1X1.6S0
G1X0.3S810
G1X2.3S0
G1X0.6S810
G1X2.1S0
G1X4.1S810
G1X0.8S0
G1X1.9S810
G1X-0.1Y0.1S0
G1X-1.8S810
G1X-0.8S0
G1X-4.1S810
G1X-2.2S0
G1X-0.7S810
G1X-2.2S0
G1X-0.2S810
G1X-1.6S0
G1X-2.9S810
G1X-3.1S0
G1X-6S810
G1X-4.8S0
G1X-4.1S810
G1X-5.7S0
G1X-3.9S810
G1X-1.9S0
G1X-0.5S810
G1X-2.8S0
G1X-0.6S810
G1X-2.5S0
G1X-4.2S810
G1X-2S0
G1X-0.9S810
G1X-1.5S0
G1X-0.3S810
G1X-2.9S0
G1X-1.6S810
G1X-3.4S0
G1X-1.8S810
G1X-2.2S0
G1X-0.9S810
G1X-1.2S0
G1X-0.6S810
G1X-0.9S0
G1X-1.8S810
G1X-1S0
G1X-1.4S810
G1X-0.6S0
G1X-1S810
G1X-0.2S0
G1X-4.3S810
G1X-0.1Y0.1S0
G1X0.7S810
G1X0.2S0
G1X1.8S810
G1X0.1S0
G1X1.5S810
G1X0.3S0
G1X0.9S810
G1X0.7S0
G1X1.3S810
G1X1.1S0
G1X1.7S810
G1X1S0
G1X0.7S810
G1X1.1S0
G1X0.8S810
G1X2.3S0
G1X1.6S810
G1X3.4S0
G1X1.7S810
G1X2.8S0
G1X0.4S810
G1X1.5S0
G1X0.9S810
G1X1.9S0
G1X4.4S810
G1X2.4S0
G1X0.7S810
G1X2.8S0
G1X0.4S810
G1X1.9S0
G1X4S810
G1X5.8S0
G1X4.1S810
G1X5.2S0
G1X5.6S810
G1X3S0
G1X2.9S810
G1X1.5S0
G1X0.2S810
G1X2.2S0
G1X0.7S810
G1X2.2S0
G1X4.2S810
G1X0.6S0
G1X2S810
G1Y0.1S0
G1X-2.1S810
G1X-0.6S0
G1X-4.1S810
G1X-2.2S0
G1X-0.9S810
G1X-2.1S0
G1X-0.2S810
G1X-1.4S0
G1X-2.9S810
G1X-2.9S0
G1X-4.9S810
G1X-0.1S0
G1X-0.2S810
G1X-5.6S0
G1X-4.2S810
G1X-5.7S0
G1X-4.1S810
G1X-1.9S0
G1X-0.4S810
G1X-2.9S0
G1X-0.6S810
G1X-2.6S0
G1X-4.3S810
G1X-2S0
G1X-0.8S810
G1X-1.5S0
G1X-0.4S810
G1X-2.9S0
G1X-1.6S810
G1X-3.4S0
G1X-1.6S810
G1X-2.2S0
G1X-0.8S810
G1X-1.1S0
G1X-0.7S810
G1X-0.9S0
G1X-1.9S810
G1X-1S0
G1X-1.3S810
G1X-0.8S0
G1X-0.9S810
G1X-0.3S0
G1X-1.4S810
G1X-0.2S0
G1X-1.8S810
G1X-0.2S0
G1X-0.6S810
G1X-0.1Y0.1S0
G1X0.7S810
G1X0.2S0
G1X1.7S810
G1X0.3S0
G1X1.3S810
G1X0.4S0
G1X0.9S810
G1X0.8S0
G1X1.2S810
G1X1S0
G1X3.7S810
G1X0.9S0
G1X0.8S810
G1X2.3S0
G1X1.6S810
G1X3.2S0
G1X1.7S810
G1X2.8S0
G1X0.4S810
G1X1.6S0
G1X0.7S810
G1X2.1S0
G1X4.4S810
G1X2.6S0
G1X0.6S810
G1X2.8S0
G1X0.5S810
G1X1.9S0
G1X2.3S810
G1X0.2S0
G1X1.7S810
G1X5.7S0
G1X4.2S810
G1X6.2S0
G1X4.5S810
G1X2.9S0
G1X2.9S810
G1X1.4S0
G1X0.1S810
G1X2.1S0
G1X0.9S810
G1X2.2S0
G1X4.2S810
G1X0.5S0
G1X2.2S810
G1X-0.1Y0.1S0
G1X-2.2S810
G1X-0.5S0
G1X-4.1S810
G1X-2.3S0
G1X-1S810
G1X-3.4S0
G1X-2.9S810
G1X-2.8S0
G1X-4S810
G1X-6.8S0
G1X-4.1S810
G1X-5.8S0
G1X-1.7S810
G1X-0.2S0
G1X-2.4S810
G1X-1.9S0
G1X-0.5S810
G1X-2.8S0
G1X-0.5S810
G1X-2.8S0
G1X-4.4S810
G1X-2.1S0
G1X-0.6S810
G1X-1.5S0
G1X-0.6S810
G1X-2.8S0
G1X-1.7S810
G1X-2.9S0
G1X-1.7S810
G1X-2.3S0
G1X-0.8S810
G1X-0.9S0
G1X-3.9S810
G1X-0.7S0
G1X-1.3S810
G1X-0.9S0
G1X-0.8S810
G1X-0.5S0
G1X-1.2S810
G1X-0.3S0
G1X-1.7S810
G1X-0.3S0
G1X-0.7S810
G1X-0.1Y0.1S0
G1X0.7S810
G1X0.4S0
G1X1.7S810
G1X0.3S0
G1X1.1S810
G1X0.6S0
G1X0.7S810
G1X1S0
G1X1.2S810
G1X0.6S0
G1X4.2S810
G1X0.8S0
G1X0.7S810
G1X2.4S0
G1X1.7S810
G1X2.7S0
G1X1.7S810
G1X2.9S0
G1X0.5S810
G1X1.6S0
G1X0.5S810
G1X2.2S0
G1X4.5S810
G1X2.7S0
G1X0.5S810
G1X2.9S0
G1X0.5S810
G1X1.9S0
G1X2.3S810
G1X0.3S0
G1X1.7S810
G1X5.9S0
G1X4.1S810
G1X7.1S0
G1X3.6S810
G1X2.8S0
G1X2.9S810
G1X3.3S0
G1X1S810
G1X2.3S0
G1X4.2S810
G1X0.3S0
G1X2.4S810
G1Y0.1S0
G1X-2.5S810
G1X-0.2S0
G1X-4.2S810
G1X-2.3S0
G1X-1.1S810
G1X-3.2S0
G1X-2.9S810
G1X-2.7S0
G1X-3.4S810
G1X-7.3S0
G1X-4.2S810
G1X-5.8S0
G1X-1.7S810
G1X-0.4S0
G1X-2.3S810
G1X-2S0
G1X-0.5S810
G1X-2.8S0
G1X-0.5S810
G1X-2.9S0
G1X-4.4S810
G1X-2.2S0
G1X-0.5S810
G1X-1.6S0
G1X-0.6S810
G1X-2.8S0
G1X-1.8S810
G1X-2.5S0
G1X-1.7S810
G1X-2.4S0
G1X-0.8S810
G1X-0.6S0
G1X-4.4S810
G1X-0.5S0
G1X-1.1S810
G1X-1.1S0
G1X-0.7S810
G1X-0.6S0
G1X-1S810
G1X-0.5S0
G1X-1.6S810
G1X-0.5S0
G1X-0.6S810
G1X-0.1Y0.1S0
G1X0.7S810
G1X0.5S0
G1X1.5S810
G1X0.5S0
G1X1S810
G1X0.6S0
G1X0.7S810
G1X1.2S0
G1X1.1S810
G1X0.3S0
G1X4.8S810
G1X0.4S0
G1X0.8S810
G1X2.3S0
G1X1.9S810
G1X2.2S0
G1X1.8S810
G1X2.9S0
G1X0.5S810
G1X1.7S0
G1X0.5S810
G1X2.1S0
G1X4.6S810
G1X2.8S0
G1X0.5S810
G1X2.8S0
G1X0.6S810
G1X1.9S0
G1X2.3S810
G1X0.5S0
G1X1.8S810
G1X5.8S0
G1X4.2S810
G1X7.4S0
G1X3.2S810
G1X2.7S0
G1X2.9S810
G1X3.1S0
G1X1.1S810
G1X2.4S0
G1X6.8S810
G1Y0.1S0
G1X-6.9S810
G1X-2.4S0
G1X-1.1S810
G1X-3S0
G1X-2.9S810
G1X-2.6S0
G1X-3S810
G1X-7.6S0
G1X-4.2S810
G1X-5.9S0
G1X-1.8S810
G1X-0.6S0
G1X-2.2S810
G1X-1.9S0
G1X-0.6S810
G1X-2.9S0
G1X-0.4S810
G1X-2.9S0
G1X-4.6S810
G1X-2.2S0
G1X-0.5S810
G1X-1.5S0
G1X-0.7S810
G1X-2.9S0
G1X-1.9S810
G1X-1.8S0
G1X-2S810
G1X-2.4S0
G1X-0.8S810
G1X-0.1S0
G1X-6.4S810
G1X-1.2S0
G1X-0.7S810
G1X-0.7S0
G1X-0.9S810
G1X-0.5S0
G1X-1.5S810
G1X-0.6S0
G1X-0.7S810
G1Y0.1S0
G1X0.7S810
G1X0.6S0
G1X1.5S810
G1X0.6S0
G1X0.8S810
G1X0.7S0
G1X0.6S810
G1X1.3S0
G1X7.3S810
G1X2.4S0
G1X2.2S810
G1X1.3S0
G1X2.1S810
G1X2.8S0
G1X0.7S810
G1X1.7S0
G1X0.3S810
G1X2.2S0
G1X4.7S810
G1X3S0
G1X0.4S810
G1X2.8S0
G1X0.6S810
G1X1.9S0
G1X2.3S810
G1X0.7S0
G1X1.7S810
G1X5.9S0
G1X4.3S810
G1X7.6S0
G1X2.9S810
G1X2.6S0
G1X2.9S810
G1X2.8S0
G1X1.2S810
G1X2.5S0
G1X6.9S810
G1X-0.1Y0.1S0
G1X-6.9S810
G1X-2.5S0
G1X-1.2S810
G1X-2.7S0
G1X-2.9S810
G1X-2.5S0
G1X-2.8S810
G1X-7.8S0
G1X-4.2S810
G1X-5.9S0
G1X-1.9S810
G1X-0.7S0
G1X-2.2S810
G1X-2S0
G1X-0.6S810
G1X-2.8S0
G1X-0.4S810
G1X-3S0
G1X-4.7S810
G1X-2.2S0
G1X-0.4S810
G1X-1.6S0
G1X-0.8S810
G1X-2.8S0
G1X-2.2S810
G1X-0.1S0
G1X-0.1S810
G1X-0.6S0
G1X-2.4S810
G1X-2.5S0
G1X-7.2S810
G1X-1.3S0
G1X-0.7S810
G1X-0.7S0
G1X-0.8S810
G1X-0.6S0
G1X-1.5S810
G1X-0.6S0
G1X-0.7S810
G1Y0.1S0
G1X0.6S810
G1X0.8S0
G1X1.4S810
G1X0.7S0
G1X0.7S810
G1X0.7S0
G1X0.6S810
G1X1.4S0
G1X7.2S810
G1X2.5S0
G1X5.3S810
G1X2.8S0
G1X0.8S810
G1X1.6S0
G1X0.3S810
G1X2.3S0
G1X4.7S810
G1X3.1S0
G1X0.3S810
G1X2.9S0
G1X0.6S810
G1X2S0
G1X2.1S810
G1X0.9S0
G1X1.9S810
G1X5.8S0
G1X4.3S810
G1X7.9S0
G1X2.7S810
G1X2.4S0
G1X2.9S810
G1X2.6S0
G1X1.3S810
G1X2.5S0
G1X6.9S810
G1Y0.1S0
G1X-7S810
G1X-2.5S0
G1X-1.3S810
G1X-2.5S0
G1X-2.9S810
G1X-2.4S0
G1X-2.6S810
G1X-7.9S0
G1X-4.3S810
G1X-5.8S0
G1X-2S810
G1X-0.9S0
G1X-2.2S810
G1X-2S0
G1X-0.6S810
G1X-2.9S0
G1X-0.2S810
G1X-3.2S0
G1X-4.8S810
G1X-2.3S0
G1X-0.2S810
G1X-1.7S0
G1X-0.8S810
G1X-2.7S0
G1X-5.3S810
G1X-2.5S0
G1X-7.1S810
G1X-1.4S0
G1X-0.6S810
G1X-0.8S0
G1X-0.6S810
G1X-0.8S0
G1X-1.4S810
G1X-0.7S0
G1X-0.7S810
G1Y0.1S0
G1X0.6S810
G1X0.9S0
G1X1.3S810
G1X0.7S0
G1X0.7S810
G1X0.7S0
G1X0.7S810
G1X1.5S0
G1X7.1S810
G1X2.4S0
G1X5.1S810
G1X2.7S0
G1X0.9S810
G1X1.6S0
G1X0.3S810
G1X2.3S0
G1X4.8S810
G1X3.2S0
G1X0.3S810
G1X2.8S0
G1X0.7S810
G1X2S0
G1X2.1S810
G1X1S0
G1X2S810
G1X5.8S0
G1X4.4S810
G1X7.9S0
G1X2.5S810
G1X2.4S0
G1X2.9S810
G1X2.4S0
G1X1.3S810
G1X2.6S0
G1X7S810
G1X2.7Y0.1S0
G1X-0.2S810
G1X-2.6S0
G1X-4.4S810
G1X-0.2S0
G1X-2.4S810
G1X-2.5S0
G1X-1.4S810
G1X-2.3S0
G1X-2.9S810
G1X-2.3S0
G1X-2.4S810
G1X-8S0
G1X-4.4S810
G1X-5.9S0
G1X-1.9S810
G1X-1.2S0
G1X-2S810
G1X-2.1S0
G1X-0.7S810
G1X-2.8S0
G1X-0.2S810
G1X-3.3S0
G1X-4.8S810
G1X-2.4S0
G1X-0.2S810
G1X-1.6S0
G1X-0.9S810
G1X-2.7S0
G1X-5S810
G1X-2.4S0
G1X-2.7S810
G1X-1.7S0
G1X-2.9S810
G1X-1.4S0
G1X-0.7S810
G1X-0.7S0
G1X-0.5S810
G1X-0.9S0
G1X-1.3S810
G1X-0.8S0
G1X-0.7S810
G1X-0.1Y0.1S0
G1X0.7S810
G1X0.9S0
G1X1.3S810
G1X0.9S0
G1X0.5S810
G1X0.7S0
G1X0.7S810
G1X1.2S0
G1X2.7S810
G1X2.1S0
G1X2.7S810
G1X2.4S0
G1X4.9S810
G1X2.6S0
G1X1S810
G1X4.1S0
G1X4.9S810
G1X3.4S0
G1X0.2S810
G1X2.8S0
G1X0.7S810
G1X2S0
G1X2.1S810
G1X1.1S0
G1X2.2S810
G1X5.7S0
G1X4.5S810
G1X7.9S0
G1X2.4S810
G1X2.4S0
G1X2.8S810
G1X2.2S0
G1X1.4S810
G1X2.6S0
G1X2.3S810
G1X0.3S0
G1X4.4S810
G1X2.5S0
G1X0.2S810
G1X-0.1Y0.1S0
G1X-0.3S810
G1X-2.3S0
G1X-4.5S810
G1X-0.2S0
G1X-2.4S810
G1X-2.6S0
G1X-1.5S810
G1X-2S0
G1X-2.9S810
G1X-2.2S0
G1X-2.3S810
G1X-8.1S0
G1X-4.5S810
G1X-5.7S0
G1X-2.1S810
G1X-1.3S0
G1X-2.1S810
G1X-2S0
G1X-0.7S810
G1X-2.8S0
G1X-0.2S810
G1X-3.4S0
G1X-5S810
G1X-4.1S0
G1X-1S810
G1X-2.6S0
G1X-4.7S810
G1X-2.2S0
G1X-2.8S810
G1X-2.5S0
G1X-2.7S810
G1X-0.9S0
G1X-0.8S810
G1X-0.6S0
G1X-0.5S810
G1X-0.9S0
G1X-1.2S810
G1X-1S0
G1X-0.7S810
G1X-0.8S0
G1X-0.1S810
G1X-0.6Y0.1S0
G1X1.2S810
G1X0.2S0
G1X0.7S810
G1X1.1S0
G1X1.1S810
G1X0.9S0
G1X0.5S810
G1X0.6S0
G1X0.9S810
G1X0.5S0
G1X1.8S810
G1X0.1S0
G1X0.9S810
G1X2.9S0
G1X2.8S810
G1X2.1S0
G1X4.6S810
G1X2.5S0
G1X1.2S810
G1X4S0
G1X5S810
G1X3.5S0
G1X0.1S810
G1X2.8S0
G1X0.7S810
G1X2.1S0
G1X2S810
G1X1.4S0
G1X2.2S810
G1X5.7S0
G1X4.5S810
G1X8S0
G1X2.3S810
G1X2.2S0
G1X2.9S810
G1X2S0
G1X1.5S810
G1X2.6S0
G1X2.2S810
G1X0.3S0
G1X4.5S810
G1X2.3S0
G1X0.4S810
G1X-0.1Y0.1S0
G1X-0.4S810
G1X-2.2S0
G1X-4.4S810
G1X-0.4S0
G1X-2.3S810
G1X-2.6S0
G1X-1.5S810
G1X-1.9S0
G1X-2.9S810
G1X-2.2S0
G1X-2.2S810
G1X-8S0
G1X-4.6S810
G1X-5.6S0
G1X-2.3S810
G1X-1.5S0
G1X-1.9S810
G1X-2.1S0
G1X-0.8S810
G1X-2.8S0
G1X-0.1S810
G1X-3.5S0
G1X-5S810
G1X-4.1S0
G1X-1.1S810
G1X-2.6S0
G1X-4.4S810
G1X-2S0
G1X-2.9S810
G1X-3.3S0
G1X-3.9S810
G1X-0.5S0
G1X-0.4S810
G1X-1S0
G1X-1.2S810
G1X-1.1S0
G1X-0.6S810
G1X-0.1S0
G1X-1.4S810
G1X-0.1Y0.1S0
G1X2.2S810
G1X1.2S0
G1X1S810
G1X1.1S0
G1X0.4S810
G1X0.3S0
G1X3.9S810
G1X3.6S0
G1X2.9S810
G1X1.9S0
G1X4.3S810
G1X2.5S0
G1X1.2S810
G1X4S0
G1X5.1S810
G1X6.4S0
G1X0.8S810
G1X2.1S0
G1X1.9S810
G1X1.6S0
G1X2.3S810
G1X5.6S0
G1X4.6S810
G1X1.7S0
G1X0.1S810
G1X6.3S0
G1X2.2S810
G1X2.1S0
G1X2.9S810
G1X1.7S0
G1X1.6S810
G1X2.7S0
G1X2.1S810
G1X0.5S0
G1X4.5S810
G1X2S0
G1X0.6S810
G1X-0.1Y0.1S0
G1X-0.6S810
G1X-1.9S0
G1X-4.5S810
G1X-0.6S0
G1X-2.1S810
G1X-2.6S0
G1X-1.6S810
G1X-1.7S0
G1X-2.9S810
G1X-2.1S0
G1X-2.2S810
G1X-6.1S0
G1X-0.3S810
G1X-1.6S0
G1X-4.6S810
G1X-5.6S0
G1X-2.4S810
G1X-1.6S0
G1X-1.9S810
G1X-2.1S0
G1X-0.9S810
G1X-6.4S0
G1X-5.1S810
G1X-4S0
G1X-1.3S810
G1X-2.4S0
G1X-4.3S810
G1X-1.7S0
G1X-2.9S810
G1X-3.9S0
G1X-5S810
G1X-0.1S0
G1X-0.1S810
G1X-0.1S0
G1X-1.2S810
G1X-1.1S0
G1X-2.5S810
G1X-0.1Y0.1S0
G1X2.9S810
G1X0.7S0
G1X6.5S810
G1X4.1S0
G1X3S810
G1X1.6S0
G1X4.1S810
G1X2.3S0
G1X1.3S810
G1X4S0
G1X5.2S810
G1X6.4S0
G1X0.9S810
G1X2.1S0
G1X1.9S810
G1X1.7S0
G1X2.5S810
G1X5.5S0
G1X4.6S810
G1X1.7S0
G1X0.3S810
G1X6.1S0
G1X2.2S810
G1X2.1S0
G1X2.8S810
G1X1.6S0
G1X1.6S810
G1X2.6S0
G1X2.2S810
G1X0.5S0
G1X4.5S810
G1X1.9S0
G1X0.7S810
G1X-0.1Y0.1S0
G1X-0.7S810
G1X-1.8S0
G1X-4.5S810
G1X-0.7S0
G1X-2S810
G1X-2.6S0
G1X-1.7S810
G1X-1.5S0
G1X-2.9S810
G1X-2S0
G1X-2.1S810
G1X-6S0
G1X-0.4S810
G1X-1.7S0
G1X-4.7S810
G1X-5.4S0
G1X-2.5S810
G1X-1.9S0
G1X-1.8S810
G1X-2.2S0
G1X-0.9S810
G1X-6.4S0
G1X-5.2S810
G1X-4S0
G1X-1.4S810
G1X-2.3S0
G1X-4S810
G1X-1.4S0
G1X-3S810
G1X-4.4S0
G1X-10S810
G1X-0.1Y0.1S0
G1X10S810
G1X4.6S0
G1X3S810
G1X1.3S0
G1X4S810
G1X2.2S0
G1X1.4S810
G1X3.9S0
G1X5.3S810
G1X6.4S0
G1X0.9S810
G1X2.2S0
G1X1.8S810
G1X1.9S0
G1X2.7S810
G1X5.3S0
G1X4.8S810
G1X1.7S0
G1X0.4S810
G1X5.9S0
G1X2.2S810
G1X1.9S0
G1X2.9S810
G1X1.4S0
G1X1.7S810
G1X2.6S0
G1X2.1S810
G1X0.7S0
G1X4.5S810
G1X1.7S0
G1X0.7S810
